;FLAVOR:Marlin
;TIME:2192
;Filament used: 1.44357m
;Layer height: 0.2
;MINX:100.7
;MINY:83.7
;MINZ:0.2
;MAXX:134.3
;MAXY:141.3
;MAXZ:10
;Generated with Cura_SteamEngine 4.9.0
M140 S50
M105
M190 S50
M104 S200
M105
M109 S200
M82 ;absolute extrusion mode
; Ender 3 Custom Start G-code
G92 E0 ; Reset Extruder
G28 ; Home all axes
G1 Z2.0 F3000 ; Move Z Axis up little to prevent scratching of Heat Bed
G1 X0.1 Y20 Z0.3 F5000.0 ; Move to start position
G1 X0.1 Y200.0 Z0.3 F1500.0 E15 ; Draw the first line
G1 X0.4 Y200.0 Z0.3 F5000.0 ; Move to side a little
G1 X0.4 Y20 Z0.3 F1500.0 E30 ; Draw the second line
G92 E0 ; Reset Extruder
G1 Z2.0 F3000 ; Move Z Axis up little to prevent scratching of Heat Bed
G1 X5 Y20 Z0.3 F5000.0 ; Move over to prevent blob squish
G92 E0
G92 E0
G1 F2700 E-5
;LAYER_COUNT:50
;LAYER:0
M107
G0 F6000 X103.126 Y87.759 Z0.2
;TYPE:SKIRT
G1 F2700 E0
G1 F1200 X103.406 Y87.465 E0.0135
G1 X104.465 Y86.406 E0.06332
G1 X105.051 Y85.876 E0.0896
G1 X105.687 Y85.409 E0.11584
G1 X106.078 Y85.167 E0.13113
G1 X106.778 Y84.802 E0.15739
G1 X107.512 Y84.51 E0.18366
G1 X108.007 Y84.36 E0.20087
G1 X109.466 Y83.969 E0.25111
G1 X110.238 Y83.803 E0.27737
G1 X110.711 Y83.741 E0.29324
G1 X111.514 Y83.7 E0.31998
G1 X123.486 Y83.7 E0.71817
G1 X124.289 Y83.741 E0.74491
G1 X124.318 Y83.744 E0.74588
G1 X125.098 Y83.865 E0.77213
G1 X125.534 Y83.969 E0.78704
G1 X126.993 Y84.36 E0.83728
G1 X127.745 Y84.603 E0.86357
G1 X128.468 Y84.92 E0.88982
G1 X128.922 Y85.167 E0.90701
G1 X128.968 Y85.194 E0.90879
G1 X129.628 Y85.628 E0.93506
G1 X130.241 Y86.126 E0.96133
G1 X130.535 Y86.406 E0.97483
G1 X131.594 Y87.465 E1.02465
G1 X132.124 Y88.051 E1.05092
G1 X132.591 Y88.687 E1.07717
G1 X132.833 Y89.078 E1.09246
G1 X133.198 Y89.778 E1.11872
G1 X133.49 Y90.512 E1.14499
G1 X133.64 Y91.007 E1.1622
G1 X134.031 Y92.466 E1.21244
G1 X134.249 Y93.624 E1.25163
G1 X134.252 Y93.651 E1.25253
G1 X134.3 Y94.512 E1.28121
G1 X134.3 Y107.383 E1.7093
G1 X134.279 Y107.793 E1.72296
G1 X134.29 Y107.898 E1.72647
G1 X134.3 Y108.3 E1.73984
G1 X134.3 Y116.7 E2.01923
G1 X134.28 Y117.097 E2.03245
G1 X134.3 Y117.617 E2.04976
G1 X134.3 Y130.486 E2.47778
G1 X134.259 Y131.289 E2.50453
G1 X134.256 Y131.318 E2.5055
G1 X134.135 Y132.098 E2.53175
G1 X134.031 Y132.534 E2.54666
G1 X133.64 Y133.993 E2.5969
G1 X133.397 Y134.745 E2.62318
G1 X133.08 Y135.468 E2.64944
G1 X132.833 Y135.922 E2.66663
G1 X132.806 Y135.968 E2.6684
G1 X132.372 Y136.628 E2.69467
G1 X131.874 Y137.241 E2.72094
G1 X131.594 Y137.535 E2.73445
G1 X130.535 Y138.594 E2.78426
G1 X129.949 Y139.124 E2.81054
G1 X129.313 Y139.591 E2.83678
G1 X128.922 Y139.833 E2.85208
G1 X128.222 Y140.198 E2.87833
G1 X127.488 Y140.49 E2.90461
G1 X126.993 Y140.64 E2.92181
G1 X125.534 Y141.031 E2.97205
G1 X124.762 Y141.197 E2.99831
G1 X124.289 Y141.259 E3.01418
G1 X123.486 Y141.3 E3.04092
G1 X111.514 Y141.3 E3.43911
G1 X110.711 Y141.259 E3.46585
G1 X110.682 Y141.256 E3.46682
G1 X109.902 Y141.135 E3.49308
G1 X109.466 Y141.031 E3.50799
G1 X108.007 Y140.64 E3.55822
G1 X107.255 Y140.397 E3.58451
G1 X106.532 Y140.08 E3.61077
G1 X106.078 Y139.833 E3.62796
G1 X106.032 Y139.806 E3.62973
G1 X105.372 Y139.372 E3.656
G1 X104.759 Y138.874 E3.68227
G1 X104.465 Y138.594 E3.69578
G1 X103.406 Y137.535 E3.74559
G1 X102.876 Y136.949 E3.77187
G1 X102.409 Y136.313 E3.79811
G1 X102.167 Y135.922 E3.81341
G1 X101.802 Y135.222 E3.83966
G1 X101.51 Y134.488 E3.86594
G1 X101.36 Y133.993 E3.88314
G1 X100.969 Y132.534 E3.93338
G1 X100.751 Y131.376 E3.97257
G1 X100.748 Y131.349 E3.97347
G1 X100.7 Y130.488 E4.00215
G1 X100.7 Y117.617 E4.43025
G1 X100.721 Y117.207 E4.4439
G1 X100.71 Y117.102 E4.44741
G1 X100.7 Y116.698 E4.46085
G1 X100.702 Y108.298 E4.74024
G1 X100.721 Y107.925 E4.75266
G1 X100.7 Y107.383 E4.7707
G1 X100.7 Y94.514 E5.19873
G1 X100.741 Y93.711 E5.22547
G1 X100.744 Y93.682 E5.22644
G1 X100.865 Y92.902 E5.25269
G1 X100.969 Y92.466 E5.2676
G1 X101.36 Y91.007 E5.31784
G1 X101.603 Y90.255 E5.34412
G1 X101.92 Y89.532 E5.37038
G1 X102.167 Y89.078 E5.38757
G1 X102.194 Y89.032 E5.38934
G1 X102.628 Y88.372 E5.41562
G1 X103.126 Y87.759 E5.44189
G0 F6000 X103.688 Y87.747
G1 F1200 X104.747 Y86.688 E5.4917
G1 X105.319 Y86.174 E5.51728
G1 X106.234 Y85.539 E5.55432
G1 X106.28 Y85.512 E5.55609
G1 X106.963 Y85.158 E5.58168
G1 X107.679 Y84.876 E5.60727
G1 X108.11 Y84.746 E5.62225
G1 X109.569 Y84.355 E5.67249
G1 X110.322 Y84.195 E5.69809
G1 X110.753 Y84.139 E5.71255
G1 X111.514 Y84.1 E5.73789
G1 X123.486 Y84.1 E6.13608
G1 X124.247 Y84.139 E6.16142
G1 X124.276 Y84.142 E6.16239
G1 X125.036 Y84.261 E6.18798
G1 X125.431 Y84.355 E6.20148
G1 X126.89 Y84.746 E6.25172
G1 X127.621 Y84.984 E6.27729
G1 X128.324 Y85.296 E6.30287
G1 X128.72 Y85.512 E6.31788
G1 X128.766 Y85.539 E6.31965
G1 X129.408 Y85.962 E6.34522
G1 X130.253 Y86.688 E6.38228
G1 X131.312 Y87.747 E6.43209
G1 X131.826 Y88.319 E6.45767
G1 X132.461 Y89.234 E6.49471
G1 X132.488 Y89.28 E6.49648
G1 X132.842 Y89.963 E6.52207
G1 X133.124 Y90.679 E6.54766
G1 X133.254 Y91.11 E6.56264
G1 X133.645 Y92.569 E6.61288
G1 X133.852 Y93.668 E6.65007
G1 X133.855 Y93.695 E6.65098
G1 X133.9 Y94.512 E6.67819
G1 X133.9 Y107.383 E7.10628
G1 X133.875 Y107.865 E7.12233
G1 X133.9 Y108.3 E7.13683
G1 X133.9 Y116.7 E7.41621
G1 X133.879 Y117.108 E7.4298
G1 X133.888 Y117.192 E7.43261
G1 X133.9 Y117.617 E7.44675
G1 X133.9 Y130.486 E7.87478
G1 X133.861 Y131.247 E7.90012
G1 X133.858 Y131.276 E7.90109
G1 X133.739 Y132.036 E7.92667
G1 X133.645 Y132.431 E7.94018
G1 X133.254 Y133.89 E7.99042
G1 X133.016 Y134.621 E8.01599
G1 X132.704 Y135.324 E8.04157
G1 X132.488 Y135.72 E8.05657
G1 X132.461 Y135.766 E8.05835
G1 X132.038 Y136.408 E8.08392
G1 X131.312 Y137.253 E8.12097
G1 X130.253 Y138.312 E8.17078
G1 X129.681 Y138.826 E8.19636
G1 X128.766 Y139.461 E8.2334
G1 X128.72 Y139.488 E8.23518
G1 X128.037 Y139.842 E8.26076
G1 X127.321 Y140.124 E8.28636
G1 X126.89 Y140.254 E8.30133
G1 X125.431 Y140.645 E8.35157
G1 X124.678 Y140.805 E8.37718
G1 X124.247 Y140.861 E8.39163
G1 X123.486 Y140.9 E8.41697
G1 X111.514 Y140.9 E8.81517
G1 X110.753 Y140.861 E8.84051
G1 X110.724 Y140.858 E8.84148
G1 X109.964 Y140.739 E8.86706
G1 X109.569 Y140.645 E8.88057
G1 X108.11 Y140.254 E8.93081
G1 X107.379 Y140.016 E8.95638
G1 X106.676 Y139.704 E8.98196
G1 X106.28 Y139.488 E8.99696
G1 X106.234 Y139.461 E8.99874
G1 X105.592 Y139.038 E9.02431
G1 X104.747 Y138.312 E9.06136
G1 X103.688 Y137.253 E9.11117
G1 X103.174 Y136.681 E9.13675
G1 X102.539 Y135.766 E9.17379
G1 X102.512 Y135.72 E9.17557
G1 X102.158 Y135.037 E9.20115
G1 X101.876 Y134.321 E9.22675
G1 X101.746 Y133.89 E9.24172
G1 X101.355 Y132.431 E9.29196
G1 X101.148 Y131.332 E9.32916
G1 X101.145 Y131.305 E9.33006
G1 X101.1 Y130.488 E9.35727
G1 X101.1 Y117.617 E9.78537
G1 X101.125 Y117.134 E9.80145
G1 X101.1 Y116.698 E9.81598
G1 X101.102 Y108.298 E10.09536
G1 X101.123 Y107.904 E10.10849
G1 X101.112 Y107.808 E10.1117
G1 X101.1 Y107.383 E10.12584
G1 X101.1 Y94.514 E10.55387
G1 X101.139 Y93.753 E10.57921
G1 X101.142 Y93.724 E10.58018
G1 X101.261 Y92.964 E10.60576
G1 X101.355 Y92.569 E10.61927
G1 X101.746 Y91.11 E10.66951
G1 X101.984 Y90.379 E10.69508
G1 X102.296 Y89.676 E10.72066
G1 X102.512 Y89.28 E10.73566
G1 X102.539 Y89.234 E10.73744
G1 X102.962 Y88.592 E10.76301
G1 X103.688 Y87.747 E10.80006
G0 F6000 X103.971 Y88.03
G1 F1200 X105.03 Y86.971 E10.84987
G1 X105.587 Y86.471 E10.87477
G1 X106.437 Y85.884 E10.90913
G1 X106.483 Y85.857 E10.9109
G1 X107.147 Y85.513 E10.93577
G1 X107.844 Y85.243 E10.96063
G1 X108.214 Y85.133 E10.97347
G1 X109.673 Y84.742 E11.02371
G1 X110.765 Y84.54 E11.06065
G1 X110.794 Y84.537 E11.06162
G1 X111.514 Y84.5 E11.0856
G1 X123.486 Y84.5 E11.48379
G1 X124.206 Y84.537 E11.50776
G1 X124.235 Y84.54 E11.50873
G1 X125.327 Y84.742 E11.54567
G1 X126.786 Y85.133 E11.59591
G1 X127.497 Y85.365 E11.62078
G1 X128.18 Y85.671 E11.64568
G1 X128.563 Y85.884 E11.66025
G1 X129.187 Y86.297 E11.68514
G1 X129.97 Y86.971 E11.7195
G1 X131.029 Y88.03 E11.76932
G1 X131.529 Y88.587 E11.79421
G1 X132.116 Y89.437 E11.82857
G1 X132.143 Y89.483 E11.83034
G1 X132.487 Y90.147 E11.85521
G1 X132.757 Y90.844 E11.88008
G1 X132.867 Y91.214 E11.89291
G1 X133.258 Y92.673 E11.94315
G1 X133.454 Y93.712 E11.97832
G1 X133.457 Y93.739 E11.97922
G1 X133.5 Y94.512 E12.00497
G1 X133.5 Y107.383 E12.43306
G1 X133.479 Y107.77 E12.44595
G1 X133.481 Y107.783 E12.44639
G1 X133.5 Y108.3 E12.4636
G1 X133.5 Y116.7 E12.74298
G1 X133.472 Y117.225 E12.76047
G1 X133.5 Y117.617 E12.77354
G1 X133.5 Y130.486 E13.20157
G1 X133.463 Y131.206 E13.22555
G1 X133.46 Y131.235 E13.22652
G1 X133.258 Y132.327 E13.26345
G1 X132.867 Y133.786 E13.31369
G1 X132.635 Y134.497 E13.33857
G1 X132.329 Y135.18 E13.36346
G1 X132.116 Y135.563 E13.37803
G1 X131.703 Y136.187 E13.40292
G1 X131.029 Y136.97 E13.43728
G1 X129.97 Y138.029 E13.4871
G1 X129.413 Y138.529 E13.51199
G1 X128.563 Y139.116 E13.54635
G1 X128.517 Y139.143 E13.54812
G1 X127.853 Y139.487 E13.573
G1 X127.156 Y139.757 E13.59786
G1 X126.786 Y139.867 E13.6107
G1 X125.327 Y140.258 E13.66093
G1 X124.235 Y140.46 E13.69787
G1 X124.206 Y140.463 E13.69884
G1 X123.486 Y140.5 E13.72282
G1 X111.514 Y140.5 E14.12101
G1 X110.794 Y140.463 E14.14499
G1 X110.765 Y140.46 E14.14596
G1 X109.673 Y140.258 E14.18289
G1 X108.214 Y139.867 E14.23313
G1 X107.503 Y139.635 E14.25801
G1 X106.82 Y139.329 E14.2829
G1 X106.437 Y139.116 E14.29748
G1 X105.813 Y138.703 E14.32236
G1 X105.03 Y138.029 E14.35673
G1 X103.971 Y136.97 E14.40654
G1 X103.471 Y136.413 E14.43143
G1 X102.884 Y135.563 E14.46579
G1 X102.857 Y135.517 E14.46757
G1 X102.513 Y134.853 E14.49244
G1 X102.243 Y134.156 E14.5173
G1 X102.133 Y133.786 E14.53014
G1 X101.742 Y132.327 E14.58038
G1 X101.546 Y131.288 E14.61554
G1 X101.543 Y131.261 E14.61645
G1 X101.5 Y130.488 E14.6422
G1 X101.5 Y117.617 E15.07029
G1 X101.521 Y117.23 E15.08318
G1 X101.519 Y117.217 E15.08362
G1 X101.5 Y116.698 E15.10089
G1 X101.502 Y108.298 E15.38027
G1 X101.529 Y107.79 E15.39719
G1 X101.5 Y107.383 E15.41077
G1 X101.5 Y94.514 E15.83879
G1 X101.537 Y93.794 E15.86277
G1 X101.54 Y93.765 E15.86374
G1 X101.742 Y92.673 E15.90068
G1 X102.133 Y91.214 E15.95091
G1 X102.365 Y90.503 E15.97579
G1 X102.671 Y89.82 E16.00068
G1 X102.884 Y89.437 E16.01526
G1 X103.297 Y88.813 E16.04015
G1 X103.971 Y88.03 E16.07451
G0 F6000 X104.254 Y88.313
G1 F1200 X105.313 Y87.254 E16.12432
G1 X105.854 Y86.77 E16.14846
G1 X106.639 Y86.229 E16.18017
G1 X106.685 Y86.202 E16.18195
G1 X107.331 Y85.869 E16.20612
G1 X108.318 Y85.519 E16.24095
G1 X109.777 Y85.128 E16.29119
G1 X110.806 Y84.938 E16.32599
G1 X110.835 Y84.935 E16.32696
G1 X111.514 Y84.9 E16.34958
G1 X123.486 Y84.9 E16.74777
G1 X124.165 Y84.935 E16.77038
G1 X124.194 Y84.938 E16.77135
G1 X125.223 Y85.128 E16.80615
G1 X126.682 Y85.519 E16.85639
G1 X127.373 Y85.745 E16.88057
G1 X128.315 Y86.202 E16.9154
G1 X128.361 Y86.229 E16.91717
G1 X128.966 Y86.631 E16.94133
G1 X129.687 Y87.254 E16.97302
G1 X130.746 Y88.313 E17.02283
G1 X131.23 Y88.854 E17.04698
G1 X131.771 Y89.639 E17.07869
G1 X131.798 Y89.685 E17.08046
G1 X132.131 Y90.331 E17.10463
G1 X132.481 Y91.318 E17.13946
G1 X132.872 Y92.777 E17.1897
G1 X133.057 Y93.756 E17.22284
G1 X133.06 Y93.783 E17.22375
G1 X133.1 Y94.512 E17.24803
G1 X133.1 Y107.383 E17.67612
G1 X133.072 Y107.895 E17.69317
G1 X133.1 Y108.3 E17.70668
G1 X133.1 Y116.7 E17.98606
G1 X133.073 Y117.186 E18.00225
G1 X133.1 Y117.617 E18.01661
G1 X133.1 Y130.486 E18.44464
G1 X133.065 Y131.165 E18.46725
G1 X133.062 Y131.194 E18.46822
G1 X132.872 Y132.223 E18.50303
G1 X132.481 Y133.682 E18.55326
G1 X132.255 Y134.373 E18.57745
G1 X131.798 Y135.315 E18.61227
G1 X131.771 Y135.361 E18.61404
G1 X131.369 Y135.966 E18.6382
G1 X130.746 Y136.687 E18.66989
G1 X129.687 Y137.746 E18.71971
G1 X129.146 Y138.23 E18.74385
G1 X128.361 Y138.771 E18.77556
G1 X128.315 Y138.798 E18.77733
G1 X127.669 Y139.131 E18.80151
G1 X126.682 Y139.481 E18.83634
G1 X125.223 Y139.872 E18.88658
G1 X124.194 Y140.062 E18.92138
G1 X124.165 Y140.065 E18.92235
G1 X123.486 Y140.1 E18.94496
G1 X111.514 Y140.1 E19.34315
G1 X110.835 Y140.065 E19.36577
G1 X110.806 Y140.062 E19.36674
G1 X109.777 Y139.872 E19.40154
G1 X108.318 Y139.481 E19.45178
G1 X107.627 Y139.255 E19.47596
G1 X106.685 Y138.798 E19.51078
G1 X106.639 Y138.771 E19.51256
G1 X106.034 Y138.369 E19.53672
G1 X105.313 Y137.746 E19.56841
G1 X104.254 Y136.687 E19.61822
G1 X103.77 Y136.146 E19.64236
G1 X103.229 Y135.361 E19.67407
G1 X103.202 Y135.315 E19.67585
G1 X102.869 Y134.669 E19.70002
G1 X102.519 Y133.682 E19.73485
G1 X102.128 Y132.223 E19.78509
G1 X101.943 Y131.244 E19.81823
G1 X101.94 Y131.217 E19.81913
G1 X101.9 Y130.488 E19.84341
G1 X101.9 Y117.617 E20.27151
G1 X101.928 Y117.104 E20.28859
G1 X101.9 Y116.698 E20.30213
G1 X101.902 Y108.298 E20.58151
G1 X101.928 Y107.83 E20.5971
G1 X101.9 Y107.383 E20.612
G1 X101.9 Y94.514 E21.04003
G1 X101.935 Y93.835 E21.06264
G1 X101.938 Y93.806 E21.06361
G1 X102.128 Y92.777 E21.09841
G1 X102.519 Y91.318 E21.14865
G1 X102.745 Y90.627 E21.17283
G1 X103.202 Y89.685 E21.20765
G1 X103.229 Y89.639 E21.20943
G1 X103.631 Y89.034 E21.23359
G1 X104.254 Y88.313 E21.26528
G0 F6000 X104.537 Y88.596
G1 F1200 X105.596 Y87.537 E21.31509
G1 X106.121 Y87.068 E21.33851
G1 X106.842 Y86.574 E21.36758
G1 X106.888 Y86.547 E21.36935
G1 X107.514 Y86.226 E21.39275
G1 X108.421 Y85.905 E21.42475
G1 X109.88 Y85.514 E21.47499
G1 X110.847 Y85.336 E21.50769
G1 X110.876 Y85.333 E21.50866
G1 X111.514 Y85.3 E21.52991
G1 X123.486 Y85.3 E21.9281
G1 X124.124 Y85.333 E21.94935
G1 X124.153 Y85.336 E21.95032
G1 X125.12 Y85.514 E21.98302
G1 X126.579 Y85.905 E22.03326
G1 X127.247 Y86.126 E22.05666
G1 X128.112 Y86.547 E22.08866
G1 X128.158 Y86.574 E22.09043
G1 X128.744 Y86.964 E22.11385
G1 X129.404 Y87.537 E22.14292
G1 X130.463 Y88.596 E22.19273
G1 X130.932 Y89.121 E22.21614
G1 X131.426 Y89.842 E22.24521
G1 X131.453 Y89.888 E22.24699
G1 X131.774 Y90.514 E22.27038
G1 X132.095 Y91.421 E22.30238
G1 X132.486 Y92.88 E22.35262
G1 X132.659 Y93.8 E22.38376
G1 X132.662 Y93.827 E22.38466
G1 X132.7 Y94.512 E22.40748
G1 X132.7 Y107.383 E22.83557
G1 X132.677 Y107.795 E22.8493
G1 X132.7 Y108.3 E22.86611
G1 X132.7 Y116.7 E23.1455
G1 X132.675 Y117.135 E23.15999
G1 X132.7 Y117.617 E23.17604
G1 X132.7 Y130.486 E23.60407
G1 X132.667 Y131.124 E23.62531
G1 X132.664 Y131.153 E23.62628
G1 X132.486 Y132.12 E23.65899
G1 X132.095 Y133.579 E23.70923
G1 X131.874 Y134.247 E23.73263
G1 X131.453 Y135.112 E23.76462
G1 X131.426 Y135.158 E23.7664
G1 X131.036 Y135.744 E23.78981
G1 X130.463 Y136.404 E23.81888
G1 X129.404 Y137.463 E23.86869
G1 X128.879 Y137.932 E23.89211
G1 X128.158 Y138.426 E23.92118
G1 X128.112 Y138.453 E23.92295
G1 X127.486 Y138.774 E23.94635
G1 X126.579 Y139.095 E23.97835
G1 X125.12 Y139.486 E24.02859
G1 X124.153 Y139.664 E24.06129
G1 X124.124 Y139.667 E24.06226
G1 X123.486 Y139.7 E24.08351
G1 X111.514 Y139.7 E24.4817
G1 X110.876 Y139.667 E24.50295
G1 X110.847 Y139.664 E24.50392
G1 X109.88 Y139.486 E24.53662
G1 X108.421 Y139.095 E24.58686
G1 X107.753 Y138.874 E24.61026
G1 X106.888 Y138.453 E24.64226
G1 X106.842 Y138.426 E24.64403
G1 X106.256 Y138.036 E24.66744
G1 X105.596 Y137.463 E24.69652
G1 X104.537 Y136.404 E24.74633
G1 X104.068 Y135.879 E24.76974
G1 X103.574 Y135.158 E24.79881
G1 X103.547 Y135.112 E24.80059
G1 X103.226 Y134.486 E24.82398
G1 X102.905 Y133.579 E24.85598
G1 X102.514 Y132.12 E24.90622
G1 X102.341 Y131.2 E24.93736
G1 X102.338 Y131.173 E24.93826
G1 X102.3 Y130.488 E24.96108
G1 X102.3 Y117.617 E25.38917
G1 X102.323 Y117.205 E25.4029
G1 X102.3 Y116.699 E25.41974
G1 X102.302 Y108.299 E25.69913
G1 X102.326 Y107.883 E25.71299
G1 X102.3 Y107.383 E25.72964
G1 X102.3 Y94.514 E26.15766
G1 X102.333 Y93.876 E26.17891
G1 X102.336 Y93.847 E26.17988
G1 X102.514 Y92.88 E26.21259
G1 X102.905 Y91.421 E26.26282
G1 X103.126 Y90.753 E26.28623
G1 X103.547 Y89.888 E26.31822
G1 X103.574 Y89.842 E26.32
G1 X103.964 Y89.256 E26.34341
G1 X104.537 Y88.596 E26.37248
G0 F6000 X104.82 Y88.879
G1 F1200 X105.879 Y87.82 E26.42229
G1 X106.388 Y87.367 E26.44496
G1 X107.044 Y86.919 E26.47138
G1 X107.09 Y86.892 E26.47315
G1 X107.696 Y86.582 E26.49579
G1 X108.525 Y86.292 E26.525
G1 X109.984 Y85.901 E26.57524
