;FLAVOR:Marlin
;TIME:18721
;Filament used: 12.3076m
;Layer height: 0.2
;MINX:14.307
;MINY:101.662
;MINZ:0.2
;MAXX:209.541
;MAXY:138.998
;MAXZ:122.2
;Generated with Cura_SteamEngine 4.9.0
M140 S50
M105
M190 S50
M104 S200
M105
M109 S200
M82 ;absolute extrusion mode
; Ender 3 Custom Start G-code
G92 E0 ; Reset Extruder
G28 ; Home all axes
G1 Z2.0 F3000 ; Move Z Axis up little to prevent scratching of Heat Bed
G1 X0.1 Y20 Z0.3 F5000.0 ; Move to start position
G1 X0.1 Y200.0 Z0.3 F1500.0 E15 ; Draw the first line
G1 X0.4 Y200.0 Z0.3 F5000.0 ; Move to side a little
G1 X0.4 Y20 Z0.3 F1500.0 E30 ; Draw the second line
G92 E0 ; Reset Extruder
G1 Z2.0 F3000 ; Move Z Axis up little to prevent scratching of Heat Bed
G1 X5 Y20 Z0.3 F5000.0 ; Move over to prevent blob squish
G92 E0
G92 E0
G1 F2700 E-5
;LAYER_COUNT:611
;LAYER:0
M107
G0 F6000 X29.208 Y103.225 Z0.2
;TYPE:SKIRT
G1 F2700 E0
G1 F1200 X29.596 Y103.132 E0.01327
G1 X32.163 Y102.586 E0.10056
G1 X32.606 Y102.505 E0.11554
G1 X32.704 Y102.49 E0.11884
G1 X33.11 Y102.439 E0.13244
G1 X37.951 Y101.956 E0.29426
G1 X37.952 Y101.964 E0.29452
G1 X38.57 Y101.914 E0.31515
G1 X47.807 Y101.678 E0.62247
G1 X47.983 Y101.67 E0.62833
G1 X48.479 Y101.662 E0.64483
G1 X58.869 Y101.832 E0.99045
G1 X59.069 Y101.838 E0.9971
G1 X79.615 Y102.702 E1.68107
G1 X110.586 Y104.081 E2.71219
G1 X111.034 Y104.114 E2.72713
G1 X111.139 Y104.125 E2.73064
G1 X128.141 Y104.577 E3.29633
G1 X144.051 Y104.717 E3.82552
G1 X144.544 Y104.713 E3.84192
G1 X167.314 Y104.404 E4.59932
G1 X171.523 Y104.276 E4.73938
G1 X172.313 Y104.292 E4.76566
G1 X173.097 Y104.387 E4.79193
G1 X173.867 Y104.562 E4.81819
G1 X174.615 Y104.813 E4.84443
G1 X175.335 Y105.139 E4.87072
G1 X176.017 Y105.536 E4.89697
G1 X176.656 Y106 E4.92323
G1 X177.245 Y106.526 E4.9495
G1 X177.778 Y107.11 E4.97579
G1 X178.249 Y107.743 E5.00204
G1 X178.653 Y108.422 E5.02831
G1 X178.987 Y109.137 E5.05456
G1 X179.247 Y109.883 E5.08084
G1 X179.43 Y110.651 E5.1071
G1 X179.544 Y111.567 E5.1378
G1 X179.569 Y111.952 E5.15063
G1 X179.58 Y112.741 E5.17688
G1 X179.511 Y113.528 E5.20315
G1 X179.363 Y114.304 E5.22943
G1 X179.138 Y115.06 E5.25566
G1 X178.837 Y115.79 E5.28192
G1 X178.464 Y116.486 E5.30819
G1 X178.022 Y117.141 E5.33447
G1 X177.516 Y117.748 E5.36075
G1 X176.952 Y118.3 E5.387
G1 X176.335 Y118.793 E5.41327
G1 X175.784 Y119.147 E5.43505
G1 X185.986 Y119.277 E5.7744
G1 X186.087 Y119.252 E5.77786
G1 X186.868 Y119.137 E5.80412
G1 X187.689 Y119.102 E5.83145
G1 X189.307 Y119.118 E5.88527
G1 X189.62 Y119.115 E5.89568
G1 X190.409 Y119.147 E5.92194
G1 X191.195 Y119.26 E5.94835
G1 X191.937 Y119.292 E5.97305
G1 X192.723 Y119.406 E5.99947
G1 X193.417 Y119.436 E6.02257
G1 X194.099 Y119.535 E6.04549
G1 X194.432 Y119.43 E6.05711
G1 X195.206 Y119.271 E6.08339
G1 X195.992 Y119.191 E6.10967
G1 X196.781 Y119.191 E6.13591
G1 X197.567 Y119.271 E6.16219
G1 X198.34 Y119.429 E6.18843
G1 X199.094 Y119.665 E6.21471
G1 X199.82 Y119.977 E6.24099
G1 X200.51 Y120.359 E6.26722
G1 X201.159 Y120.81 E6.29351
G1 X201.758 Y121.324 E6.31976
G1 X202.303 Y121.896 E6.34604
G1 X202.787 Y122.52 E6.3723
G1 X203.205 Y123.19 E6.39857
G1 X203.553 Y123.899 E6.42484
G1 X203.828 Y124.639 E6.45109
G1 X204.027 Y125.403 E6.47735
G1 X204.103 Y125.831 E6.49181
G1 X204.355 Y127.521 E6.54864
G1 X204.431 Y128.307 E6.5749
G1 X204.428 Y129.096 E6.60115
G1 X204.416 Y129.217 E6.60519
G1 X204.433 Y129.846 E6.62612
G1 X204.374 Y130.634 E6.6524
G1 X204.236 Y131.411 E6.67865
G1 X204.02 Y132.171 E6.70493
G1 X203.729 Y132.905 E6.73119
G1 X203.365 Y133.606 E6.75746
G1 X202.931 Y134.266 E6.78373
G1 X202.434 Y134.879 E6.80998
G1 X201.876 Y135.438 E6.83625
G1 X201.265 Y135.939 E6.86253
G1 X200.607 Y136.375 E6.88879
G1 X199.908 Y136.742 E6.91504
G1 X198.85 Y137.141 E6.95265
G1 X197.584 Y137.516 E6.99657
G1 X196.518 Y137.752 E7.03288
G1 X196.471 Y137.759 E7.03446
G1 X195.322 Y137.844 E7.07278
G1 X170.334 Y137.844 E7.90389
G1 X169.545 Y137.804 E7.93016
G1 X169.053 Y137.729 E7.94672
G1 X156.868 Y137.729 E8.35199
G1 X156.079 Y137.689 E8.37827
G1 X155.574 Y137.612 E8.39526
G1 X148.514 Y137.612 E8.63007
G1 X147.725 Y137.572 E8.65635
G1 X147.233 Y137.497 E8.6729
G1 X140.2 Y137.497 E8.90682
G1 X139.411 Y137.457 E8.9331
G1 X138.919 Y137.382 E8.94965
G1 X131.867 Y137.382 E9.1842
G1 X131.078 Y137.342 E9.21048
G1 X130.58 Y137.266 E9.22723
G1 X123.836 Y137.266 E9.45154
G1 X123.047 Y137.226 E9.47781
G1 X122.555 Y137.151 E9.49437
G1 X115.846 Y137.151 E9.71751
G1 X115.057 Y137.111 E9.74378
G1 X114.565 Y137.036 E9.76034
G1 X107.691 Y137.036 E9.98897
G1 X106.902 Y136.996 E10.01524
G1 X106.404 Y136.92 E10.032
G1 X99.529 Y136.92 E10.26066
G1 X98.74 Y136.88 E10.28694
G1 X98.242 Y136.804 E10.30369
G1 X90.586 Y136.804 E10.55833
G1 X89.797 Y136.764 E10.58461
G1 X89.017 Y136.645 E10.61085
G1 X88.252 Y136.447 E10.63714
G1 X87.512 Y136.173 E10.66338
G1 X87.487 Y136.161 E10.6643
G1 X82.941 Y136.024 E10.81557
G1 X79.025 Y135.921 E10.94586
G1 X78.605 Y136.095 E10.96098
G1 X77.849 Y136.323 E10.98725
G1 X77.074 Y136.473 E11.0135
G1 X75.99 Y136.549 E11.04965
G1 X54.807 Y136.566 E11.75419
G1 X54.019 Y136.527 E11.78044
G1 X53.238 Y136.408 E11.80671
G1 X52.473 Y136.211 E11.83299
G1 X52.074 Y136.064 E11.84713
G1 X50.298 Y136.151 E11.90627
G1 X50.155 Y136.218 E11.91152
G1 X49.41 Y136.481 E11.9378
G1 X48.643 Y136.667 E11.96405
G1 X47.86 Y136.775 E11.99034
G1 X47.188 Y136.804 E12.01271
G1 X44.796 Y136.804 E12.09227
G1 X44.199 Y136.888 E12.11232
G1 X43.505 Y136.919 E12.13543
G1 X41.673 Y136.919 E12.19636
G1 X41.099 Y137.002 E12.21565
G1 X40.38 Y137.035 E12.23959
G1 X38.548 Y137.035 E12.30052
G1 X37.944 Y137.12 E12.32081
G1 X37.255 Y137.15 E12.34375
G1 X36.161 Y137.15 E12.38013
G1 X35.587 Y137.233 E12.39942
G1 X34.868 Y137.266 E12.42336
G1 X34.542 Y137.266 E12.4342
G1 X33.938 Y137.351 E12.45449
G1 X33.249 Y137.381 E12.47743
G1 X32.923 Y137.381 E12.48827
G1 X32.319 Y137.466 E12.50856
G1 X31.63 Y137.496 E12.5315
G1 X31.458 Y137.496 E12.53722
G1 X30.884 Y137.579 E12.55651
G1 X30.553 Y137.594 E12.56753
G1 X29.822 Y137.697 E12.59208
G1 X29.49 Y137.711 E12.60313
G1 X28.809 Y137.81 E12.62602
G1 X28.494 Y137.824 E12.63651
G1 X28.001 Y137.896 E12.65308
G1 X27.845 Y137.934 E12.65842
G1 X27.419 Y137.994 E12.67273
G1 X27.218 Y138.044 E12.67962
G1 X26.751 Y138.112 E12.69531
G1 X26.533 Y138.165 E12.70278
G1 X26.109 Y138.225 E12.71702
G1 X25.857 Y138.282 E12.72561
G1 X25.587 Y138.395 E12.73535
G1 X24.844 Y138.662 E12.76161
G1 X24.078 Y138.853 E12.78786
G1 X23.296 Y138.965 E12.81414
G1 X22.581 Y138.998 E12.83795
G1 X22.215 Y138.998 E12.85012
G1 X21.426 Y138.958 E12.87639
G1 X20.646 Y138.839 E12.90264
G1 X19.881 Y138.641 E12.92892
G1 X19.141 Y138.367 E12.95517
G1 X18.432 Y138.019 E12.98143
G1 X17.761 Y137.601 E13.00773
G1 X17.137 Y137.118 E13.03397
G1 X16.564 Y136.575 E13.06023
G1 X16.049 Y135.976 E13.0865
G1 X15.617 Y135.358 E13.11158
G1 X15.501 Y135.174 E13.11882
G1 X15.114 Y134.485 E13.1451
G1 X14.799 Y133.761 E13.17136
G1 X14.558 Y133.009 E13.19763
G1 X14.395 Y132.236 E13.2239
G1 X14.311 Y131.451 E13.25016
G1 X14.307 Y130.661 E13.27644
G1 X14.383 Y129.875 E13.3027
G1 X14.537 Y129.101 E13.32895
G1 X14.769 Y128.346 E13.35522
G1 X15.079 Y127.614 E13.38166
G1 X15.202 Y127.36 E13.39104
G1 X15.582 Y126.668 E13.4173
G1 X16.029 Y126.018 E13.44354
G1 X16.504 Y125.454 E13.46806
G1 X16.607 Y125.343 E13.4731
G1 X17.173 Y124.793 E13.49935
G1 X17.514 Y124.523 E13.51382
G1 X17.964 Y124.061 E13.53527
G1 X18.638 Y123.503 E13.56437
G1 X20.556 Y122.089 E13.64363
G1 X21.318 Y121.593 E13.67387
G1 X21.558 Y121.456 E13.68306
G1 X22.265 Y121.099 E13.7094
G1 X22.687 Y120.912 E13.72475
G1 X23.016 Y120.775 E13.73661
G1 X24.015 Y120.386 E13.77226
G1 X24.451 Y119.971 E13.79228
G1 X25.076 Y119.488 E13.81855
G1 X25.259 Y119.374 E13.82573
G1 X24.86 Y119.031 E13.84323
G1 X24.064 Y118.253 E13.88025
G1 X23.528 Y117.673 E13.90651
G1 X23.267 Y117.343 E13.92051
G1 X22.82 Y116.679 E13.94713
G1 X22.608 Y116.326 E13.96083
G1 X22.236 Y115.629 E13.9871
G1 X21.817 Y114.528 E14.02628
G1 X21.755 Y114.319 E14.03354
G1 X21.569 Y113.552 E14.05979
G1 X21.441 Y112.447 E14.09678
G1 X21.439 Y112.402 E14.09828
G1 X21.444 Y111.613 E14.12452
G1 X21.574 Y110.572 E14.15942
G1 X21.618 Y110.345 E14.16711
G1 X21.807 Y109.578 E14.19338
G1 X22.159 Y108.634 E14.22689
G1 X22.181 Y108.585 E14.22868
G1 X22.541 Y107.882 E14.25495
G1 X22.97 Y107.219 E14.28121
G1 X23.549 Y106.508 E14.31171
G1 X23.815 Y106.218 E14.3248
G1 X24.256 Y105.774 E14.34561
G1 X24.86 Y105.265 E14.37188
G1 X25.527 Y104.811 E14.39872
G1 X25.935 Y104.563 E14.4146
G1 X26.629 Y104.187 E14.44085
G1 X27.223 Y103.934 E14.46233
G1 X28.456 Y103.467 E14.50618
G1 X29.208 Y103.225 E14.53245
G0 F6000 X29.679 Y103.523
G1 F1200 X32.246 Y102.977 E14.61974
G1 X32.666 Y102.9 E14.63394
G1 X32.764 Y102.885 E14.63724
G1 X33.149 Y102.837 E14.65015
G1 X37.99 Y102.354 E14.81196
G1 X37.991 Y102.361 E14.81219
G1 X38.58 Y102.313 E14.83185
G1 X47.836 Y102.077 E15.1398
G1 X48.002 Y102.069 E15.14533
G1 X48.472 Y102.062 E15.16096
G1 X58.862 Y102.232 E15.50658
G1 X59.052 Y102.238 E15.51291
G1 X79.597 Y103.101 E16.19684
G1 X110.568 Y104.48 E17.22796
G1 X110.994 Y104.512 E17.24217
G1 X111.115 Y104.524 E17.24621
G1 X128.126 Y104.977 E17.8122
G1 X144.051 Y105.117 E18.34189
G1 X144.547 Y105.113 E18.35839
G1 X167.272 Y104.804 E19.11429
G1 X171.535 Y104.675 E19.25615
G1 X172.304 Y104.692 E19.28173
G1 X173.068 Y104.788 E19.30734
G1 X173.816 Y104.963 E19.33289
G1 X174.543 Y105.215 E19.35848
G1 X175.24 Y105.541 E19.38407
G1 X175.899 Y105.938 E19.40966
G1 X176.513 Y106.401 E19.43524
G1 X177.076 Y106.925 E19.46082
G1 X177.582 Y107.504 E19.4864
G1 X178.025 Y108.133 E19.51198
G1 X178.4 Y108.805 E19.53758
G1 X178.703 Y109.512 E19.56316
G1 X178.931 Y110.246 E19.58873
G1 X179.082 Y111 E19.6143
G1 X179.144 Y111.592 E19.6341
G1 X179.169 Y111.977 E19.64693
G1 X179.179 Y112.747 E19.67255
G1 X179.109 Y113.513 E19.69813
G1 X178.96 Y114.267 E19.72369
G1 X178.734 Y115.002 E19.74927
G1 X178.432 Y115.71 E19.77487
G1 X178.058 Y116.382 E19.80045
G1 X177.617 Y117.012 E19.82603
G1 X177.113 Y117.593 E19.85161
G1 X176.551 Y118.118 E19.87719
G1 X175.937 Y118.582 E19.90278
G1 X175.279 Y118.98 E19.92836
G1 X174.583 Y119.308 E19.95395
G1 X173.963 Y119.524 E19.97579
G1 X186.039 Y119.678 E20.37747
G1 X186.224 Y119.633 E20.3838
G1 X186.986 Y119.528 E20.40939
G1 X187.685 Y119.502 E20.43265
G1 X189.307 Y119.518 E20.4866
G1 X189.624 Y119.515 E20.49715
G1 X190.393 Y119.548 E20.52275
G1 X191.152 Y119.658 E20.54825
G1 X191.92 Y119.692 E20.57382
G1 X192.664 Y119.803 E20.59884
G1 X193.4 Y119.836 E20.62335
G1 X194.076 Y119.937 E20.64608
G1 X194.15 Y119.936 E20.64854
G1 X194.688 Y119.779 E20.66718
G1 X195.445 Y119.641 E20.69278
G1 X196.212 Y119.583 E20.71836
G1 X196.981 Y119.605 E20.74395
G1 X197.743 Y119.706 E20.76951
G1 X198.491 Y119.886 E20.7951
G1 X199.216 Y120.143 E20.82068
G1 X199.91 Y120.473 E20.84624
G1 X200.567 Y120.874 E20.87184
G1 X201.178 Y121.341 E20.89742
G1 X201.738 Y121.868 E20.923
G1 X202.24 Y122.451 E20.94859
G1 X202.678 Y123.083 E20.97416
G1 X203.049 Y123.757 E20.99975
G1 X203.347 Y124.466 E21.02533
G1 X203.571 Y125.202 E21.05092
G1 X203.707 Y125.89 E21.07424
G1 X203.959 Y127.58 E21.13108
G1 X204.033 Y128.345 E21.15664
G1 X204.027 Y129.114 E21.18222
G1 X204.016 Y129.22 E21.18576
G1 X204.032 Y129.857 E21.20695
G1 X203.972 Y130.624 E21.23254
G1 X203.833 Y131.38 E21.25811
G1 X203.616 Y132.118 E21.28369
G1 X203.323 Y132.829 E21.30927
G1 X202.958 Y133.506 E21.33485
G1 X202.525 Y134.142 E21.36044
G1 X202.028 Y134.729 E21.38602
G1 X201.473 Y135.262 E21.41162
G1 X200.866 Y135.733 E21.43717
G1 X200.212 Y136.14 E21.46279
G1 X199.521 Y136.476 E21.48835
G1 X198.737 Y136.757 E21.51605
G1 X197.471 Y137.132 E21.55996
G1 X196.459 Y137.356 E21.59444
G1 X196.412 Y137.363 E21.59602
G1 X195.322 Y137.444 E21.63237
G1 X170.334 Y137.444 E22.46348
G1 X169.566 Y137.404 E22.48905
G1 X169.087 Y137.329 E22.50518
G1 X156.868 Y137.329 E22.91159
G1 X156.1 Y137.289 E22.93716
G1 X155.608 Y137.212 E22.95373
G1 X148.514 Y137.212 E23.18968
G1 X147.746 Y137.172 E23.21525
G1 X147.267 Y137.097 E23.23138
G1 X140.2 Y137.097 E23.46643
G1 X139.432 Y137.057 E23.49201
G1 X138.953 Y136.982 E23.50813
G1 X131.867 Y136.982 E23.74381
G1 X131.099 Y136.942 E23.76939
G1 X130.614 Y136.866 E23.78572
G1 X123.836 Y136.866 E24.01116
G1 X123.068 Y136.826 E24.03674
G1 X122.589 Y136.751 E24.05286
G1 X115.846 Y136.751 E24.27713
G1 X115.078 Y136.711 E24.30271
G1 X114.599 Y136.636 E24.31884
G1 X107.691 Y136.636 E24.5486
G1 X106.923 Y136.596 E24.57418
G1 X106.438 Y136.52 E24.59051
G1 X99.529 Y136.52 E24.8203
G1 X98.761 Y136.48 E24.84588
G1 X98.276 Y136.404 E24.86221
G1 X90.586 Y136.404 E25.11798
G1 X89.818 Y136.364 E25.14356
G1 X89.058 Y136.245 E25.16914
G1 X88.315 Y136.047 E25.19472
G1 X87.596 Y135.773 E25.22031
G1 X87.578 Y135.764 E25.22098
G1 X82.923 Y135.623 E25.37587
G1 X78.97 Y135.519 E25.5074
G1 X78.244 Y135.796 E25.53324
G1 X77.5 Y135.992 E25.55883
G1 X76.74 Y136.11 E25.58441
G1 X75.99 Y136.149 E25.60939
G1 X54.807 Y136.166 E26.31394
G1 X54.039 Y136.127 E26.33952
G1 X53.279 Y136.008 E26.3651
G1 X52.535 Y135.811 E26.3907
G1 X52.137 Y135.66 E26.40486
G1 X50.196 Y135.755 E26.46949
G1 X49.779 Y135.936 E26.48461
G1 X49.046 Y136.167 E26.51018
G1 X48.292 Y136.321 E26.53577
G1 X47.188 Y136.404 E26.57259
G1 X44.776 Y136.404 E26.65282
G1 X44.124 Y136.493 E26.67471
G1 X43.505 Y136.519 E26.69531
G1 X41.655 Y136.519 E26.75684
G1 X41.022 Y136.607 E26.7781
G1 X40.38 Y136.635 E26.79947
G1 X38.528 Y136.635 E26.86107
G1 X37.869 Y136.725 E26.88319
G1 X37.255 Y136.75 E26.90363
G1 X36.143 Y136.75 E26.94062
G1 X35.51 Y136.838 E26.96187
G1 X34.868 Y136.866 E26.98324
G1 X34.522 Y136.866 E26.99475
G1 X33.863 Y136.956 E27.01687
G1 X33.249 Y136.981 E27.03731
G1 X32.903 Y136.981 E27.04882
G1 X32.244 Y137.071 E27.07094
G1 X31.63 Y137.096 E27.09138
G1 X31.44 Y137.096 E27.0977
G1 X30.807 Y137.184 E27.11896
G1 X30.509 Y137.198 E27.12888
G1 X29.747 Y137.302 E27.15446
G1 X29.46 Y137.314 E27.16401
G1 X28.732 Y137.415 E27.18846
G1 X28.465 Y137.427 E27.19735
G1 X27.931 Y137.501 E27.21528
G1 X27.75 Y137.545 E27.22147
G1 X27.349 Y137.6 E27.23494
G1 X27.122 Y137.656 E27.24271
G1 X26.676 Y137.718 E27.25769
G1 X26.438 Y137.776 E27.26584
G1 X26.039 Y137.83 E27.27923
G1 X25.746 Y137.896 E27.28922
G1 X25.433 Y138.026 E27.30049
G1 X24.709 Y138.285 E27.32607
G1 X23.962 Y138.468 E27.35165
G1 X23.2 Y138.572 E27.37722
G1 X22.581 Y138.598 E27.39783
G1 X22.215 Y138.598 E27.41
G1 X21.447 Y138.558 E27.43558
G1 X20.687 Y138.439 E27.46117
G1 X19.944 Y138.241 E27.48674
G1 X19.225 Y137.967 E27.51233
G1 X18.539 Y137.62 E27.5379
G1 X17.892 Y137.204 E27.56349
G1 X17.292 Y136.723 E27.58906
G1 X16.745 Y136.182 E27.61465
G1 X16.257 Y135.587 E27.64025
G1 X15.955 Y135.144 E27.65808
G1 X15.839 Y134.96 E27.66531
G1 X15.463 Y134.289 E27.6909
G1 X15.159 Y133.583 E27.71646
G1 X14.93 Y132.849 E27.74204
G1 X14.778 Y132.095 E27.76762
G1 X14.706 Y131.329 E27.79321
G1 X14.713 Y130.56 E27.81879
G1 X14.8 Y129.796 E27.84436
G1 X14.966 Y129.044 E27.86998
G1 X15.209 Y128.315 E27.89553
G1 X15.439 Y127.789 E27.91463
G1 X15.562 Y127.535 E27.92401
G1 X15.933 Y126.861 E27.9496
G1 X16.371 Y126.229 E27.97518
G1 X16.798 Y125.727 E27.9971
G1 X16.901 Y125.616 E28.00213
G1 X17.452 Y125.08 E28.0277
G1 X17.778 Y124.823 E28.04151
G1 X18.251 Y124.34 E28.06399
G1 X18.876 Y123.825 E28.09093
G1 X20.794 Y122.411 E28.17018
G1 X21.516 Y121.94 E28.19886
G1 X21.756 Y121.803 E28.20805
G1 X22.427 Y121.464 E28.23305
G1 X22.849 Y121.277 E28.2484
G1 X23.161 Y121.148 E28.25963
G1 X24.227 Y120.733 E28.29768
G1 X24.757 Y120.236 E28.32185
G1 X25.37 Y119.771 E28.34744
G1 X25.944 Y119.423 E28.36976
G1 X25.872 Y119.373 E28.37268
G1 X25.14 Y118.745 E28.40476
G1 X24.344 Y117.967 E28.44178
G1 X23.587 Y117.103 E28.47998
G1 X23.163 Y116.473 E28.50524
G1 X22.951 Y116.12 E28.51894
G1 X22.59 Y115.441 E28.54451
G1 X22.201 Y114.415 E28.58101
G1 X22.139 Y114.206 E28.58826
G1 X21.958 Y113.458 E28.61386
G1 X21.84 Y112.43 E28.64827
G1 X21.838 Y112.385 E28.64977
G1 X21.844 Y111.615 E28.67538
G1 X21.966 Y110.648 E28.7078
G1 X22.01 Y110.421 E28.71549
G1 X22.196 Y109.674 E28.74109
G1 X22.524 Y108.798 E28.7722
