;FLAVOR:Marlin
;TIME:29270
;Filament used: 19.723m
;Layer height: 0.2
;MINX:10.885
;MINY:21.503
;MINZ:0.2
;MAXX:224.597
;MAXY:215.673
;MAXZ:17.2
;Generated with Cura_SteamEngine 4.9.0
M140 S50
M105
M190 S50
M104 S200
M105
M109 S200
M82 ;absolute extrusion mode
; Ender 3 Custom Start G-code
G92 E0 ; Reset Extruder
G28 ; Home all axes
G1 Z2.0 F3000 ; Move Z Axis up little to prevent scratching of Heat Bed
G1 X0.1 Y20 Z0.3 F5000.0 ; Move to start position
G1 X0.1 Y200.0 Z0.3 F1500.0 E15 ; Draw the first line
G1 X0.4 Y200.0 Z0.3 F5000.0 ; Move to side a little
G1 X0.4 Y20 Z0.3 F1500.0 E30 ; Draw the second line
G92 E0 ; Reset Extruder
G1 Z2.0 F3000 ; Move Z Axis up little to prevent scratching of Heat Bed
G1 X5 Y20 Z0.3 F5000.0 ; Move over to prevent blob squish
G92 E0
G92 E0
G1 F2700 E-5
;LAYER_COUNT:86
;LAYER:0
M107
G0 F6000 X14.734 Y23.863 Z0.2
;TYPE:SKIRT
G1 F2700 E0
G1 F1200 X15.413 Y23.46 E0.02626
G1 X16.13 Y23.129 E0.05253
G1 X17.146 Y22.722 E0.08893
G1 X17.82 Y22.529 E0.11225
G1 X17.843 Y22.52 E0.11307
G1 X19.324 Y22.093 E0.16434
G1 X20.101 Y21.952 E0.1906
G1 X20.888 Y21.89 E0.21686
G1 X20.954 Y21.891 E0.21905
G1 X21.425 Y21.835 E0.23483
G1 X21.865 Y21.782 E0.24957
G1 X22.649 Y21.69 E0.27582
G1 X23.006 Y21.657 E0.28775
G1 X23.791 Y21.565 E0.31404
G1 X24.58 Y21.553 E0.34028
G1 X24.842 Y21.569 E0.34901
G1 X25.63 Y21.527 E0.37526
G1 X26.419 Y21.565 E0.40153
G1 X26.679 Y21.56 E0.41018
G1 X27.467 Y21.519 E0.43642
G1 X28.256 Y21.558 E0.4627
G1 X28.535 Y21.546 E0.47199
G1 X29.324 Y21.503 E0.49827
G1 X30.102 Y21.552 E0.5242
G1 X30.987 Y21.545 E0.55363
G1 X31.776 Y21.579 E0.5799
G1 X32.557 Y21.693 E0.60615
G1 X32.706 Y21.73 E0.61126
G1 X34.417 Y21.735 E0.66816
G1 X35.205 Y21.777 E0.69441
G1 X35.986 Y21.899 E0.7207
G1 X36.072 Y21.921 E0.72365
G1 X37.387 Y21.925 E0.76739
G1 X38.175 Y21.967 E0.79364
G1 X38.956 Y22.089 E0.81993
G1 X39.051 Y22.114 E0.8232
G1 X39.45 Y22.114 E0.83647
G1 X39.941 Y22.129 E0.85281
G1 X40.7 Y22.177 E0.8781
G1 X40.973 Y22.186 E0.88719
G1 X42.135 Y22.266 E0.92592
G1 X42.919 Y22.36 E0.95219
G1 X43.689 Y22.533 E0.97844
G1 X43.873 Y22.594 E0.98488
G1 X47.183 Y22.817 E1.09522
G1 X47.968 Y22.909 E1.12151
G1 X48.738 Y23.081 E1.14775
G1 X48.819 Y23.108 E1.15059
G1 X49.469 Y22.744 E1.17537
G1 X50.193 Y22.429 E1.20163
G1 X50.945 Y22.189 E1.22789
G1 X51.718 Y22.027 E1.25416
G1 X52.503 Y21.943 E1.28041
G1 X53.639 Y21.963 E1.3182
G1 X54.512 Y22.043 E1.34736
G1 X56.07 Y22.211 E1.39948
G1 X56.85 Y22.335 E1.42575
G1 X57.613 Y22.538 E1.45201
G1 X57.639 Y22.548 E1.45294
G1 X58.444 Y22.639 E1.47988
G1 X59.223 Y22.767 E1.50614
G1 X59.985 Y22.974 E1.5324
G1 X60.001 Y22.98 E1.53297
G1 X60.76 Y23.067 E1.55838
G1 X61.539 Y23.196 E1.58464
G1 X62.302 Y23.403 E1.61094
G1 X63.098 Y23.493 E1.63758
G1 X63.877 Y23.621 E1.66384
G1 X64.639 Y23.827 E1.69009
G1 X65.434 Y23.916 E1.7167
G1 X66.213 Y24.044 E1.74296
G1 X66.975 Y24.249 E1.7692
G1 X66.994 Y24.256 E1.76987
G1 X67.774 Y24.344 E1.79598
G1 X68.553 Y24.472 E1.82224
G1 X69.323 Y24.681 E1.84878
G1 X69.813 Y24.738 E1.86518
G1 X70.192 Y24.788 E1.8779
G1 X70.969 Y24.931 E1.90417
G1 X71.727 Y25.151 E1.93043
G1 X71.831 Y25.193 E1.93416
G1 X76.548 Y25.804 E2.09236
G1 X82.818 Y26.624 E2.30267
G1 X83.595 Y26.766 E2.32894
G1 X84.354 Y26.985 E2.35522
G1 X84.461 Y27.028 E2.35905
G1 X87.284 Y27.391 E2.45372
G1 X89.224 Y27.665 E2.51888
G1 X101.007 Y29.389 E2.91496
G1 X101.782 Y29.543 E2.94124
G1 X102.537 Y29.774 E2.9675
G1 X102.647 Y29.821 E2.97148
G1 X106.908 Y30.422 E3.11461
G1 X118.65 Y32.142 E3.50931
G1 X119.424 Y32.296 E3.53556
G1 X120.179 Y32.528 E3.56183
G1 X120.287 Y32.573 E3.56572
G1 X124.58 Y33.181 E3.70993
G1 X130.252 Y34.018 E3.90063
G1 X130.474 Y34.054 E3.90811
G1 X137.521 Y35.046 E4.1448
G1 X138.296 Y35.196 E4.17106
G1 X139.052 Y35.423 E4.19731
G1 X139.15 Y35.463 E4.20083
G1 X141.172 Y35.74 E4.26871
G1 X153.655 Y37.515 E4.68808
G1 X154.43 Y37.665 E4.71433
G1 X155.186 Y37.893 E4.74059
G1 X155.281 Y37.932 E4.74401
G1 X156.698 Y38.127 E4.79158
G1 X158.257 Y38.35 E4.84396
G1 X165.529 Y39.199 E5.08747
G1 X166.308 Y39.33 E5.11375
G1 X167.069 Y39.539 E5.14
G1 X167.16 Y39.574 E5.14324
G1 X174.539 Y40.437 E5.39034
G1 X175.318 Y40.568 E5.41661
G1 X176.079 Y40.777 E5.44286
G1 X176.195 Y40.822 E5.447
G1 X183.706 Y41.693 E5.69849
G1 X184.589 Y41.754 E5.72793
G1 X184.803 Y41.717 E5.73515
G1 X185.591 Y41.662 E5.76142
G1 X186.282 Y41.678 E5.78441
G1 X187.346 Y41.751 E5.81988
G1 X187.625 Y41.706 E5.82928
G1 X188.413 Y41.659 E5.85554
G1 X189.018 Y41.677 E5.87567
G1 X190.576 Y41.784 E5.92761
G1 X191.361 Y41.878 E5.95391
G1 X192.131 Y42.051 E5.98016
G1 X192.88 Y42.301 E6.00642
G1 X193.6 Y42.625 E6.03268
G1 X194.284 Y43.02 E6.05895
G1 X194.924 Y43.483 E6.08522
G1 X195.514 Y44.008 E6.11149
G1 X196.048 Y44.589 E6.13774
G1 X196.52 Y45.222 E6.164
G1 X196.926 Y45.899 E6.19026
G1 X197.218 Y46.508 E6.21272
G1 X197.489 Y47.144 E6.23571
G1 X197.761 Y47.886 E6.262
G1 X197.957 Y48.651 E6.28826
G1 X198.067 Y49.354 E6.31193
G1 X198.085 Y49.52 E6.31748
G1 X198.169 Y49.636 E6.32225
G1 X198.564 Y50.32 E6.34852
G1 X198.888 Y51.04 E6.37478
G1 X198.915 Y51.128 E6.37784
G1 X199.242 Y51.587 E6.39658
G1 X199.615 Y52.241 E6.42163
G1 X199.906 Y52.814 E6.443
G1 X200.278 Y53.459 E6.46777
G1 X200.385 Y53.667 E6.47554
G1 X200.71 Y54.387 E6.50182
G1 X200.961 Y55.135 E6.52806
G1 X201.078 Y55.652 E6.54569
G1 X201.25 Y55.864 E6.55477
G1 X201.684 Y56.524 E6.58104
G1 X202.086 Y57.304 E6.61023
G1 X203.079 Y59.536 E6.69148
G1 X203.511 Y60.554 E6.72826
G1 X203.789 Y61.238 E6.75282
G1 X203.86 Y61.351 E6.75726
G1 X204.025 Y61.653 E6.7687
G1 X204.253 Y62.106 E6.78557
G1 X204.365 Y62.347 E6.79441
G1 X204.662 Y63.079 E6.82069
G1 X204.882 Y63.837 E6.84694
G1 X205.025 Y64.614 E6.87321
G1 X205.089 Y65.401 E6.89948
G1 X205.079 Y65.847 E6.91431
G1 X205.279 Y66.08 E6.92453
G1 X205.606 Y66.489 E6.94194
G1 X206.114 Y67.256 E6.97254
G1 X206.252 Y67.494 E6.98169
G1 X206.613 Y68.197 E7.00798
G1 X206.864 Y68.823 E7.03041
G1 X207.046 Y69.342 E7.0487
G1 X207.104 Y69.485 E7.05383
G1 X207.423 Y70.468 E7.08821
G1 X207.835 Y72.096 E7.14406
G1 X207.847 Y72.127 E7.14517
G1 X208.014 Y72.722 E7.16572
G1 X208.111 Y73.067 E7.17764
G1 X208.254 Y73.507 E7.19303
G1 X208.341 Y73.791 E7.20291
G1 X208.534 Y74.557 E7.22918
G1 X208.603 Y74.965 E7.24295
G1 X208.745 Y75.949 E7.27601
G1 X208.902 Y76.673 E7.30065
G1 X208.98 Y77.186 E7.31791
G1 X209.059 Y77.971 E7.34415
G1 X209.059 Y78.761 E7.37043
G1 X208.978 Y79.546 E7.39668
G1 X208.879 Y80.027 E7.41301
G1 X210.121 Y86.82 E7.64269
G1 X210.167 Y87.104 E7.65226
G1 X210.733 Y91.009 E7.7835
G1 X211.142 Y94.127 E7.88809
G1 X211.532 Y97.156 E7.98967
G1 X211.9 Y100.151 E8.09003
G1 X212.058 Y101.461 E8.13392
G1 X212.113 Y102.249 E8.16019
G1 X212.087 Y103.038 E8.18645
G1 X211.983 Y103.821 E8.21272
G1 X211.841 Y104.412 E8.23293
G1 X213.498 Y113.467 E8.53911
G1 X213.544 Y113.752 E8.54871
G1 X214.022 Y117.051 E8.65958
G1 X214.421 Y120.099 E8.76182
G1 X214.721 Y122.43 E8.83999
G1 X214.973 Y124.47 E8.90836
G1 X215.138 Y125.838 E8.95418
G1 X215.193 Y126.626 E8.98046
G1 X215.167 Y127.415 E9.00671
G1 X215.063 Y128.198 E9.03299
G1 X214.879 Y128.966 E9.05925
G1 X214.85 Y129.05 E9.06221
G1 X216.873 Y140.112 E9.43623
G1 X216.914 Y140.361 E9.44463
G1 X217.005 Y140.968 E9.46504
G1 X217.318 Y143.155 E9.53852
G1 X217.7 Y146.077 E9.63654
G1 X217.916 Y147.752 E9.69271
G1 X218.09 Y149.169 E9.74019
G1 X218.216 Y150.223 E9.7755
G1 X218.27 Y151.011 E9.80177
G1 X218.244 Y151.8 E9.82802
G1 X218.138 Y152.583 E9.8543
G1 X217.954 Y153.351 E9.88057
G1 X217.851 Y153.644 E9.8909
G1 X220.235 Y166.675 E10.33151
G1 X220.279 Y166.945 E10.34061
G1 X220.606 Y169.176 E10.4156
G1 X221.102 Y172.998 E10.54379
G1 X221.296 Y174.559 E10.59611
G1 X221.354 Y175.347 E10.62239
G1 X221.332 Y176.136 E10.64864
G1 X221.23 Y176.919 E10.6749
G1 X221.049 Y177.688 E10.70118
G1 X220.853 Y178.258 E10.72123
G1 X223.611 Y193.314 E11.23032
G1 X223.657 Y193.589 E11.2396
G1 X223.877 Y195.09 E11.29005
G1 X224.042 Y196.349 E11.33229
G1 X224.319 Y198.502 E11.40448
G1 X224.372 Y198.931 E11.41886
G1 X224.429 Y199.718 E11.44511
G1 X224.406 Y200.508 E11.47139
G1 X224.304 Y201.291 E11.49766
G1 X224.122 Y202.059 E11.52391
G1 X223.864 Y202.806 E11.55019
G1 X223.842 Y202.853 E11.55192
G1 X224.474 Y206.334 E11.66959
G1 X224.575 Y207.117 E11.69585
G1 X224.597 Y207.906 E11.7221
G1 X224.539 Y208.694 E11.74838
G1 X224.401 Y209.471 E11.77463
G1 X224.186 Y210.231 E11.8009
G1 X223.895 Y210.965 E11.82716
G1 X223.531 Y211.666 E11.85343
G1 X223.098 Y212.327 E11.87971
G1 X222.466 Y213.085 E11.91254
G1 X222.327 Y213.232 E11.91927
G1 X221.757 Y213.778 E11.94552
G1 X221.133 Y214.263 E11.9718
G1 X220.464 Y214.682 E11.99806
G1 X219.756 Y215.032 E12.02433
G1 X219.017 Y215.308 E12.05057
G1 X218.253 Y215.509 E12.07684
G1 X217.473 Y215.631 E12.1031
G1 X216.684 Y215.673 E12.12938
G1 X215.658 Y215.608 E12.16357
G1 X209.485 Y214.809 E12.3706
G1 X191.614 Y212.506 E12.96991
G1 X176.212 Y210.534 E13.48636
G1 X161.093 Y208.565 E13.99347
G1 X160.316 Y208.423 E14.01974
G1 X159.558 Y208.203 E14.04599
G1 X158.825 Y207.908 E14.07227
G1 X158.271 Y207.623 E14.09299
G1 X158.209 Y207.588 E14.09536
G1 X157.541 Y207.166 E14.12164
G1 X156.92 Y206.678 E14.14791
G1 X156.352 Y206.13 E14.17416
G1 X155.842 Y205.528 E14.2004
G1 X150.03 Y197.912 E14.51904
G1 X138.128 Y182.235 E15.17371
G1 X137.951 Y182.092 E15.18128
G1 X137.391 Y181.535 E15.20755
G1 X136.963 Y181.023 E15.22974
G1 X130.184 Y172.151 E15.60111
G1 X117.695 Y155.687 E16.28842
G1 X117.613 Y155.623 E16.29188
G1 X117.042 Y155.077 E16.31816
G1 X116.514 Y154.455 E16.3453
G1 X110.344 Y146.376 E16.68341
G1 X97.605 Y129.588 E17.38433
G1 X97.504 Y129.509 E17.3886
G1 X96.933 Y128.963 E17.41488
G1 X96.408 Y128.344 E17.44187
G1 X90.506 Y120.615 E17.76532
G1 X78.114 Y104.282 E18.44721
G1 X77.976 Y104.172 E18.45308
G1 X77.411 Y103.621 E18.47933
G1 X76.933 Y103.054 E18.504
G1 X70.665 Y94.852 E18.84734
G1 X57.958 Y78.108 E19.54646
G1 X57.834 Y78.009 E19.55173
G1 X57.269 Y77.458 E19.57798
G1 X56.789 Y76.889 E19.60274
G1 X50.824 Y69.079 E19.9296
G1 X47.267 Y64.392 E20.1253
G1 X46.436 Y63.517 E20.16544
G1 X44.272 Y61.165 E20.27174
G1 X43.767 Y60.558 E20.298
G1 X43.492 Y60.148 E20.31442
G1 X43.384 Y60.064 E20.31897
G1 X43.16 Y59.883 E20.32855
G1 X42.184 Y59.064 E20.37093
G1 X41.606 Y58.526 E20.39719
G1 X41.224 Y58.091 E20.41645
G1 X40.498 Y57.486 E20.44788
G1 X39.852 Y56.954 E20.47571
G1 X39.856 Y56.949 E20.47592
G1 X39.568 Y56.714 E20.48829
G1 X39.225 Y56.372 E20.5044
G1 X38.208 Y55.645 E20.54598
G1 X37.59 Y55.154 E20.57223
G1 X37.08 Y54.657 E20.59591
G1 X36.769 Y54.447 E20.6084
G1 X36.605 Y54.333 E20.61504
G1 X36.29 Y54.108 E20.62791
G1 X35.972 Y53.887 E20.64079
G1 X35.842 Y53.801 E20.64598
G1 X35.206 Y53.333 E20.67224
G1 X35.14 Y53.276 E20.67514
G1 X32.395 Y51.547 E20.78304
G1 X32.159 Y51.392 E20.79243
G1 X31.779 Y51.133 E20.80773
G1 X31.15 Y50.656 E20.83399
G1 X30.675 Y50.214 E20.85557
G1 X29.588 Y49.526 E20.89835
G1 X29.232 Y49.287 E20.91261
G1 X26.472 Y47.32 E21.02534
G1 X25.999 Y47.104 E21.04263
G1 X25.88 Y47.031 E21.04728
G1 X25.356 Y46.799 E21.06634
G1 X24.653 Y46.376 E21.09363
G1 X24.365 Y46.24 E21.10422
G1 X23.556 Y45.742 E21.13582
G1 X23.384 Y45.661 E21.14214
G1 X22.708 Y45.252 E21.16842
G1 X22.365 Y45.007 E21.18244
G1 X21.316 Y44.212 E21.22622
G1 X21.109 Y44.07 E21.23456
G1 X20.568 Y43.662 E21.2571
G1 X20.269 Y43.474 E21.26885
G1 X19.741 Y43.062 E21.29112
G1 X19.653 Y43.007 E21.29458
G1 X19.071 Y42.556 E21.31906
G1 X18.441 Y42.081 E21.34531
G1 X18.353 Y42 E21.34928
G1 X18.07 Y41.8 E21.36081
G1 X17.983 Y41.753 E21.3641
G1 X17.327 Y41.313 E21.39037
G1 X16.502 Y40.6 E21.42664
G1 X14.78 Y38.889 E21.50738
G1 X14.537 Y38.66 E21.51848
G1 X13.99 Y38.091 E21.54474
G1 X13.503 Y37.469 E21.57101
G1 X13.204 Y37.011 E21.5892
G1 X13.053 Y36.761 E21.59892
G1 X12.856 Y36.373 E21.61339
G1 X12.755 Y36.255 E21.61856
G1 X12.273 Y35.63 E21.64481
G1 X11.856 Y34.959 E21.67108
G1 X11.509 Y34.25 E21.69734
G1 X11.236 Y33.509 E21.7236
G1 X11.039 Y32.744 E21.74988
G1 X10.92 Y31.963 E21.77615
G1 X10.885 Y30.939 E21.81023
G1 X10.896 Y30.588 E21.82191
G1 X10.96 Y29.801 E21.84817
G1 X11.104 Y29.024 E21.87446
G1 X11.332 Y28.25 E21.90129
G1 X11.352 Y28.193 E21.9033
G1 X11.651 Y27.462 E21.92957
G1 X12.022 Y26.765 E21.95583
G1 X12.653 Y25.863 E21.99244
G1 X12.987 Y25.451 E22.01009
G1 X13.515 Y24.864 E22.03635
G1 X14.099 Y24.332 E22.06262
G1 X14.734 Y23.863 E22.08888
G0 F6000 X15.005 Y24.164
G1 F1200 X15.671 Y23.778 E22.11448
G1 X16.373 Y23.463 E22.14007
G1 X16.597 Y23.37 E22.14814
G1 X17.313 Y23.088 E22.17373
G1 X17.952 Y22.91 E22.19579
G1 X18.011 Y22.886 E22.19791
G1 X18.695 Y22.693 E22.22155
G1 X18.733 Y22.678 E22.22291
G1 X19.474 Y22.469 E22.24852
G1 X20.232 Y22.339 E22.2741
G1 X21.003 Y22.288 E22.2998
G1 X21.492 Y22.232 E22.31617
G1 X21.693 Y22.23 E22.32285
G1 X21.951 Y22.173 E22.33164
G1 X22.715 Y22.087 E22.35721
G1 X23.093 Y22.048 E22.36985
G1 X23.857 Y21.962 E22.39542
G1 X24.626 Y21.955 E22.421
G1 X24.883 Y21.967 E22.42956
G1 X25.651 Y21.927 E22.45514
G1 X26.42 Y21.967 E22.48075
G1 X26.72 Y21.958 E22.49073
G1 X27.488 Y21.919 E22.51631
G1 X28.37 Y21.966 E22.54568
G1 X28.577 Y21.944 E22.55261
G1 X29.345 Y21.903 E22.57819
G1 X30.104 Y21.952 E22.60348
G1 X30.99 Y21.945 E22.63295
G1 X31.758 Y21.979 E22.65852
G1 X32.519 Y22.093 E22.68412
G1 X32.664 Y22.13 E22.68909
G1 X34.416 Y22.135 E22.74737
G1 X35.184 Y22.177 E22.77295
G1 X35.943 Y22.299 E22.79852
G1 X36.026 Y22.321 E22.80137
G1 X37.386 Y22.325 E22.84661
G1 X38.154 Y22.367 E22.87219
G1 X38.913 Y22.489 E22.89776
G1 X39.006 Y22.514 E22.90096
G1 X39.45 Y22.514 E22.91573
G1 X39.915 Y22.529 E22.9312
G1 X40.644 Y22.575 E22.9555
G1 X40.945 Y22.585 E22.96551
G1 X42.107 Y22.665 E23.00425
G1 X42.871 Y22.758 E23.02985
G1 X43.621 Y22.93 E23.05544
G1 X43.797 Y22.99 E23.06163
G1 X47.157 Y23.216 E23.17363
G1 X47.92 Y23.307 E23.19919
G1 X48.67 Y23.477 E23.22477
G1 X48.91 Y23.533 E23.23297
G1 X49.146 Y23.375 E23.24241
G1 X49.827 Y23.016 E23.26802
G1 X50.541 Y22.729 E23.29361
G1 X51.28 Y22.519 E23.31916
G1 X52.038 Y22.386 E23.34476
G1 X52.805 Y22.332 E23.37033
G1 X53.603 Y22.361 E23.39689
G1 X54.469 Y22.441 E23.42582
G1 X56.027 Y22.609 E23.47794
G1 X56.787 Y22.731 E23.50354
G1 X57.529 Y22.931 E23.5291
G1 X57.552 Y22.94 E23.52992
G1 X58.399 Y23.036 E23.55827
G1 X59.158 Y23.162 E23.58386
G1 X59.912 Y23.372 E23.6099
G1 X60.714 Y23.464 E23.63675
G1 X61.473 Y23.591 E23.66234
G1 X62.212 Y23.795 E23.68784
G1 X63.053 Y23.89 E23.71599
G1 X63.812 Y24.016 E23.74158
G1 X64.549 Y24.219 E23.767
G1 X65.389 Y24.313 E23.79512
G1 X66.148 Y24.439 E23.82071
G1 X66.89 Y24.642 E23.84629
G1 X66.907 Y24.649 E23.8469
G1 X67.729 Y24.741 E23.87442
G1 X68.488 Y24.867 E23.9
G1 X69.234 Y25.073 E23.92575
G1 X69.63 Y25.118 E23.939
G1 X70.14 Y25.185 E23.95611
G1 X70.896 Y25.325 E23.98168
G1 X71.634 Y25.543 E24.00728
G1 X71.735 Y25.584 E24.0109
G1 X76.497 Y26.2 E24.17061
G1 X82.767 Y27.02 E24.38092
G1 X83.523 Y27.16 E24.4065
G1 X84.261 Y27.377 E24.43208
G1 X84.364 Y27.419 E24.43578
G1 X87.228 Y27.787 E24.53182
G1 X89.166 Y28.061 E24.59692
G1 X100.949 Y29.785 E24.993
G1 X101.704 Y29.936 E25.01861
G1 X102.438 Y30.164 E25.04417
G1 X102.545 Y30.21 E25.04804
G1 X106.85 Y30.818 E25.19265
G1 X118.592 Y32.538 E25.58736
G1 X119.346 Y32.689 E25.61293
G1 X120.08 Y32.917 E25.6385
G1 X120.188 Y32.963 E25.6424
G1 X124.522 Y33.577 E25.78799
G1 X130.187 Y34.413 E25.97845
G1 X130.397 Y34.448 E25.98553
G1 X137.465 Y35.442 E26.22293
G1 X138.22 Y35.589 E26.24851
G1 X138.956 Y35.813 E26.2741
G1 X139.052 Y35.853 E26.27756
G1 X141.116 Y36.136 E26.34685
G1 X153.599 Y37.911 E26.76621
G1 X154.354 Y38.058 E26.79179
G1 X155.089 Y38.284 E26.81737
G1 X155.182 Y38.323 E26.82072
G1 X156.642 Y38.523 E26.86974
G1 X158.199 Y38.745 E26.92205
G1 X165.482 Y39.596 E27.16593
G1 X166.241 Y39.725 E27.19153
G1 X166.982 Y39.932 E27.21712
G1 X167.068 Y39.966 E27.2202
G1 X174.492 Y40.834 E27.4688
G1 X175.251 Y40.963 E27.49441
G1 X175.991 Y41.17 E27.51997
G1 X176.101 Y41.214 E27.52391
G1 X183.675 Y42.092 E27.77751
G1 X184.615 Y42.157 E27.80885
G1 X184.911 Y42.107 E27.81883
G1 X185.679 Y42.06 E27.84442
G1 X186.255 Y42.078 E27.86359
