;FLAVOR:Marlin
;TIME:18709
;Filament used: 12.34m
;Layer height: 0.2
;MINX:15.067
;MINY:105.942
;MINZ:0.2
;MAXX:209.127
;MAXY:144.939
;MAXZ:125.6
;Generated with Cura_SteamEngine 4.9.0
M140 S50
M105
M190 S50
M104 S200
M105
M109 S200
M82 ;absolute extrusion mode
; Ender 3 Custom Start G-code
G92 E0 ; Reset Extruder
G28 ; Home all axes
G1 Z2.0 F3000 ; Move Z Axis up little to prevent scratching of Heat Bed
G1 X0.1 Y20 Z0.3 F5000.0 ; Move to start position
G1 X0.1 Y200.0 Z0.3 F1500.0 E15 ; Draw the first line
G1 X0.4 Y200.0 Z0.3 F5000.0 ; Move to side a little
G1 X0.4 Y20 Z0.3 F1500.0 E30 ; Draw the second line
G92 E0 ; Reset Extruder
G1 Z2.0 F3000 ; Move Z Axis up little to prevent scratching of Heat Bed
G1 X5 Y20 Z0.3 F5000.0 ; Move over to prevent blob squish
G92 E0
G92 E0
G1 F2700 E-5
;LAYER_COUNT:628
;LAYER:0
M107
G0 F6000 X21.454 Y106.092 Z0.2
;TYPE:SKIRT
G1 F2700 E0
G1 F1200 X22.236 Y105.977 E0.02629
G1 X22.978 Y105.942 E0.051
G1 X23.339 Y105.942 E0.063
G1 X24.128 Y105.982 E0.08928
G1 X24.908 Y106.101 E0.11552
G1 X25.673 Y106.299 E0.1418
G1 X26.355 Y106.549 E0.16596
G1 X26.622 Y106.661 E0.17559
G1 X26.885 Y106.717 E0.18454
G1 X27.391 Y106.794 E0.20156
G1 X27.539 Y106.831 E0.20663
G1 X28.048 Y106.909 E0.22376
G1 X28.204 Y106.949 E0.22912
G1 X28.703 Y107.025 E0.24591
G1 X28.788 Y107.046 E0.24882
G1 X29.253 Y107.117 E0.26446
G1 X29.639 Y107.137 E0.27732
G1 X30.254 Y107.231 E0.29801
G1 X30.691 Y107.253 E0.31256
G1 X31.331 Y107.351 E0.3341
G1 X31.723 Y107.371 E0.34715
G1 X32.187 Y107.443 E0.36277
G1 X32.39 Y107.443 E0.36952
G1 X33.179 Y107.483 E0.3958
G1 X33.677 Y107.559 E0.41255
G1 X34.008 Y107.559 E0.42356
G1 X34.797 Y107.599 E0.44984
G1 X35.289 Y107.674 E0.46639
G1 X35.628 Y107.674 E0.47767
G1 X36.417 Y107.714 E0.50394
G1 X36.915 Y107.79 E0.5207
G1 X38.01 Y107.79 E0.55712
G1 X38.799 Y107.83 E0.58339
G1 X39.291 Y107.905 E0.59995
G1 X41.135 Y107.905 E0.66128
G1 X41.924 Y107.945 E0.68756
G1 X42.422 Y108.021 E0.70431
G1 X44.261 Y108.021 E0.76548
G1 X45.05 Y108.061 E0.79175
G1 X45.542 Y108.136 E0.80831
G1 X47.934 Y108.136 E0.88786
G1 X48.723 Y108.176 E0.91414
G1 X49.503 Y108.295 E0.94038
G1 X50.268 Y108.493 E0.96667
G1 X51.008 Y108.767 E0.99291
G1 X51.053 Y108.789 E0.99458
G1 X52.828 Y108.876 E1.05368
G1 X53.068 Y108.781 E1.06227
G1 X53.828 Y108.568 E1.08852
G1 X54.606 Y108.432 E1.11479
G1 X55.561 Y108.374 E1.14661
G1 X76.765 Y108.391 E1.85186
G1 X77.554 Y108.432 E1.87814
G1 X78.334 Y108.552 E1.90439
G1 X79.099 Y108.75 E1.93067
G1 X79.818 Y109.017 E1.95618
G1 X83.703 Y108.915 E2.08544
G1 X89.104 Y108.753 E2.26516
G1 X89.227 Y108.696 E2.26967
G1 X89.974 Y108.44 E2.29593
G1 X90.743 Y108.26 E2.3222
G1 X91.526 Y108.159 E2.34846
G1 X92.129 Y108.136 E2.36853
G1 X98.999 Y108.136 E2.59702
G1 X99.596 Y108.052 E2.61708
G1 X100.29 Y108.021 E2.64018
G1 X107.149 Y108.021 E2.86831
G1 X107.753 Y107.936 E2.8886
G1 X108.442 Y107.906 E2.91154
G1 X115.287 Y107.906 E3.1392
G1 X115.861 Y107.823 E3.15849
G1 X116.58 Y107.79 E3.18243
G1 X123.282 Y107.79 E3.40534
G1 X123.886 Y107.705 E3.42563
G1 X124.575 Y107.675 E3.44857
G1 X131.073 Y107.675 E3.66469
G1 X131.492 Y107.548 E3.67925
G1 X132.259 Y107.357 E3.70554
G1 X133.04 Y107.245 E3.73178
G1 X133.757 Y107.212 E3.75566
G1 X169.795 Y107.212 E4.95429
G1 X170.369 Y107.129 E4.97358
G1 X171.088 Y107.096 E4.99752
G1 X196.078 Y107.096 E5.82869
G1 X196.839 Y107.133 E5.85403
G1 X196.89 Y107.138 E5.85573
G1 X197.671 Y107.255 E5.882
G1 X198.363 Y107.428 E5.90572
G1 X199.604 Y107.799 E5.9488
G1 X200.348 Y108.063 E5.97506
G1 X201.062 Y108.401 E6.00133
G1 X201.738 Y108.81 E6.02761
G1 X202.369 Y109.284 E6.05386
G1 X202.949 Y109.82 E6.08013
G1 X203.471 Y110.412 E6.10638
G1 X203.931 Y111.054 E6.13265
G1 X204.324 Y111.739 E6.15891
G1 X204.646 Y112.461 E6.18521
G1 X204.893 Y113.211 E6.21147
G1 X205.063 Y113.982 E6.23773
G1 X205.154 Y114.766 E6.26398
G1 X205.165 Y115.556 E6.29026
G1 X205.156 Y115.649 E6.29337
G1 X205.14 Y116.08 E6.30771
G1 X205.142 Y116.624 E6.32581
G1 X205.061 Y117.44 E6.35308
G1 X204.852 Y118.806 E6.39904
G1 X204.693 Y119.579 E6.42529
G1 X204.457 Y120.333 E6.45157
G1 X204.146 Y121.059 E6.47784
G1 X203.763 Y121.749 E6.50409
G1 X203.312 Y122.398 E6.53037
G1 X202.798 Y122.997 E6.55662
G1 X202.226 Y123.541 E6.58288
G1 X201.602 Y124.025 E6.60914
G1 X200.932 Y124.443 E6.63541
G1 X200.223 Y124.792 E6.66169
G1 X199.483 Y125.066 E6.68794
G1 X198.719 Y125.265 E6.7142
G1 X197.938 Y125.385 E6.74048
G1 X197.053 Y125.425 E6.76994
G1 X194.91 Y125.4 E6.84123
G1 X194.213 Y125.504 E6.86466
G1 X193.41 Y125.54 E6.8914
G1 X193.365 Y125.551 E6.89294
G1 X192.582 Y125.655 E6.91921
G1 X191.956 Y125.679 E6.94005
G1 X191.174 Y125.791 E6.96632
G1 X190.388 Y125.824 E6.99249
G1 X190.014 Y125.821 E7.00493
G1 X188.937 Y125.831 E7.04075
G1 X188.148 Y125.798 E7.06701
G1 X187.366 Y125.686 E7.09329
G1 X187.265 Y125.661 E7.09675
G1 X168.263 Y125.899 E7.72881
G1 X172.59 Y126.345 E7.87349
G1 X173.37 Y126.466 E7.89974
G1 X174.134 Y126.665 E7.926
G1 X174.875 Y126.94 E7.95229
G1 X175.583 Y127.288 E7.97853
G1 X176.253 Y127.707 E8.00481
G1 X176.877 Y128.191 E8.03108
G1 X177.449 Y128.736 E8.05735
G1 X177.962 Y129.335 E8.08358
G1 X178.413 Y129.984 E8.10987
G1 X178.796 Y130.674 E8.13612
G1 X179.106 Y131.4 E8.16237
G1 X179.342 Y132.154 E8.18865
G1 X179.501 Y132.928 E8.21493
G1 X179.58 Y133.713 E8.24117
G1 X179.574 Y134.609 E8.27098
G1 X179.549 Y134.994 E8.28381
G1 X179.458 Y135.779 E8.31009
G1 X179.288 Y136.55 E8.33635
G1 X179.041 Y137.3 E8.36261
G1 X178.719 Y138.021 E8.38888
G1 X178.326 Y138.706 E8.41514
G1 X177.866 Y139.348 E8.44141
G1 X177.344 Y139.94 E8.46766
G1 X176.764 Y140.476 E8.49393
G1 X176.133 Y140.951 E8.5202
G1 X175.457 Y141.36 E8.54648
G1 X174.744 Y141.698 E8.57272
G1 X173.999 Y141.962 E8.59901
G1 X173.232 Y142.15 E8.62528
G1 X172.45 Y142.259 E8.65154
G1 X171.529 Y142.285 E8.68218
G1 X167.174 Y142.153 E8.8271
G1 X143.688 Y141.833 E9.60832
G1 X127.339 Y141.976 E10.15211
G1 X111.258 Y142.401 E10.68715
G1 X78.059 Y143.88 E11.79245
G1 X57.071 Y144.762 E12.49113
G1 X56.87 Y144.768 E12.49782
G1 X46.297 Y144.939 E12.84952
G1 X45.966 Y144.937 E12.86053
G1 X36.294 Y144.683 E13.18234
G1 X35.724 Y144.647 E13.20133
G1 X30.745 Y144.15 E13.36776
G1 X30.444 Y144.115 E13.37784
G1 X29.859 Y144.014 E13.39758
G1 X27.181 Y143.447 E13.48863
G1 X26.418 Y143.244 E13.51489
G1 X26.036 Y143.111 E13.52834
G1 X24.802 Y142.644 E13.57222
G1 X24.313 Y142.44 E13.58985
G1 X24.265 Y142.418 E13.5916
G1 X23.442 Y141.979 E13.62263
G1 X23.068 Y141.75 E13.63721
G1 X22.416 Y141.304 E13.66349
G1 X22.018 Y140.979 E13.68058
G1 X21.311 Y140.283 E13.71357
G1 X21.033 Y139.972 E13.72745
G1 X20.537 Y139.358 E13.7537
G1 X20.106 Y138.696 E13.77997
G1 X19.852 Y138.224 E13.7978
G1 X19.536 Y137.501 E13.82404
G1 X19.293 Y136.749 E13.85033
G1 X19.175 Y136.241 E13.86768
G1 X19.129 Y136.007 E13.87561
G1 X19.017 Y135.225 E13.90188
G1 X18.983 Y134.436 E13.92815
G1 X19.03 Y133.648 E13.9544
G1 X19.182 Y132.751 E13.98466
G1 X19.235 Y132.521 E13.99251
G1 X19.451 Y131.761 E14.01879
G1 X19.79 Y130.925 E14.0488
G1 X19.809 Y130.885 E14.05027
G1 X20.153 Y130.242 E14.07453
G1 X20.359 Y129.896 E14.08792
G1 X20.797 Y129.239 E14.11418
G1 X21.299 Y128.629 E14.14046
G1 X21.625 Y128.292 E14.15605
G1 X22.471 Y127.47 E14.19528
G1 X23.065 Y126.949 E14.22156
G1 X23.894 Y126.376 E14.25508
G1 X25.658 Y125.318 E14.3235
G1 X25.533 Y125.231 E14.32856
G1 X24.933 Y124.718 E14.35482
G1 X24.782 Y124.56 E14.36209
G1 X23.786 Y124.172 E14.39764
G1 X23.374 Y123.998 E14.41251
G1 X22.947 Y123.803 E14.42813
G1 X22.366 Y123.508 E14.4498
G1 X22.124 Y123.372 E14.45903
G1 X21.322 Y122.854 E14.49079
G1 X19.955 Y121.848 E14.54724
G1 X19.343 Y121.349 E14.5735
G1 X18.805 Y120.812 E14.59878
G1 X18.575 Y120.665 E14.60786
G1 X17.955 Y120.175 E14.63415
G1 X17.186 Y119.401 E14.67044
G1 X17.073 Y119.27 E14.67619
G1 X16.588 Y118.646 E14.70248
G1 X16.169 Y117.977 E14.72873
G1 X15.936 Y117.526 E14.74562
G1 X15.818 Y117.278 E14.75475
G1 X15.515 Y116.549 E14.78101
G1 X15.287 Y115.793 E14.80727
G1 X15.138 Y115.017 E14.83355
G1 X15.067 Y114.231 E14.8598
G1 X15.076 Y113.441 E14.88608
G1 X15.165 Y112.657 E14.91232
G1 X15.333 Y111.885 E14.9386
G1 X15.578 Y111.134 E14.96487
G1 X15.898 Y110.412 E14.99114
G1 X16.269 Y109.758 E15.01615
G1 X16.386 Y109.573 E15.02343
G1 X16.841 Y108.928 E15.04968
G1 X17.359 Y108.332 E15.07595
G1 X17.935 Y107.791 E15.10223
G1 X18.563 Y107.312 E15.1285
G1 X19.235 Y106.899 E15.15473
G1 X19.947 Y106.555 E15.18103
G1 X20.689 Y106.285 E15.2073
G1 X21.454 Y106.092 E15.23354
G0 F6000 X21.69 Y106.455
G1 F1200 X22.453 Y106.361 E15.25911
G1 X22.978 Y106.342 E15.27658
G1 X23.339 Y106.342 E15.28859
G1 X24.107 Y106.382 E15.31416
G1 X24.867 Y106.501 E15.33975
G1 X25.61 Y106.699 E15.36533
G1 X26.2 Y106.918 E15.38626
G1 X26.507 Y107.046 E15.39732
G1 X26.821 Y107.111 E15.40798
G1 X27.35 Y107.194 E15.42579
G1 X27.473 Y107.225 E15.43001
G1 X28.007 Y107.309 E15.44799
G1 X28.141 Y107.343 E15.45259
G1 X28.662 Y107.425 E15.47013
G1 X28.72 Y107.44 E15.47213
G1 X29.203 Y107.515 E15.48838
G1 X29.618 Y107.537 E15.50221
G1 X30.204 Y107.629 E15.52193
G1 X30.67 Y107.653 E15.53745
G1 X31.28 Y107.748 E15.55799
G1 X31.702 Y107.771 E15.57204
G1 X32.154 Y107.843 E15.58727
G1 X32.39 Y107.843 E15.59512
G1 X33.158 Y107.883 E15.62069
G1 X33.643 Y107.959 E15.63702
G1 X34.008 Y107.959 E15.64916
G1 X34.776 Y107.999 E15.67474
G1 X35.255 Y108.074 E15.69087
G1 X35.628 Y108.074 E15.70327
G1 X36.396 Y108.114 E15.72885
G1 X36.881 Y108.19 E15.74518
G1 X38.01 Y108.19 E15.78273
G1 X38.778 Y108.23 E15.80831
G1 X39.257 Y108.305 E15.82443
G1 X41.135 Y108.305 E15.8869
G1 X41.903 Y108.345 E15.91248
G1 X42.388 Y108.421 E15.9288
G1 X44.261 Y108.421 E15.9911
G1 X45.029 Y108.461 E16.01668
G1 X45.508 Y108.536 E16.0328
G1 X47.934 Y108.536 E16.11349
G1 X48.702 Y108.576 E16.13907
G1 X49.462 Y108.695 E16.16466
G1 X50.205 Y108.893 E16.19023
G1 X50.924 Y109.167 E16.21582
G1 X50.961 Y109.185 E16.21719
G1 X52.888 Y109.279 E16.28136
G1 X53.424 Y109.087 E16.3003
G1 X54.171 Y108.905 E16.32587
G1 X54.933 Y108.8 E16.35145
G1 X55.561 Y108.774 E16.37236
G1 X76.765 Y108.791 E17.07761
G1 X77.533 Y108.832 E17.10319
G1 X78.293 Y108.952 E17.12878
G1 X79.036 Y109.15 E17.15435
G1 X79.743 Y109.42 E17.17952
G1 X83.686 Y109.315 E17.31071
G1 X89.206 Y109.149 E17.49439
G1 X89.6 Y108.982 E17.50863
G1 X90.335 Y108.757 E17.53419
G1 X91.09 Y108.609 E17.55978
G1 X92.129 Y108.536 E17.59442
G1 X99.019 Y108.536 E17.82359
G1 X99.671 Y108.447 E17.84547
G1 X100.29 Y108.421 E17.86608
G1 X107.169 Y108.421 E18.09488
G1 X107.828 Y108.331 E18.117
G1 X108.442 Y108.306 E18.13744
G1 X115.305 Y108.306 E18.3657
G1 X115.938 Y108.218 E18.38696
G1 X116.58 Y108.19 E18.40833
G1 X123.302 Y108.19 E18.6319
G1 X123.961 Y108.1 E18.65403
G1 X124.575 Y108.075 E18.67447
G1 X131.133 Y108.075 E18.89258
G1 X131.608 Y107.931 E18.90909
G1 X132.355 Y107.746 E18.93469
G1 X133.117 Y107.64 E18.96028
G1 X133.757 Y107.612 E18.98158
G1 X169.813 Y107.612 E20.18081
G1 X170.446 Y107.524 E20.20207
G1 X171.088 Y107.496 E20.22344
G1 X196.078 Y107.496 E21.05461
G1 X196.8 Y107.531 E21.07865
G1 X196.851 Y107.536 E21.08036
G1 X197.612 Y107.651 E21.10596
G1 X198.249 Y107.811 E21.1278
G1 X199.49 Y108.182 E21.17088
G1 X200.214 Y108.44 E21.19645
G1 X200.908 Y108.772 E21.22203
G1 X201.563 Y109.175 E21.24761
G1 X202.174 Y109.643 E21.27321
G1 X202.732 Y110.172 E21.29878
G1 X203.232 Y110.756 E21.32436
G1 X203.669 Y111.389 E21.34994
G1 X204.038 Y112.064 E21.37552
G1 X204.335 Y112.773 E21.40109
G1 X204.557 Y113.51 E21.42669
G1 X204.701 Y114.265 E21.45226
G1 X204.766 Y115.032 E21.47786
G1 X204.755 Y115.591 E21.49645
G1 X204.741 Y116.051 E21.51176
G1 X204.742 Y116.625 E21.53085
G1 X204.666 Y117.379 E21.55606
G1 X204.457 Y118.745 E21.60202
G1 X204.301 Y119.498 E21.6276
G1 X204.068 Y120.231 E21.65318
G1 X203.76 Y120.936 E21.67877
G1 X203.381 Y121.605 E21.70434
G1 X202.934 Y122.231 E21.72992
G1 X202.425 Y122.808 E21.75552
G1 X201.858 Y123.328 E21.7811
G1 X201.241 Y123.787 E21.80668
G1 X200.579 Y124.179 E21.83227
G1 X199.881 Y124.501 E21.85784
G1 X199.152 Y124.748 E21.88344
G1 X198.402 Y124.918 E21.90902
G1 X197.638 Y125.009 E21.93461
G1 X197.057 Y125.026 E21.95394
G1 X194.887 Y125.001 E22.02612
G1 X194.114 Y125.112 E22.05209
G1 X193.399 Y125.141 E22.07589
G1 X193.253 Y125.164 E22.08081
G1 X192.49 Y125.261 E22.10639
G1 X191.895 Y125.28 E22.12619
G1 X191.84 Y125.294 E22.12808
G1 X191.078 Y125.398 E22.15366
G1 X190.391 Y125.424 E22.17652
G1 X190.013 Y125.421 E22.18909
G1 X188.933 Y125.431 E22.22502
G1 X188.165 Y125.398 E22.25058
G1 X187.404 Y125.286 E22.27617
G1 X187.304 Y125.26 E22.2796
G1 X164.462 Y125.547 E23.03939
G1 X163.54 Y125.578 E23.07008
G1 X162.771 Y125.564 E23.09566
G1 X162.007 Y125.47 E23.12126
G1 X161.908 Y125.447 E23.12464
G1 X160.327 Y125.506 E23.17726
G1 X163.089 Y125.768 E23.26954
G1 X172.549 Y126.743 E23.58585
G1 X173.309 Y126.862 E23.61143
G1 X174.052 Y127.058 E23.63699
G1 X174.771 Y127.331 E23.66257
G1 X175.458 Y127.677 E23.68815
G1 X176.106 Y128.093 E23.71376
G1 X176.706 Y128.573 E23.73932
G1 X177.254 Y129.113 E23.76491
G1 X177.742 Y129.707 E23.79048
G1 X178.166 Y130.349 E23.81607
G1 X178.522 Y131.031 E23.84166
G1 X178.804 Y131.746 E23.86722
G1 X179.011 Y132.487 E23.89281
G1 X179.14 Y133.246 E23.91842
G1 X179.189 Y134.013 E23.94398
G1 X179.174 Y134.584 E23.96298
G1 X179.149 Y134.969 E23.97581
G1 X179.06 Y135.732 E24.00136
G1 X178.891 Y136.483 E24.02696
G1 X178.646 Y137.212 E24.05254
G1 X178.326 Y137.911 E24.07811
G1 X177.935 Y138.574 E24.10371
G1 X177.478 Y139.192 E24.12927
G1 X176.959 Y139.76 E24.15486
G1 X176.384 Y140.271 E24.18045
G1 X175.759 Y140.719 E24.20603
G1 X175.091 Y141.1 E24.2316
G1 X174.386 Y141.409 E24.25721
G1 X173.654 Y141.644 E24.28278
G1 X172.901 Y141.801 E24.30836
G1 X172.136 Y141.88 E24.33394
G1 X171.541 Y141.886 E24.35373
G1 X167.13 Y141.753 E24.50051
G1 X143.69 Y141.432 E25.2802
G1 X127.325 Y141.576 E25.82452
G1 X111.283 Y142 E26.35827
G1 X78.043 Y143.48 E27.46493
G1 X57.055 Y144.362 E28.16361
G1 X56.864 Y144.368 E28.16996
G1 X46.291 Y144.539 E28.52167
G1 X45.977 Y144.537 E28.53211
G1 X36.305 Y144.283 E28.85392
G1 X35.764 Y144.249 E28.87195
G1 X30.785 Y143.752 E29.03837
G1 X30.497 Y143.718 E29.04802
G1 X29.942 Y143.623 E29.06674
G1 X27.264 Y143.056 E29.15779
G1 X26.178 Y142.737 E29.19544
G1 X24.944 Y142.27 E29.23932
G1 X24.48 Y142.076 E29.25605
G1 X24.432 Y142.054 E29.2578
G1 X23.651 Y141.638 E29.28723
G1 X23.277 Y141.409 E29.30182
G1 X22.643 Y140.974 E29.32739
G1 X22.28 Y140.677 E29.34299
G1 X21.609 Y140.017 E29.3743
G1 X21.331 Y139.706 E29.38817
G1 X20.849 Y139.106 E29.41377
G1 X20.431 Y138.46 E29.43936
G1 X20.21 Y138.045 E29.455
G1 X19.902 Y137.34 E29.48059
G1 X19.67 Y136.607 E29.50616
G1 X19.568 Y136.163 E29.52131
G1 X19.522 Y135.929 E29.52924
G1 X19.413 Y135.168 E29.55481
G1 X19.384 Y134.399 E29.58041
G1 X19.434 Y133.632 E29.60597
G1 X19.572 Y132.84 E29.63271
G1 X19.625 Y132.61 E29.64056
G1 X19.836 Y131.871 E29.66612
G1 X20.152 Y131.097 E29.69393
G1 X20.171 Y131.057 E29.6954
G1 X20.497 Y130.446 E29.71844
G1 X20.703 Y130.1 E29.73183
G1 X21.13 Y129.461 E29.75739
G1 X21.621 Y128.869 E29.78297
G1 X21.904 Y128.579 E29.79645
G1 X22.75 Y127.757 E29.83568
G1 X23.329 Y127.25 E29.86128
G1 X24.1 Y126.719 E29.89242
G1 X25.985 Y125.588 E29.96553
G1 X26.423 Y125.355 E29.98203
G1 X26.359 Y125.32 E29.98446
G1 X25.73 Y124.877 E30.01005
G1 X25.15 Y124.372 E30.03562
G1 X25.006 Y124.217 E30.04266
G1 X23.931 Y123.799 E30.08102
G1 X23.54 Y123.634 E30.09514
G1 X23.113 Y123.439 E30.11075
G1 X22.562 Y123.159 E30.13131
G1 X22.32 Y123.023 E30.14054
G1 X21.559 Y122.532 E30.17066
G1 X20.192 Y121.526 E30.22711
G1 X19.597 Y121.039 E30.25269
G1 X19.108 Y120.549 E30.27571
G1 X19.066 Y120.503 E30.27778
G1 X18.774 Y120.315 E30.28933
G1 X18.173 Y119.835 E30.31492
G1 X17.489 Y119.139 E30.34737
G1 X17.376 Y119.008 E30.35313
G1 X16.904 Y118.401 E30.3787
G1 X16.498 Y117.747 E30.40431
G1 X16.297 Y117.354 E30.41899
G1 X16.179 Y117.106 E30.42812
G1 X15.885 Y116.396 E30.45368
G1 X15.666 Y115.658 E30.47928
G1 X15.526 Y114.902 E30.50486
G1 X15.464 Y114.135 E30.53045
G1 X15.482 Y113.366 E30.55603
G1 X15.58 Y112.604 E30.58159
