;FLAVOR:Marlin
;TIME:29831
;Filament used: 20.3346m
;Layer height: 0.2
;MINX:8.586
;MINY:15.391
;MINZ:0.2
;MAXX:226.298
;MAXY:204.927
;MAXZ:16.4
;Generated with Cura_SteamEngine 4.9.0
M140 S50
M105
M190 S50
M104 S200
M105
M109 S200
M82 ;absolute extrusion mode
; Ender 3 Custom Start G-code
G92 E0 ; Reset Extruder
G28 ; Home all axes
G1 Z2.0 F3000 ; Move Z Axis up little to prevent scratching of Heat Bed
G1 X0.1 Y20 Z0.3 F5000.0 ; Move to start position
G1 X0.1 Y200.0 Z0.3 F1500.0 E15 ; Draw the first line
G1 X0.4 Y200.0 Z0.3 F5000.0 ; Move to side a little
G1 X0.4 Y20 Z0.3 F1500.0 E30 ; Draw the second line
G92 E0 ; Reset Extruder
G1 Z2.0 F3000 ; Move Z Axis up little to prevent scratching of Heat Bed
G1 X5 Y20 Z0.3 F5000.0 ; Move over to prevent blob squish
G92 E0
G92 E0
G1 F2700 E-5
;LAYER_COUNT:83
;LAYER:0
M107
G0 F6000 X40.448 Y34.899 Z0.2
;TYPE:SKIRT
G1 F2700 E0
G1 F1200 X40.961 Y34.299 E0.02626
G1 X41.533 Y33.754 E0.05253
G1 X42.156 Y33.27 E0.07877
G1 X42.826 Y32.851 E0.10506
G1 X43.534 Y32.502 E0.13131
G1 X44.274 Y32.227 E0.15757
G1 X45.039 Y32.027 E0.18387
G1 X45.963 Y31.893 E0.21492
G1 X46.977 Y31.807 E0.24877
G1 X47.165 Y31.793 E0.25504
G1 X48.354 Y31.721 E0.29466
G1 X49.143 Y31.713 E0.3209
G1 X49.93 Y31.786 E0.34719
G1 X50.077 Y31.815 E0.35217
G1 X50.562 Y31.785 E0.36833
G1 X51.351 Y31.777 E0.39458
G1 X52.138 Y31.849 E0.42086
G1 X52.229 Y31.867 E0.42395
G1 X52.738 Y31.835 E0.44091
G1 X53.528 Y31.826 E0.46719
G1 X54.208 Y31.887 E0.48989
G1 X65.612 Y30.655 E0.8714
G1 X65.71 Y30.617 E0.8749
G1 X66.472 Y30.41 E0.90116
G1 X67.295 Y30.277 E0.92889
G1 X78.235 Y29.099 E1.29486
G1 X83.753 Y28.37 E1.47998
G1 X84.541 Y28.307 E1.50627
G1 X85.33 Y28.323 E1.53252
G1 X85.452 Y28.338 E1.53661
G1 X94.827 Y27.079 E1.85122
G1 X108.744 Y25.214 E2.31824
G1 X109.872 Y25.078 E2.35603
G1 X109.998 Y25.054 E2.3603
G1 X110.331 Y24.998 E2.37153
G1 X110.488 Y24.975 E2.37681
G1 X116.442 Y24.166 E2.57666
G1 X117.229 Y24.099 E2.60293
G1 X118.018 Y24.113 E2.62917
G1 X118.145 Y24.128 E2.63343
G1 X128.764 Y22.663 E2.98996
G1 X145.173 Y20.404 E3.54087
G1 X145.363 Y20.38 E3.54724
G1 X145.854 Y20.325 E3.56368
G1 X147.578 Y20.081 E3.62159
G1 X148.364 Y20.01 E3.64784
G1 X149.154 Y20.019 E3.67411
G1 X149.329 Y20.039 E3.67997
G1 X150.187 Y19.92 E3.70878
G1 X151.336 Y19.774 E3.74731
G1 X166.532 Y17.907 E4.25653
G1 X167.27 Y17.699 E4.28203
G1 X168.197 Y17.547 E4.31327
G1 X169.619 Y17.401 E4.36082
G1 X170.295 Y17.219 E4.3841
G1 X171.129 Y17.087 E4.41219
G1 X172.567 Y16.939 E4.46027
G1 X173.228 Y16.759 E4.48305
G1 X174.096 Y16.621 E4.51229
G1 X175.532 Y16.475 E4.56029
G1 X176.197 Y16.296 E4.5832
G1 X177.034 Y16.163 E4.61139
G1 X178.483 Y16.013 E4.65984
G1 X179.252 Y15.813 E4.68627
G1 X180.013 Y15.696 E4.71187
G1 X181.588 Y15.534 E4.76454
G1 X182.929 Y15.419 E4.8093
G1 X183.718 Y15.391 E4.83556
G1 X184.506 Y15.443 E4.86183
G1 X185.284 Y15.575 E4.88807
G1 X186.046 Y15.785 E4.91436
G1 X186.782 Y16.071 E4.94062
G1 X187.485 Y16.429 E4.96686
G1 X187.702 Y16.569 E4.97545
G1 X191.983 Y16.305 E5.11811
G1 X192.202 Y16.237 E5.12574
G1 X192.976 Y16.08 E5.152
G1 X193.674 Y16.007 E5.17535
G1 X196.472 Y15.843 E5.26857
G1 X197.494 Y15.793 E5.3026
G1 X197.914 Y15.784 E5.31657
G1 X199.272 Y15.791 E5.36174
G1 X199.594 Y15.721 E5.3727
G1 X200.379 Y15.632 E5.39898
G1 X200.903 Y15.617 E5.41641
G1 X203.301 Y15.63 E5.49617
G1 X203.577 Y15.568 E5.50558
G1 X204.361 Y15.473 E5.53185
G1 X204.943 Y15.454 E5.55121
G1 X207.195 Y15.465 E5.62612
G1 X207.264 Y15.46 E5.62842
G1 X208.053 Y15.439 E5.65467
G1 X208.723 Y15.484 E5.677
G1 X209.341 Y15.552 E5.69768
G1 X209.687 Y15.517 E5.70925
G1 X210.477 Y15.516 E5.73552
G1 X210.94 Y15.552 E5.75097
G1 X211.471 Y15.61 E5.76874
G1 X211.936 Y15.57 E5.78426
G1 X212.725 Y15.582 E5.81051
G1 X213.187 Y15.626 E5.82594
G1 X213.58 Y15.676 E5.83912
G1 X214.227 Y15.71 E5.86067
G1 X215.007 Y15.831 E5.88692
G1 X215.154 Y15.867 E5.89195
G1 X215.531 Y15.886 E5.90451
G1 X216.222 Y15.991 E5.92776
G1 X216.88 Y16.044 E5.94971
G1 X218.034 Y16.287 E5.98894
G1 X218.412 Y16.383 E6.00191
G1 X219.172 Y16.6 E6.02819
G1 X219.396 Y16.685 E6.03616
G1 X220.149 Y16.924 E6.06244
G1 X220.575 Y17.109 E6.07789
G1 X220.668 Y17.136 E6.08111
G1 X221.4 Y17.433 E6.10738
G1 X222.098 Y17.802 E6.13364
G1 X222.755 Y18.24 E6.1599
G1 X223.364 Y18.742 E6.18615
G1 X223.92 Y19.303 E6.21242
G1 X224.186 Y19.617 E6.22611
G1 X224.554 Y20.075 E6.24565
G1 X225.017 Y20.715 E6.27193
G1 X225.413 Y21.399 E6.29821
G1 X225.788 Y22.252 E6.3292
G1 X225.808 Y22.306 E6.33112
G1 X226.045 Y23.059 E6.35738
G1 X226.204 Y23.833 E6.38366
G1 X226.294 Y24.936 E6.42046
G1 X226.298 Y25.332 E6.43364
G1 X226.266 Y26.121 E6.4599
G1 X226.154 Y26.903 E6.48618
G1 X225.964 Y27.669 E6.51242
G1 X225.697 Y28.413 E6.53872
G1 X225.357 Y29.125 E6.56496
G1 X224.946 Y29.8 E6.59124
G1 X224.289 Y30.637 E6.62663
G1 X224.095 Y30.852 E6.63627
G1 X223.99 Y31.032 E6.6432
G1 X223.826 Y31.296 E6.65353
G1 X223.376 Y31.945 E6.6798
G1 X222.862 Y32.545 E6.70608
G1 X222.345 Y33.042 E6.72993
G1 X221.613 Y33.684 E6.76231
G1 X221.301 Y33.981 E6.77664
G1 X219.761 Y35.375 E6.84573
G1 X219.149 Y35.874 E6.87199
G1 X218.49 Y36.31 E6.89827
G1 X217.93 Y36.61 E6.9194
G1 X217.444 Y36.944 E6.93902
G1 X217.315 Y37.054 E6.94466
G1 X216.692 Y37.482 E6.9698
G1 X216.619 Y37.543 E6.97296
G1 X215.966 Y37.987 E6.99922
G1 X215.71 Y38.125 E7.0089
G1 X215.332 Y38.427 E7.02499
G1 X214.691 Y38.888 E7.05125
G1 X214.006 Y39.282 E7.07753
G1 X213.685 Y39.453 E7.08963
G1 X212.971 Y39.877 E7.11725
G1 X212.953 Y39.886 E7.11792
G1 X212.493 Y40.19 E7.13626
G1 X211.813 Y40.591 E7.16251
G1 X211.096 Y40.921 E7.18877
G1 X210.92 Y40.981 E7.19495
G1 X210.355 Y41.24 E7.21562
G1 X206.566 Y43.735 E7.36651
G1 X206.348 Y43.931 E7.37627
G1 X205.587 Y44.475 E7.40738
G1 X205.079 Y44.794 E7.42733
G1 X204.864 Y44.924 E7.43569
G1 X203.187 Y45.903 E7.50027
G1 X201.1 Y47.198 E7.58196
G1 X200.75 Y47.525 E7.59789
G1 X199.979 Y48.096 E7.6298
G1 X199.531 Y48.387 E7.64757
G1 X198.936 Y48.783 E7.67134
G1 X198.804 Y48.919 E7.67765
G1 X198.199 Y49.427 E7.70392
G1 X197.812 Y49.701 E7.7197
G1 X197.169 Y50.129 E7.74539
G1 X196.664 Y50.601 E7.76838
G1 X196.353 Y50.85 E7.78163
G1 X195.374 Y51.595 E7.82254
G1 X194.873 Y52.119 E7.84666
G1 X194.365 Y52.558 E7.86899
G1 X193.603 Y53.163 E7.90135
G1 X193.268 Y53.528 E7.91783
G1 X193.205 Y53.585 E7.92065
G1 X192.223 Y54.57 E7.96691
G1 X190.975 Y55.852 E8.02642
G1 X190.822 Y56.006 E8.03364
G1 X189.24 Y57.544 E8.10703
G1 X188.906 Y57.89 E8.12302
G1 X96.963 Y171.436 E12.98244
G1 X96.926 Y171.519 E12.98546
G1 X96.534 Y172.205 E13.01174
G1 X96.028 Y172.907 E13.04052
G1 X77.074 Y196.321 E14.04246
G1 X76.546 Y196.909 E14.06874
G1 X75.962 Y197.44 E14.095
G1 X75.327 Y197.91 E14.12127
G1 X74.599 Y198.339 E14.14938
G1 X74.516 Y198.382 E14.15249
G1 X73.797 Y198.709 E14.17876
G1 X73.049 Y198.962 E14.20502
G1 X72.279 Y199.138 E14.23129
G1 X71.74 Y199.214 E14.2494
G1 X66.729 Y199.738 E14.41697
G1 X38.98 Y202.627 E15.3449
G1 X17.326 Y204.885 E16.06902
G1 X16.537 Y204.927 E16.0953
G1 X15.749 Y204.889 E16.12154
G1 X14.968 Y204.772 E16.1478
G1 X14.203 Y204.576 E16.17407
G1 X13.461 Y204.304 E16.20035
G1 X12.751 Y203.958 E16.22662
G1 X12.08 Y203.542 E16.25288
G1 X11.454 Y203.061 E16.27914
G1 X10.772 Y202.403 E16.31066
G1 X10.637 Y202.256 E16.3173
G1 X10.133 Y201.648 E16.34356
G1 X9.693 Y200.992 E16.36983
G1 X9.322 Y200.295 E16.3961
G1 X9.023 Y199.565 E16.42233
G1 X8.799 Y198.807 E16.44862
G1 X8.653 Y198.031 E16.47489
G1 X8.586 Y197.244 E16.50116
G1 X8.6 Y196.455 E16.5274
G1 X8.704 Y195.608 E16.55578
G1 X9.574 Y190.736 E16.72039
G1 X9.375 Y190.276 E16.73706
G1 X9.135 Y189.523 E16.76335
G1 X8.974 Y188.751 E16.78958
G1 X8.891 Y187.965 E16.81586
G1 X8.888 Y187.176 E16.84211
G1 X8.957 Y186.44 E16.86669
G1 X9.226 Y184.552 E16.93012
G1 X9.389 Y183.433 E16.96773
G1 X10.114 Y178.741 E17.12564
G1 X11.032 Y172.927 E17.32141
G1 X11.062 Y172.753 E17.32729
G1 X16.772 Y141.247 E18.39225
G1 X16.548 Y140.555 E18.41644
G1 X16.382 Y139.782 E18.44274
G1 X16.295 Y138.998 E18.46897
G1 X16.288 Y138.208 E18.49525
G1 X16.357 Y137.448 E18.52063
G1 X16.542 Y136.128 E18.56496
G1 X16.887 Y133.76 E18.64456
G1 X17.367 Y130.543 E18.75274
G1 X18.232 Y124.894 E18.94282
G1 X18.802 Y121.144 E19.06897
G1 X19.675 Y115.787 E19.2495
G1 X19.763 Y115.152 E19.27082
G1 X19.901 Y114.278 E19.30025
G1 X19.931 Y114.104 E19.30612
G1 X23.99 Y91.708 E20.06315
G1 X23.926 Y91.504 E20.07026
G1 X23.767 Y90.73 E20.09654
G1 X23.686 Y89.945 E20.12279
G1 X23.686 Y89.155 E20.14907
G1 X23.758 Y88.418 E20.1737
G1 X24.486 Y83.429 E20.34139
G1 X25.349 Y77.642 E20.53599
G1 X26.432 Y70.56 E20.77428
G1 X26.978 Y67.014 E20.89361
G1 X27.047 Y66.632 E20.90652
G1 X27.123 Y66.262 E20.91908
G1 X27.32 Y65.497 E20.94536
G1 X27.419 Y65.231 E20.9548
G1 X27.626 Y64.549 E20.9785
G1 X27.861 Y63.94 E21.00021
G1 X27.906 Y63.279 E21.02225
G1 X28.022 Y62.581 E21.04578
G1 X28.182 Y61.83 E21.07132
G1 X28.386 Y61.067 E21.09759
G1 X28.665 Y60.328 E21.12386
G1 X28.822 Y60.013 E21.13557
G1 X29.022 Y59.394 E21.15721
G1 X29.163 Y59.027 E21.17028
G1 X29.299 Y58.439 E21.19036
G1 X29.42 Y58.055 E21.20375
G1 X29.55 Y57.675 E21.21711
G1 X29.812 Y57.011 E21.24085
G1 X30.04 Y56.502 E21.2594
G1 X30.169 Y56.227 E21.2695
G1 X30.283 Y55.997 E21.27804
G1 X30.656 Y55.363 E21.3025
G1 X30.883 Y54.563 E21.33016
G1 X31.015 Y54.191 E21.34329
G1 X31.443 Y53.205 E21.37904
G1 X31.538 Y53.022 E21.3859
G1 X31.699 Y52.728 E21.39705
G1 X31.933 Y52.321 E21.41266
G1 X32.419 Y51.577 E21.44222
G1 X32.605 Y51.325 E21.45264
G1 X33.271 Y50.538 E21.48693
G1 X33.612 Y50.185 E21.50325
G1 X34.285 Y48.666 E21.55851
G1 X34.291 Y48.501 E21.564
G1 X34.401 Y47.719 E21.59027
G1 X34.589 Y46.952 E21.61653
G1 X34.824 Y46.28 E21.64021
G1 X34.917 Y46.049 E21.64849
G1 X35.249 Y45.332 E21.67477
G1 X35.428 Y45.045 E21.68602
G1 X35.57 Y44.693 E21.69865
G1 X35.902 Y43.977 E21.7249
G1 X36.079 Y43.692 E21.73606
G1 X36.228 Y43.328 E21.74914
G1 X36.563 Y42.613 E21.7754
G1 X36.969 Y41.935 E21.80169
G1 X37.441 Y41.302 E21.82795
G1 X37.689 Y41.032 E21.84014
G1 X38.001 Y40.382 E21.86412
G1 X38.414 Y39.709 E21.89038
G1 X38.551 Y39.528 E21.89793
G1 X38.732 Y39.019 E21.9159
G1 X38.878 Y38.71 E21.92727
G1 X38.911 Y38.492 E21.9346
G1 X39.069 Y37.718 E21.96088
G1 X39.304 Y36.965 E21.98711
G1 X39.615 Y36.239 E22.01338
G1 X39.997 Y35.548 E22.03964
G1 X40.448 Y34.899 E22.06593
G0 F6000 X40.826 Y35.065
G1 F1200 X41.335 Y34.488 E22.09152
G1 X41.901 Y33.967 E22.11711
G1 X42.518 Y33.508 E22.14268
G1 X43.179 Y33.115 E22.16826
G1 X43.877 Y32.793 E22.19383
G1 X44.606 Y32.545 E22.21944
G1 X45.355 Y32.374 E22.24499
G1 X45.997 Y32.291 E22.26652
G1 X47.011 Y32.205 E22.30037
G1 X48.378 Y32.121 E22.34592
G1 X49.147 Y32.114 E22.3715
G1 X49.912 Y32.187 E22.39706
G1 X50.06 Y32.217 E22.40208
G1 X50.586 Y32.185 E22.41961
G1 X51.355 Y32.178 E22.44519
G1 X52.121 Y32.251 E22.47078
G1 X52.208 Y32.269 E22.47374
G1 X52.763 Y32.234 E22.49223
G1 X53.532 Y32.226 E22.51781
G1 X54.206 Y32.29 E22.54033
G1 X65.711 Y31.047 E22.92521
G1 X65.891 Y30.979 E22.93161
G1 X66.635 Y30.785 E22.95719
G1 X67.338 Y30.675 E22.98085
G1 X78.291 Y29.496 E23.34725
G1 X83.806 Y28.767 E23.53228
G1 X84.573 Y28.706 E23.55787
G1 X85.341 Y28.725 E23.58342
G1 X85.464 Y28.741 E23.58755
G1 X94.88 Y27.476 E23.90354
G1 X108.792 Y25.611 E24.37039
G1 X109.936 Y25.473 E24.40872
G1 X110.31 Y25.406 E24.42136
G1 X110.542 Y25.371 E24.42916
G1 X116.496 Y24.562 E24.62901
G1 X117.262 Y24.499 E24.65457
G1 X118.031 Y24.515 E24.68016
G1 X118.153 Y24.53 E24.68424
G1 X128.819 Y23.059 E25.04235
G1 X145.228 Y20.8 E25.59327
G1 X145.888 Y20.724 E25.61536
G1 X147.634 Y20.477 E25.67402
G1 X148.4 Y20.409 E25.69959
G1 X149.169 Y20.421 E25.72517
G1 X149.338 Y20.441 E25.73083
G1 X150.237 Y20.317 E25.76102
G1 X151.385 Y20.171 E25.79951
G1 X166.625 Y18.298 E26.31021
G1 X166.675 Y18.279 E26.31198
G1 X167.417 Y18.076 E26.33757
G1 X168.238 Y17.945 E26.36522
G1 X169.681 Y17.796 E26.41347
G1 X170.438 Y17.598 E26.4395
G1 X171.17 Y17.485 E26.46413
G1 X172.628 Y17.334 E26.51288
G1 X173.372 Y17.138 E26.53847
G1 X174.137 Y17.019 E26.56422
G1 X175.591 Y16.871 E26.61283
G1 X176.34 Y16.674 E26.63859
G1 X177.075 Y16.561 E26.66333
G1 X178.576 Y16.405 E26.71352
G1 X178.645 Y16.38 E26.71596
G1 X179.391 Y16.193 E26.74154
G1 X180.055 Y16.094 E26.76387
G1 X181.622 Y15.932 E26.81627
G1 X182.963 Y15.817 E26.86103
G1 X183.731 Y15.791 E26.88659
G1 X184.499 Y15.845 E26.9122
G1 X185.256 Y15.979 E26.93777
G1 X185.996 Y16.19 E26.96336
G1 X186.709 Y16.477 E26.98892
G1 X187.389 Y16.837 E27.01451
G1 X187.596 Y16.976 E27.02281
G1 X192.059 Y16.7 E27.17153
G1 X192.359 Y16.61 E27.18195
G1 X193.114 Y16.464 E27.20752
G1 X193.698 Y16.407 E27.22704
G1 X196.491 Y16.243 E27.3201
G1 X197.513 Y16.193 E27.35413
G1 X197.912 Y16.184 E27.3674
G1 X199.314 Y16.191 E27.41403
G1 X199.718 Y16.106 E27.42776
G1 X200.483 Y16.027 E27.45334
G1 X200.901 Y16.017 E27.46725
G1 X203.346 Y16.03 E27.54857
G1 X203.704 Y15.952 E27.56076
G1 X204.469 Y15.867 E27.58636
G1 X204.941 Y15.854 E27.60206
G1 X207.212 Y15.865 E27.6776
G1 X207.295 Y15.859 E27.68037
G1 X208.064 Y15.84 E27.70595
G1 X208.68 Y15.882 E27.72649
G1 X209.338 Y15.955 E27.74851
G1 X209.768 Y15.913 E27.76288
G1 X210.897 Y15.95 E27.80045
G1 X211.461 Y16.012 E27.81932
G1 X212.01 Y15.968 E27.83764
G1 X213.137 Y16.023 E27.87517
G1 X213.538 Y16.073 E27.88861
G1 X214.206 Y16.11 E27.91086
G1 X214.965 Y16.231 E27.93642
G1 X215.099 Y16.264 E27.94101
G1 X215.55 Y16.29 E27.95604
G1 X216.12 Y16.382 E27.97524
G1 X216.887 Y16.449 E28.00085
G1 X217.922 Y16.671 E28.03606
G1 X218.322 Y16.773 E28.04979
G1 X219.061 Y16.985 E28.07536
G1 X219.333 Y17.082 E28.08496
G1 X220.064 Y17.32 E28.11053
G1 X220.435 Y17.485 E28.12404
G1 X220.556 Y17.52 E28.12823
G1 X221.267 Y17.812 E28.15379
G1 X221.945 Y18.176 E28.17938
G1 X222.58 Y18.609 E28.20495
G1 X223.168 Y19.105 E28.23053
G1 X223.875 Y19.868 E28.26513
G1 X224.243 Y20.326 E28.28467
G1 X224.693 Y20.95 E28.31026
G1 X225.075 Y21.617 E28.33583
G1 X225.413 Y22.391 E28.36392
G1 X225.433 Y22.445 E28.36583
G1 X225.663 Y23.179 E28.39141
G1 X225.814 Y23.933 E28.41699
G1 X225.894 Y24.94 E28.45059
G1 X225.898 Y25.336 E28.46376
G1 X225.865 Y26.105 E28.48936
G1 X225.754 Y26.866 E28.51494
G1 X225.563 Y27.611 E28.54052
G1 X225.297 Y28.332 E28.56608
G1 X224.957 Y29.022 E28.59167
G1 X224.547 Y29.673 E28.61725
G1 X223.992 Y30.369 E28.64686
G1 X223.74 Y30.648 E28.65937
G1 X223.65 Y30.821 E28.66585
G1 X223.486 Y31.085 E28.67619
G1 X223.047 Y31.716 E28.70176
G1 X222.544 Y32.299 E28.72737
G1 X222.081 Y32.742 E28.74868
G1 X221.332 Y33.399 E28.78182
G1 X221.032 Y33.684 E28.79558
G1 X219.492 Y35.078 E28.86467
G1 X218.896 Y35.564 E28.89025
G1 X218.252 Y35.985 E28.91584
G1 X217.737 Y36.26 E28.93526
G1 X217.21 Y36.619 E28.95646
G1 X217.056 Y36.749 E28.96317
G1 X216.461 Y37.153 E28.98709
G1 X216.362 Y37.236 E28.99138
G1 X215.724 Y37.666 E29.01697
G1 X215.488 Y37.791 E29.02586
G1 X215.083 Y38.115 E29.04311
G1 X214.457 Y38.563 E29.06871
G1 X213.789 Y38.943 E29.09427
G1 X213.463 Y39.121 E29.10662
G1 X212.786 Y39.522 E29.1328
G1 X212.753 Y39.539 E29.13403
G1 X212.273 Y39.856 E29.15316
G1 X211.61 Y40.246 E29.17875
G1 X210.91 Y40.565 E29.20433
G1 X210.768 Y40.613 E29.20932
G1 X210.169 Y40.884 E29.23118
G1 X206.322 Y43.417 E29.38438
G1 X206.08 Y43.633 E29.39517
G1 X205.374 Y44.136 E29.424
G1 X204.866 Y44.455 E29.44395
G1 X204.662 Y44.579 E29.45189
G1 X202.969 Y45.568 E29.51711
G1 X200.86 Y46.876 E29.59965
G1 X200.446 Y47.257 E29.61836
G1 X199.761 Y47.761 E29.64665
G1 X199.275 Y48.077 E29.66593
G1 X198.678 Y48.474 E29.68977
G1 X198.503 Y48.653 E29.6981
G1 X197.91 Y49.144 E29.72371
G1 X197.591 Y49.368 E29.73667
G1 X196.925 Y49.812 E29.76329
G1 X196.111 Y50.532 E29.79944
G1 X195.106 Y51.297 E29.84145
G1 X195.09 Y51.317 E29.8423
G1 X194.554 Y51.869 E29.86789
G1 X194.116 Y52.245 E29.88709
G1 X193.332 Y52.867 E29.92037
G1 X192.959 Y53.272 E29.93869
G1 X192.891 Y53.333 E29.94173
G1 X191.97 Y54.257 E29.98512
G1 X190.689 Y55.573 E30.0462
G1 X190.543 Y55.719 E30.05307
G1 X188.971 Y57.247 E30.12598
G1 X188.601 Y57.631 E30.14372
G1 X96.614 Y171.23 E35.00543
G1 X96.541 Y171.392 E35.01134
G1 X96.154 Y172.056 E35.0369
