;FLAVOR:Marlin
;TIME:10337
;Filament used: 5.57471m
;Layer height: 0.2
;MINX:101.225
;MINY:117.719
;MINZ:0.2
;MAXX:200.398
;MAXY:182.281
;MAXZ:33.6
;Generated with Cura_SteamEngine 4.9.0
M140 S50
M105
M190 S50
M104 S200
M105
M109 S200
M82 ;absolute extrusion mode
M201 X500.00 Y500.00 Z100.00 E5000.00 ;Setup machine max acceleration
M203 X500.00 Y500.00 Z10.00 E50.00 ;Setup machine max feedrate
M204 P500.00 R1000.00 T500.00 ;Setup Print/Retract/Travel acceleration
M205 X8.00 Y8.00 Z0.40 E5.00 ;Setup Jerk
M220 S100 ;Reset Feedrate
M221 S100 ;Reset Flowrate

G28 ;Home

G92 E0 ;Reset Extruder
G1 Z2.0 F3000 ;Move Z Axis up
G1 X10.1 Y20 Z0.28 F5000.0 ;Move to start position
G1 X10.1 Y200.0 Z0.28 F1500.0 E15 ;Draw the first line
G1 X10.4 Y200.0 Z0.28 F5000.0 ;Move to side a little
G1 X10.4 Y20 Z0.28 F1500.0 E30 ;Draw the second line
G92 E0 ;Reset Extruder
G1 Z2.0 F3000 ;Move Z Axis up

G92 E0
G92 E0
G1 F2700 E-5
;LAYER_COUNT:168
;LAYER:0
M107
G0 F6000 X115.948 Y120.522 Z0.2
;TYPE:SKIRT
G1 F2700 E0
G1 F1200 X116.791 Y119.783 E0.03729
G1 X116.898 Y119.702 E0.04175
G1 X117.551 Y119.258 E0.06801
G1 X118.246 Y118.882 E0.0943
G1 X118.975 Y118.578 E0.12057
G1 X119.73 Y118.35 E0.1468
G1 X120.506 Y118.199 E0.17309
G1 X121.606 Y118.121 E0.20977
G1 X126.765 Y118.121 E0.38136
G1 X127.554 Y118.161 E0.40763
G1 X128.334 Y118.28 E0.43388
G1 X129.099 Y118.478 E0.46016
G1 X129.839 Y118.752 E0.48641
G1 X130.548 Y119.1 E0.51267
G1 X131.219 Y119.518 E0.53897
G1 X131.843 Y120.001 E0.56521
G1 X132.416 Y120.544 E0.59147
G1 X132.939 Y121.154 E0.61819
G1 X133.061 Y121.312 E0.62483
G1 X133.511 Y121.961 E0.6511
G1 X133.894 Y122.651 E0.67735
G1 X134.204 Y123.377 E0.7036
G1 X134.44 Y124.131 E0.72988
G1 X134.598 Y124.905 E0.75616
G1 X134.677 Y125.691 E0.78243
G1 X134.677 Y126.48 E0.80867
G1 X134.596 Y127.266 E0.83495
G1 X134.403 Y128.166 E0.86557
G1 X132.435 Y135.251 E1.11014
G1 X132.105 Y136.43 E1.15086
G1 X132.413 Y136.408 E1.16113
G1 X133.238 Y136.393 E1.18857
G1 X133.566 Y136.404 E1.19949
G1 X133.908 Y136.404 E1.21086
G1 X134.694 Y136.482 E1.23714
G1 X135.468 Y136.64 E1.26341
G1 X135.889 Y136.772 E1.27808
G1 X154.984 Y136.773 E1.91319
G1 X155.015 Y136.761 E1.91429
G1 X156.113 Y136.486 E1.95194
G1 X156.273 Y136.458 E1.95734
G1 X157.057 Y136.361 E1.98362
G1 X157.847 Y136.344 E2.0099
G1 X158.757 Y136.425 E2.04029
G1 X158.975 Y136.457 E2.04761
G1 X159.096 Y136.421 E2.05181
G1 X159.871 Y136.273 E2.07805
G1 X160.658 Y136.203 E2.10433
G1 X161.448 Y136.214 E2.13061
G1 X162.035 Y136.292 E2.15031
G1 X162.272 Y135.642 E2.17332
G1 X162.338 Y135.5 E2.17853
G1 X163.568 Y129.575 E2.37979
G1 X163.591 Y128.799 E2.40562
G1 X163.726 Y127.85 E2.4375
G1 X164.027 Y126.392 E2.48701
G1 X164.521 Y124.018 E2.56766
G1 X164.72 Y123.254 E2.59392
G1 X164.996 Y122.514 E2.62019
G1 X165.346 Y121.806 E2.64646
G1 X165.765 Y121.137 E2.67271
G1 X166.25 Y120.513 E2.699
G1 X166.795 Y119.942 E2.72525
G1 X167.257 Y119.538 E2.74567
G1 X167.366 Y119.45 E2.75033
G1 X168.005 Y118.986 E2.77659
G1 X168.687 Y118.588 E2.80286
G1 X169.407 Y118.262 E2.82914
G1 X170.155 Y118.01 E2.8554
G1 X170.925 Y117.835 E2.88166
G1 X171.709 Y117.739 E2.90793
G1 X172.266 Y117.719 E2.92647
G1 X176.823 Y117.719 E3.07803
G1 X177.612 Y117.759 E3.10431
G1 X178.392 Y117.878 E3.13055
G1 X179.157 Y118.076 E3.15684
G1 X179.897 Y118.35 E3.18308
G1 X180.606 Y118.698 E3.20935
G1 X181.277 Y119.116 E3.23564
G1 X181.901 Y119.599 E3.26189
G1 X182.474 Y120.142 E3.28814
G1 X182.847 Y120.565 E3.3069
G1 X182.972 Y120.717 E3.31345
G1 X183.443 Y121.351 E3.33972
G1 X183.846 Y122.03 E3.36598
G1 X184.179 Y122.746 E3.39224
G1 X184.438 Y123.492 E3.41851
G1 X184.619 Y124.261 E3.44478
G1 X184.723 Y125.044 E3.47105
G1 X184.746 Y125.833 E3.49731
G1 X184.69 Y126.621 E3.52358
G1 X184.585 Y127.257 E3.54502
G1 X182.52 Y137.2 E3.88279
G1 X187.622 Y137.2 E4.05248
G1 X188.054 Y137.212 E4.06685
G1 X188.505 Y137.237 E4.08188
G1 X189.087 Y137.291 E4.10132
G1 X189.514 Y137.347 E4.11564
G1 X190.267 Y137.484 E4.1411
G1 X190.654 Y137.574 E4.15431
G1 X191.305 Y137.755 E4.17679
G1 X191.808 Y137.919 E4.19438
G1 X192.424 Y138.149 E4.21625
G1 X192.803 Y138.309 E4.22993
G1 X193.505 Y138.648 E4.25586
G1 X193.866 Y138.845 E4.26954
G1 X194.416 Y139.175 E4.29087
G1 X194.901 Y139.494 E4.31018
G1 X195.421 Y139.868 E4.33149
G1 X195.692 Y140.08 E4.34293
G1 X196.33 Y140.637 E4.3711
G1 X196.643 Y140.942 E4.38563
G1 X196.791 Y141.086 E4.3925
G1 X197.106 Y141.428 E4.40797
G1 X197.397 Y141.763 E4.42273
G1 X197.762 Y142.217 E4.4421
G1 X198.034 Y142.582 E4.45724
G1 X198.549 Y143.367 E4.48847
G1 X198.75 Y143.718 E4.50192
G1 X199.004 Y144.201 E4.52007
G1 X199.248 Y144.706 E4.53873
G1 X199.5 Y145.285 E4.55973
G1 X199.623 Y145.603 E4.57107
G1 X199.871 Y146.359 E4.59753
G1 X200.013 Y146.878 E4.61543
G1 X200.143 Y147.427 E4.63419
G1 X200.198 Y147.706 E4.64365
G1 X200.318 Y148.565 E4.6725
G1 X200.371 Y149.199 E4.69366
G1 X200.398 Y149.849 E4.7153
G1 X200.398 Y150.192 E4.72671
G1 X200.362 Y150.937 E4.75151
G1 X200.319 Y151.385 E4.76648
G1 X200.252 Y151.902 E4.78382
G1 X200.171 Y152.396 E4.80047
G1 X199.96 Y153.325 E4.83216
G1 X199.835 Y153.752 E4.84695
G1 X199.666 Y154.262 E4.86482
G1 X199.525 Y154.644 E4.87837
G1 X199.196 Y155.408 E4.90603
G1 X198.961 Y155.882 E4.92363
G1 X198.708 Y156.351 E4.94136
G1 X198.51 Y156.69 E4.95441
G1 X198.108 Y157.309 E4.97896
G1 X197.819 Y157.711 E4.99543
G1 X197.313 Y158.343 E5.02236
G1 X197.103 Y158.579 E5.03286
G1 X196.636 Y159.061 E5.05518
G1 X196.304 Y159.375 E5.07038
G1 X195.978 Y159.671 E5.08503
G1 X195.55 Y160.028 E5.10357
G1 X195.327 Y160.201 E5.11295
G1 X194.91 Y160.503 E5.13008
G1 X194.513 Y160.771 E5.14601
G1 X193.849 Y161.172 E5.17181
G1 X193.515 Y161.352 E5.18443
G1 X192.855 Y161.669 E5.20878
G1 X192.373 Y161.873 E5.22619
G1 X191.72 Y162.116 E5.24936
G1 X191.272 Y162.26 E5.26501
G1 X190.706 Y162.418 E5.28456
G1 X190.327 Y162.509 E5.29752
G1 X189.49 Y162.663 E5.32583
G1 X189.081 Y162.715 E5.33954
G1 X188.442 Y162.769 E5.36087
G1 X187.922 Y162.792 E5.37818
G1 X187.578 Y162.8 E5.38963
G1 X182.525 Y162.801 E5.55769
G1 X184.579 Y172.76 E5.8959
G1 X184.699 Y173.541 E5.92218
G1 X184.74 Y174.329 E5.94843
G1 X184.701 Y175.118 E5.9747
G1 X184.582 Y175.899 E6.00098
G1 X184.385 Y176.663 E6.02722
G1 X184.111 Y177.404 E6.0535
G1 X183.764 Y178.114 E6.07978
G1 X183.347 Y178.784 E6.10603
G1 X182.949 Y179.309 E6.12794
G1 X182.829 Y179.454 E6.1342
G1 X182.295 Y180.036 E6.16047
G1 X181.706 Y180.561 E6.18671
G1 X181.066 Y181.024 E6.21299
G1 X180.383 Y181.42 E6.23924
G1 X179.663 Y181.745 E6.26552
G1 X178.914 Y181.995 E6.29178
G1 X178.143 Y182.168 E6.31806
G1 X177.359 Y182.262 E6.34433
G1 X176.82 Y182.281 E6.36226
G1 X172.474 Y182.281 E6.50681
G1 X171.685 Y182.241 E6.53309
G1 X170.905 Y182.122 E6.55933
G1 X170.14 Y181.924 E6.58561
G1 X169.4 Y181.65 E6.61186
G1 X168.691 Y181.302 E6.63813
G1 X168.108 Y180.939 E6.66097
G1 X168.01 Y180.876 E6.66485
G1 X167.784 Y180.725 E6.67389
G1 X167.151 Y180.252 E6.70017
G1 X166.569 Y179.718 E6.72644
G1 X166.045 Y179.128 E6.75268
G1 X165.582 Y178.488 E6.77896
G1 X165.187 Y177.804 E6.80523
G1 X164.863 Y177.084 E6.83149
G1 X164.614 Y176.335 E6.85774
G1 X164.497 Y175.855 E6.87417
G1 X164.016 Y173.573 E6.95174
G1 X163.761 Y172.333 E6.99385
G1 X163.641 Y171.553 E7.02009
G1 X163.601 Y170.764 E7.04637
G1 X163.609 Y170.613 E7.0514
G1 X162.347 Y164.546 E7.25751
G1 X162.224 Y164.29 E7.26695
G1 X162.015 Y163.715 E7.2873
G1 X161.647 Y163.743 E7.29958
G1 X160.858 Y163.722 E7.32583
G1 X160.075 Y163.622 E7.35208
G1 X159.443 Y163.474 E7.37367
G1 X158.933 Y163.559 E7.39087
G1 X157.822 Y163.608 E7.42786
G1 X157.422 Y163.596 E7.44117
G1 X156.996 Y163.591 E7.45534
G1 X156.211 Y163.502 E7.48161
G1 X155.44 Y163.334 E7.50786
G1 X155.115 Y163.228 E7.51923
G1 X136.035 Y163.227 E8.15383
G1 X135.325 Y163.431 E8.1784
G1 X134.791 Y163.536 E8.1965
G1 X134.679 Y163.554 E8.20028
G1 X133.894 Y163.64 E8.22654
G1 X133.104 Y163.646 E8.25282
G1 X132.37 Y163.579 E8.27733
G1 X132.094 Y163.541 E8.2866
G1 X134.406 Y171.82 E8.57249
G1 X134.579 Y172.591 E8.59878
G1 X134.674 Y173.375 E8.62504
G1 X134.689 Y174.164 E8.65129
G1 X134.624 Y174.951 E8.67755
G1 X134.48 Y175.728 E8.70384
G1 X134.258 Y176.485 E8.73008
G1 X133.961 Y177.217 E8.75635
G1 X133.591 Y177.915 E8.78263
G1 X133.11 Y178.629 E8.81126
G1 X132.988 Y178.79 E8.81798
G1 X132.48 Y179.394 E8.84423
G1 X131.913 Y179.944 E8.8705
G1 X131.293 Y180.434 E8.89679
G1 X130.628 Y180.859 E8.92303
G1 X129.922 Y181.214 E8.94932
G1 X129.185 Y181.496 E8.97556
G1 X128.423 Y181.702 E9.00182
G1 X127.643 Y181.83 E9.02811
G1 X126.771 Y181.879 E9.05716
G1 X121.607 Y181.879 E9.22891
G1 X120.818 Y181.839 E9.25519
G1 X120.038 Y181.72 E9.28143
G1 X119.273 Y181.522 E9.30771
G1 X118.533 Y181.248 E9.33396
G1 X117.824 Y180.9 E9.36023
G1 X116.899 Y180.298 E9.39693
G1 X116.792 Y180.217 E9.4014
G1 X116.187 Y179.709 E9.42767
G1 X115.637 Y179.143 E9.45392
G1 X115.147 Y178.524 E9.48018
G1 X114.722 Y177.858 E9.50646
G1 X114.367 Y177.153 E9.53271
G1 X113.989 Y176.101 E9.56989
G1 X113.739 Y175.207 E9.60077
G1 X113.686 Y175.118 E9.60421
G1 X113.355 Y174.401 E9.63048
G1 X113.083 Y173.6 E9.65861
G1 X111.714 Y168.721 E9.82716
G1 X110.56 Y164.584 E9.97001
G1 X110.548 Y164.557 E9.97099
G1 X110.299 Y163.807 E9.99727
G1 X110.209 Y163.566 E10.00583
G1 X109.901 Y163.551 E10.01609
G1 X109.652 Y163.513 E10.02446
G1 X109.618 Y163.512 E10.02559
G1 X108.831 Y163.441 E10.05188
G1 X108.056 Y163.29 E10.07814
G1 X107.3 Y163.062 E10.1044
G1 X106.672 Y162.801 E10.12702
G1 X106.196 Y162.614 E10.14403
G1 X105.704 Y162.369 E10.16231
G1 X105.399 Y162.204 E10.17384
G1 X104.724 Y161.794 E10.20011
G1 X104.094 Y161.317 E10.22639
G1 X103.516 Y160.78 E10.25264
G1 X102.995 Y160.186 E10.27891
G1 X102.537 Y159.543 E10.30517
G1 X102.146 Y158.857 E10.33143
G1 X101.856 Y158.211 E10.35499
G1 X101.561 Y157.322 E10.38614
G1 X101.488 Y157.048 E10.39557
G1 X101.324 Y156.276 E10.42182
G1 X101.238 Y155.491 E10.44809
G1 X101.225 Y155.04 E10.46309
G1 X101.225 Y144.975 E10.79786
G1 X101.265 Y144.186 E10.82413
G1 X101.435 Y143.177 E10.85816
G1 X101.507 Y142.873 E10.86855
G1 X101.728 Y142.115 E10.89482
G1 X102.024 Y141.383 E10.92108
G1 X102.223 Y140.985 E10.93588
G1 X102.629 Y140.308 E10.96213
G1 X103.102 Y139.676 E10.98839
G1 X103.636 Y139.094 E11.01466
G1 X104.227 Y138.57 E11.04093
G1 X104.867 Y138.108 E11.06718
G1 X105.25 Y137.884 E11.08194
G1 X105.434 Y137.758 E11.08936
G1 X106.126 Y137.378 E11.11562
G1 X106.853 Y137.07 E11.14188
G1 X107.608 Y136.837 E11.16816
G1 X108.178 Y136.723 E11.18749
G1 X108.335 Y136.672 E11.19298
G1 X109.107 Y136.505 E11.21925
G1 X109.892 Y136.418 E11.24552
G1 X110.223 Y136.408 E11.25653
G1 X110.304 Y136.195 E11.26411
G1 X110.495 Y135.578 E11.2856
G1 X110.561 Y135.432 E11.29093
G1 X113.175 Y126.064 E11.61441
G1 X113.425 Y125.315 E11.64067
G1 X113.75 Y124.595 E11.66695
G1 X113.834 Y124.451 E11.67249
G1 X113.987 Y123.902 E11.69145
G1 X114.238 Y123.153 E11.71772
G1 X114.563 Y122.434 E11.74396
G1 X114.959 Y121.751 E11.77022
G1 X115.423 Y121.111 E11.79651
G1 X115.948 Y120.522 E11.82276
G0 F6000 X116.304 Y120.732
G1 F1200 X117.033 Y120.102 E11.8548
G1 X117.14 Y120.021 E11.85927
G1 X117.776 Y119.589 E11.88484
G1 X118.454 Y119.226 E11.91042
G1 X119.166 Y118.935 E11.936
G1 X119.904 Y118.719 E11.96158
G1 X120.661 Y118.582 E11.98716
G1 X121.606 Y118.521 E12.01866
G1 X126.765 Y118.521 E12.19025
G1 X127.533 Y118.561 E12.21583
G1 X128.293 Y118.68 E12.24141
G1 X129.036 Y118.878 E12.26699
G1 X129.755 Y119.152 E12.29258
G1 X130.441 Y119.499 E12.31815
G1 X131.088 Y119.915 E12.34373
G1 X131.688 Y120.396 E12.36931
G1 X132.235 Y120.937 E12.3949
G1 X132.622 Y121.398 E12.41492
G1 X132.744 Y121.556 E12.42156
G1 X133.182 Y122.189 E12.44716
G1 X133.552 Y122.863 E12.47273
G1 X133.85 Y123.572 E12.49831
G1 X134.072 Y124.309 E12.52391
G1 X134.217 Y125.064 E12.54948
G1 X134.283 Y125.83 E12.57505
G1 X134.269 Y126.599 E12.60064
G1 X134.175 Y127.363 E12.62624
G1 X134.017 Y128.059 E12.64998
G1 X132.05 Y135.143 E12.8945
G1 X131.561 Y136.888 E12.95478
G1 X132.034 Y136.836 E12.97061
G1 X132.441 Y136.807 E12.98418
G1 X133.225 Y136.792 E13.01026
G1 X133.57 Y136.804 E13.02174
G1 X133.908 Y136.804 E13.03298
G1 X134.673 Y136.884 E13.05856
G1 X135.426 Y137.043 E13.08416
G1 X135.826 Y137.172 E13.09814
G1 X155.076 Y137.173 E13.7384
G1 X155.524 Y137.026 E13.75408
G1 X156.182 Y136.88 E13.7765
G1 X156.342 Y136.852 E13.7819
G1 X157.106 Y136.759 E13.8075
G1 X157.875 Y136.745 E13.83308
G1 X158.699 Y136.82 E13.8606
G1 X159.011 Y136.866 E13.87109
G1 X159.288 Y136.787 E13.88067
G1 X160.046 Y136.653 E13.90627
G1 X160.813 Y136.599 E13.93184
G1 X161.582 Y136.625 E13.95744
G1 X162.319 Y136.732 E13.98221
G1 X162.401 Y136.444 E13.99217
G1 X162.672 Y135.724 E14.01775
G1 X162.722 Y135.618 E14.02165
G1 X163.972 Y129.6 E14.22608
G1 X163.967 Y129.52 E14.22875
G1 X163.997 Y128.751 E14.25435
G1 X164.118 Y127.93 E14.28195
G1 X164.418 Y126.473 E14.33142
G1 X164.912 Y124.099 E14.41207
G1 X165.108 Y123.356 E14.43763
G1 X165.38 Y122.636 E14.46323
G1 X165.725 Y121.949 E14.4888
G1 X166.139 Y121.301 E14.51438
G1 X166.619 Y120.699 E14.53998
G1 X167.158 Y120.151 E14.56555
G1 X167.509 Y119.849 E14.58095
G1 X167.618 Y119.761 E14.58561
G1 X168.24 Y119.31 E14.61116
G1 X168.907 Y118.926 E14.63676
G1 X169.609 Y118.612 E14.66234
G1 X170.34 Y118.374 E14.68791
G1 X171.092 Y118.213 E14.71349
G1 X171.857 Y118.13 E14.73908
G1 X172.266 Y118.119 E14.75269
G1 X176.823 Y118.119 E14.90426
G1 X177.591 Y118.159 E14.92983
G1 X178.351 Y118.278 E14.95542
G1 X179.094 Y118.476 E14.98099
G1 X179.813 Y118.75 E15.00659
G1 X180.499 Y119.097 E15.03216
G1 X181.146 Y119.513 E15.05774
G1 X181.746 Y119.994 E15.08332
G1 X182.539 Y120.819 E15.12138
G1 X182.664 Y120.971 E15.12792
G1 X183.121 Y121.589 E15.15349
G1 X183.511 Y122.252 E15.17907
G1 X183.83 Y122.952 E15.20466
G1 X184.075 Y123.681 E15.23024
G1 X184.243 Y124.431 E15.2558
G1 X184.333 Y125.195 E15.28138
G1 X184.342 Y125.965 E15.307
G1 X184.272 Y126.73 E15.33255
G1 X184.193 Y127.175 E15.34758
G1 X182.028 Y137.6 E15.70171
G1 X187.622 Y137.6 E15.88777
G1 X188.032 Y137.611 E15.90141
G1 X188.483 Y137.636 E15.91644
G1 X189.035 Y137.688 E15.93488
G1 X189.462 Y137.744 E15.9492
G1 X190.176 Y137.873 E15.97333
G1 X190.563 Y137.963 E15.98655
G1 X191.181 Y138.136 E16.00789
G1 X191.684 Y138.3 E16.02549
G1 X192.268 Y138.518 E16.04622
G1 X192.647 Y138.678 E16.05991
G1 X193.314 Y138.999 E16.08453
G1 X193.675 Y139.196 E16.0982
G1 X194.196 Y139.509 E16.11842
G1 X194.681 Y139.828 E16.13773
G1 X195.175 Y140.183 E16.15796
G1 X195.446 Y140.395 E16.1694
G1 X196.05 Y140.923 E16.19609
G1 X196.363 Y141.228 E16.21062
G1 X196.519 Y141.381 E16.21789
G1 X196.804 Y141.69 E16.23187
G1 X197.095 Y142.025 E16.24663
G1 X197.442 Y142.456 E16.26503
G1 X197.714 Y142.821 E16.28017
G1 X198.202 Y143.566 E16.3098
G1 X198.403 Y143.917 E16.32325
G1 X198.644 Y144.375 E16.34046
G1 X198.888 Y144.88 E16.35912
G1 X199.127 Y145.429 E16.37903
G1 X199.25 Y145.747 E16.39037
G1 X199.486 Y146.464 E16.41548
G1 X199.628 Y146.983 E16.43337
G1 X199.75 Y147.505 E16.4512
G1 X199.805 Y147.784 E16.46066
G1 X199.919 Y148.599 E16.48803
G1 X199.972 Y149.233 E16.50919
G1 X199.998 Y149.849 E16.5297
G1 X199.998 Y150.192 E16.54111
G1 X199.964 Y150.899 E16.56465
G1 X199.921 Y151.347 E16.57962
G1 X199.857 Y151.837 E16.59606
G1 X199.776 Y152.331 E16.6127
G1 X199.576 Y153.213 E16.64279
G1 X199.451 Y153.64 E16.65758
G1 X199.291 Y154.123 E16.67451
G1 X199.15 Y154.505 E16.68805
G1 X198.838 Y155.23 E16.7143
G1 X198.603 Y155.704 E16.7319
G1 X198.363 Y156.149 E16.74871
G1 X198.165 Y156.488 E16.76177
G1 X197.783 Y157.076 E16.78509
G1 X197.494 Y157.478 E16.80156
G1 X197.014 Y158.077 E16.82709
G1 X196.804 Y158.313 E16.8376
G1 X196.361 Y158.77 E16.85877
G1 X196.029 Y159.084 E16.87397
G1 X195.711 Y159.373 E16.88826
G1 X195.305 Y159.712 E16.90585
G1 X195.082 Y159.885 E16.91524
G1 X194.686 Y160.171 E16.93148
G1 X194.289 Y160.439 E16.94742
G1 X193.66 Y160.82 E16.97187
G1 X193.326 Y161 E16.98449
G1 X192.699 Y161.301 E17.00763
G1 X192.217 Y161.505 E17.02503
G1 X191.597 Y161.735 E17.04703
G1 X191.149 Y161.879 E17.06268
G1 X190.613 Y162.029 E17.08119
G1 X190.234 Y162.12 E17.09416
