;FLAVOR:Marlin
;TIME:16358
;Filament used: 10.0322m
;Layer height: 0.2
;MINX:130.2
;MINY:121.647
;MINZ:0.2
;MAXX:169.8
;MAXY:177.109
;MAXZ:81
;Generated with Cura_SteamEngine 4.9.0
M140 S50
M105
M190 S50
M104 S200
M105
M109 S200
M82 ;absolute extrusion mode
M201 X500.00 Y500.00 Z100.00 E5000.00 ;Setup machine max acceleration
M203 X500.00 Y500.00 Z10.00 E50.00 ;Setup machine max feedrate
M204 P500.00 R1000.00 T500.00 ;Setup Print/Retract/Travel acceleration
M205 X8.00 Y8.00 Z0.40 E5.00 ;Setup Jerk
M220 S100 ;Reset Feedrate
M221 S100 ;Reset Flowrate

G28 ;Home

G92 E0 ;Reset Extruder
G1 Z2.0 F3000 ;Move Z Axis up
G1 X10.1 Y20 Z0.28 F5000.0 ;Move to start position
G1 X10.1 Y200.0 Z0.28 F1500.0 E15 ;Draw the first line
G1 X10.4 Y200.0 Z0.28 F5000.0 ;Move to side a little
G1 X10.4 Y20 Z0.28 F1500.0 E30 ;Draw the second line
G92 E0 ;Reset Extruder
G1 Z2.0 F3000 ;Move Z Axis up

G92 E0
G92 E0
G1 F2700 E-5
;LAYER_COUNT:405
;LAYER:0
M107
G0 F6000 X132.646 Y132.97 Z0.2
;TYPE:SKIRT
G1 F2700 E0
G1 F1200 X132.993 Y132.624 E0.0163
G1 X133.261 Y132.372 E0.02853
G1 X133.863 Y131.86 E0.05482
G1 X134.595 Y131.363 E0.08425
G1 X134.837 Y131.218 E0.09363
G1 X135.545 Y130.842 E0.12029
G1 X153.647 Y122.388 E0.78479
G1 X154.379 Y122.09 E0.81108
G1 X155.137 Y121.868 E0.83735
G1 X155.913 Y121.724 E0.8636
G1 X156.385 Y121.675 E0.87938
G1 X156.537 Y121.664 E0.88445
G1 X157.326 Y121.647 E0.9107
G1 X158.114 Y121.71 E0.93699
G1 X158.89 Y121.852 E0.96323
G1 X159.649 Y122.072 E0.98951
G1 X160.381 Y122.368 E1.01577
G1 X161.08 Y122.736 E1.04205
G1 X161.313 Y122.891 E1.05136
G1 X161.883 Y122.891 E1.07031
G1 X162.672 Y122.931 E1.09659
G1 X163.452 Y123.05 E1.12283
G1 X164.217 Y123.248 E1.14912
G1 X164.957 Y123.522 E1.17536
G1 X165.666 Y123.87 E1.20163
G1 X166.337 Y124.288 E1.22792
G1 X166.961 Y124.771 E1.25417
G1 X167.398 Y125.176 E1.27399
G1 X167.515 Y125.293 E1.27949
G1 X168.045 Y125.879 E1.30577
G1 X168.512 Y126.515 E1.33201
G1 X168.913 Y127.195 E1.35827
G1 X169.243 Y127.913 E1.38455
G1 X169.498 Y128.66 E1.4108
G1 X169.677 Y129.429 E1.43706
G1 X169.777 Y130.213 E1.46335
G1 X169.8 Y130.808 E1.48316
G1 X169.8 Y140.592 E1.80857
G1 X169.76 Y141.381 E1.83485
G1 X169.732 Y141.567 E1.84111
G1 X169.777 Y141.922 E1.85301
G1 X169.8 Y142.517 E1.87281
G1 X169.8 Y149.883 E2.11781
G1 X169.76 Y150.672 E2.14408
G1 X169.733 Y150.851 E2.1501
G1 X169.79 Y151.406 E2.16866
G1 X169.8 Y151.808 E2.18203
G1 X169.8 Y169.192 E2.76023
G1 X169.76 Y169.981 E2.7865
G1 X169.641 Y170.761 E2.81275
G1 X169.443 Y171.526 E2.83903
G1 X169.169 Y172.266 E2.86528
G1 X168.821 Y172.975 E2.89154
G1 X168.403 Y173.646 E2.91784
G1 X167.92 Y174.27 E2.94408
G1 X167.515 Y174.707 E2.9639
G1 X167.398 Y174.824 E2.9694
G1 X166.812 Y175.354 E2.99568
G1 X166.176 Y175.821 E3.02193
G1 X165.496 Y176.222 E3.04818
G1 X164.778 Y176.552 E3.07447
G1 X164.031 Y176.807 E3.10072
G1 X163.262 Y176.986 E3.12698
G1 X162.478 Y177.086 E3.15327
G1 X161.883 Y177.109 E3.17307
G1 X157.117 Y177.109 E3.33159
G1 X156.328 Y177.069 E3.35787
G1 X155.548 Y176.95 E3.38411
G1 X154.783 Y176.752 E3.41039
G1 X154.043 Y176.478 E3.43664
G1 X153.334 Y176.13 E3.46291
G1 X152.663 Y175.712 E3.4892
G1 X152.039 Y175.229 E3.51544
G1 X151.602 Y174.824 E3.53526
G1 X151.485 Y174.707 E3.54076
G1 X150.955 Y174.121 E3.56704
G1 X150.488 Y173.485 E3.59329
G1 X150.087 Y172.805 E3.61954
G1 X149.757 Y172.087 E3.64583
G1 X149.502 Y171.34 E3.67208
G1 X149.323 Y170.571 E3.69834
G1 X149.223 Y169.787 E3.72463
G1 X149.2 Y169.192 E3.74443
G1 X149.2 Y163.965 E3.91828
G1 X144.203 Y161.633 E4.10169
G1 X142.475 Y160.801 E4.16548
G1 X142.056 Y160.63 E4.18053
G1 X137.261 Y158.396 E4.35647
G1 X136.563 Y158.027 E4.38273
G1 X135.906 Y157.589 E4.409
G1 X135.684 Y157.406 E4.41857
G1 X135.043 Y157.169 E4.4413
G1 X134.334 Y156.821 E4.46756
G1 X133.663 Y156.403 E4.49386
G1 X133.039 Y155.92 E4.5201
G1 X132.602 Y155.515 E4.53992
G1 X132.485 Y155.398 E4.54542
G1 X131.955 Y154.812 E4.5717
G1 X131.488 Y154.176 E4.59795
G1 X131.087 Y153.496 E4.6242
G1 X130.757 Y152.778 E4.65049
G1 X130.502 Y152.031 E4.67674
G1 X130.323 Y151.262 E4.703
G1 X130.223 Y150.478 E4.72929
G1 X130.2 Y149.883 E4.74909
G1 X130.2 Y142.517 E4.99409
G1 X130.221 Y142.107 E5.00774
G1 X130.21 Y142.002 E5.01125
G1 X130.2 Y141.593 E5.02486
G1 X130.202 Y139.248 E5.10285
G1 X130.259 Y138.312 E5.13404
G1 X130.297 Y138 E5.1445
G1 X130.432 Y137.222 E5.17076
G1 X130.64 Y136.476 E5.19652
G1 X130.753 Y136.137 E5.2084
G1 X131.041 Y135.402 E5.23466
G1 X131.506 Y134.522 E5.26776
G1 X131.689 Y134.224 E5.27939
G1 X132.136 Y133.573 E5.30566
G1 X132.646 Y132.97 E5.33193
G0 F6000 X132.966 Y133.215
G1 F1200 X133.267 Y132.915 E5.34606
G1 X133.535 Y132.663 E5.3583
G1 X134.122 Y132.166 E5.38388
G1 X134.801 Y131.706 E5.41116
G1 X135.043 Y131.561 E5.42054
G1 X135.715 Y131.204 E5.44585
G1 X153.817 Y122.75 E6.11035
G1 X154.53 Y122.461 E6.13594
G1 X155.269 Y122.248 E6.16152
G1 X156.026 Y122.113 E6.18709
G1 X156.414 Y122.074 E6.20006
G1 X156.566 Y122.063 E6.20513
G1 X157.335 Y122.048 E6.23071
G1 X158.101 Y122.112 E6.25628
G1 X158.857 Y122.256 E6.28187
G1 X159.594 Y122.477 E6.30747
G1 X160.303 Y122.773 E6.33302
G1 X160.978 Y123.142 E6.35861
G1 X161.195 Y123.291 E6.36736
G1 X161.883 Y123.291 E6.39024
G1 X162.651 Y123.331 E6.41582
G1 X163.411 Y123.45 E6.44141
G1 X164.154 Y123.648 E6.46698
G1 X164.873 Y123.922 E6.49257
G1 X165.559 Y124.269 E6.51814
G1 X166.206 Y124.685 E6.54373
G1 X166.806 Y125.166 E6.5693
G1 X167.116 Y125.458 E6.58347
G1 X167.233 Y125.575 E6.58897
G1 X167.747 Y126.147 E6.61455
G1 X168.2 Y126.769 E6.64014
G1 X168.586 Y127.434 E6.66572
G1 X168.901 Y128.136 E6.69131
G1 X169.141 Y128.867 E6.7169
G1 X169.304 Y129.618 E6.74246
G1 X169.388 Y130.383 E6.76805
G1 X169.4 Y130.808 E6.7822
G1 X169.4 Y140.592 E7.10761
G1 X169.36 Y141.36 E7.13319
G1 X169.329 Y141.557 E7.13982
G1 X169.388 Y142.092 E7.15773
G1 X169.4 Y142.517 E7.17187
G1 X169.4 Y149.883 E7.41686
G1 X169.36 Y150.651 E7.44244
G1 X169.351 Y150.959 E7.45269
G1 X169.4 Y151.808 E7.48097
G1 X169.4 Y169.192 E8.05917
G1 X169.36 Y169.96 E8.08475
G1 X169.241 Y170.72 E8.11033
G1 X169.043 Y171.463 E8.13591
G1 X168.769 Y172.182 E8.1615
G1 X168.422 Y172.868 E8.18707
G1 X168.006 Y173.515 E8.21265
G1 X167.525 Y174.115 E8.23823
G1 X167.233 Y174.425 E8.25239
G1 X167.116 Y174.542 E8.2579
G1 X166.544 Y175.056 E8.28347
G1 X165.922 Y175.509 E8.30907
G1 X165.257 Y175.895 E8.33464
G1 X164.555 Y176.21 E8.36023
G1 X163.824 Y176.45 E8.38582
G1 X163.073 Y176.613 E8.41138
G1 X162.308 Y176.697 E8.43698
G1 X161.883 Y176.709 E8.45112
G1 X157.117 Y176.709 E8.60964
G1 X156.349 Y176.669 E8.63522
G1 X155.589 Y176.55 E8.6608
G1 X154.846 Y176.352 E8.68638
G1 X154.127 Y176.078 E8.71197
G1 X153.441 Y175.731 E8.73754
G1 X152.794 Y175.315 E8.76312
G1 X152.194 Y174.834 E8.7887
G1 X151.884 Y174.542 E8.80286
G1 X151.767 Y174.425 E8.80837
G1 X151.253 Y173.853 E8.83394
G1 X150.8 Y173.231 E8.85954
G1 X150.414 Y172.566 E8.88511
G1 X150.099 Y171.864 E8.9107
G1 X149.859 Y171.133 E8.93629
G1 X149.696 Y170.382 E8.96185
G1 X149.612 Y169.617 E8.98745
G1 X149.6 Y169.192 E9.00159
G1 X149.6 Y163.71 E9.18392
G1 X144.376 Y161.272 E9.37566
G1 X142.661 Y160.447 E9.43896
G1 X142.225 Y160.268 E9.45464
G1 X137.43 Y158.034 E9.63058
G1 X136.75 Y157.673 E9.65618
G1 X136.112 Y157.244 E9.68176
G1 X135.883 Y157.053 E9.69167
G1 X135.846 Y157.043 E9.69295
G1 X135.127 Y156.769 E9.71854
G1 X134.441 Y156.422 E9.74411
G1 X133.794 Y156.006 E9.76969
G1 X133.194 Y155.525 E9.79527
G1 X132.884 Y155.233 E9.80943
G1 X132.767 Y155.116 E9.81494
G1 X132.253 Y154.544 E9.84052
G1 X131.8 Y153.922 E9.86611
G1 X131.414 Y153.257 E9.89168
G1 X131.099 Y152.555 E9.91727
G1 X130.859 Y151.824 E9.94286
G1 X130.696 Y151.073 E9.96842
G1 X130.612 Y150.308 E9.99402
G1 X130.6 Y149.883 E10.00816
G1 X130.6 Y142.517 E10.25316
G1 X130.625 Y142.033 E10.26928
G1 X130.6 Y141.594 E10.2839
G1 X130.602 Y139.249 E10.3619
G1 X130.656 Y138.36 E10.39152
G1 X130.694 Y138.048 E10.40197
G1 X130.827 Y137.291 E10.42754
G1 X131.02 Y136.603 E10.4513
G1 X131.133 Y136.264 E10.46319
G1 X131.414 Y135.548 E10.48877
G1 X131.847 Y134.732 E10.51949
G1 X132.03 Y134.434 E10.53113
G1 X132.466 Y133.8 E10.55672
G1 X132.966 Y133.215 E10.58231
G0 F6000 X133.541 Y133.206
G1 F1200 X133.809 Y132.954 E10.59455
G1 X134.38 Y132.472 E10.6194
G1 X135.006 Y132.049 E10.64453
G1 X135.248 Y131.904 E10.65391
G1 X135.884 Y131.567 E10.67785
G1 X153.986 Y123.113 E11.34235
G1 X154.68 Y122.833 E11.36724
G1 X155.399 Y122.628 E11.39211
G1 X156.443 Y122.473 E11.42721
G1 X156.595 Y122.462 E11.43228
G1 X157.343 Y122.448 E11.45716
G1 X158.088 Y122.514 E11.48204
G1 X158.822 Y122.659 E11.50692
G1 X159.536 Y122.882 E11.5318
G1 X160.222 Y123.179 E11.55667
G1 X160.873 Y123.548 E11.58156
G1 X161.072 Y123.691 E11.58971
G1 X161.883 Y123.691 E11.61668
G1 X162.63 Y123.731 E11.64156
G1 X163.368 Y123.85 E11.66642
G1 X164.09 Y124.048 E11.69132
G1 X164.786 Y124.321 E11.71619
G1 X165.449 Y124.668 E11.74108
G1 X166.072 Y125.083 E11.76598
G1 X166.833 Y125.741 E11.79944
G1 X166.95 Y125.858 E11.80494
G1 X167.45 Y126.415 E11.82984
G1 X167.887 Y127.021 E11.85469
G1 X168.258 Y127.671 E11.87958
G1 X168.557 Y128.357 E11.90447
G1 X168.781 Y129.071 E11.92936
G1 X168.928 Y129.804 E11.95422
G1 X169 Y130.808 E11.9877
G1 X169 Y140.592 E12.31312
G1 X168.96 Y141.339 E12.338
G1 X168.929 Y141.53 E12.34443
G1 X169 Y142.517 E12.37735
G1 X169 Y149.883 E12.62234
G1 X168.96 Y150.63 E12.64722
G1 X168.925 Y150.85 E12.65463
G1 X168.981 Y151.291 E12.66942
G1 X169 Y151.808 E12.68662
G1 X169 Y169.192 E13.26482
G1 X168.96 Y169.939 E13.2897
G1 X168.841 Y170.677 E13.31456
G1 X168.643 Y171.399 E13.33946
G1 X168.37 Y172.095 E13.36433
G1 X168.023 Y172.758 E13.38922
G1 X167.608 Y173.381 E13.41412
G1 X166.95 Y174.142 E13.44758
G1 X166.833 Y174.259 E13.45308
G1 X166.276 Y174.759 E13.47797
G1 X165.67 Y175.196 E13.50282
G1 X165.02 Y175.567 E13.52772
G1 X164.334 Y175.866 E13.55261
G1 X163.62 Y176.09 E13.5775
G1 X162.887 Y176.237 E13.60236
G1 X161.883 Y176.309 E13.63584
G1 X157.117 Y176.309 E13.79436
G1 X156.37 Y176.269 E13.81924
G1 X155.632 Y176.15 E13.8441
G1 X154.91 Y175.952 E13.869
G1 X154.214 Y175.679 E13.89387
G1 X153.551 Y175.332 E13.91876
G1 X152.928 Y174.917 E13.94365
G1 X152.167 Y174.259 E13.97712
G1 X152.05 Y174.142 E13.98262
G1 X151.55 Y173.585 E14.00751
G1 X151.113 Y172.979 E14.03236
G1 X150.742 Y172.329 E14.05726
G1 X150.443 Y171.643 E14.08215
G1 X150.219 Y170.929 E14.10703
G1 X150.072 Y170.196 E14.1319
G1 X150 Y169.192 E14.16538
G1 X150 Y163.456 E14.35616
G1 X144.55 Y160.912 E14.5562
G1 X142.834 Y160.086 E14.61954
G1 X142.394 Y159.905 E14.63537
G1 X137.599 Y157.671 E14.81131
G1 X136.939 Y157.319 E14.83619
G1 X136.32 Y156.899 E14.86107
G1 X136.07 Y156.687 E14.87197
G1 X135.91 Y156.643 E14.87749
G1 X135.214 Y156.37 E14.90236
G1 X134.551 Y156.023 E14.92725
G1 X133.928 Y155.608 E14.95214
G1 X133.167 Y154.95 E14.9856
G1 X133.05 Y154.833 E14.99111
G1 X132.55 Y154.276 E15.016
G1 X132.113 Y153.67 E15.04085
G1 X131.742 Y153.02 E15.06574
G1 X131.443 Y152.334 E15.09063
G1 X131.219 Y151.62 E15.11552
G1 X131.072 Y150.887 E15.14039
G1 X131 Y149.883 E15.17387
G1 X131 Y142.517 E15.41886
G1 X131.021 Y142.13 E15.43175
G1 X131.019 Y142.117 E15.43219
G1 X131 Y141.594 E15.4496
G1 X131.002 Y139.249 E15.52759
G1 X131.053 Y138.409 E15.55558
G1 X131.091 Y138.097 E15.56604
G1 X131.221 Y137.36 E15.59093
G1 X131.399 Y136.729 E15.61273
G1 X131.512 Y136.39 E15.62462
G1 X131.786 Y135.694 E15.6495
G1 X132.188 Y134.941 E15.67789
G1 X132.371 Y134.643 E15.68952
G1 X132.796 Y134.027 E15.71441
G1 X133.541 Y133.206 E15.75128
G0 F6000 X133.815 Y133.498
G1 F1200 X134.083 Y133.246 E15.76352
G1 X134.639 Y132.778 E15.78769
G1 X135.212 Y132.392 E15.81067
G1 X135.454 Y132.247 E15.82005
G1 X136.053 Y131.929 E15.84261
G1 X154.155 Y123.475 E16.50711
G1 X154.829 Y123.204 E16.53127
G1 X155.529 Y123.009 E16.55544
G1 X156.472 Y122.872 E16.58713
G1 X156.624 Y122.861 E16.5922
G1 X157.35 Y122.849 E16.61635
G1 X158.073 Y122.916 E16.6405
G1 X158.785 Y123.063 E16.66468
G1 X159.476 Y123.286 E16.68883
G1 X160.138 Y123.585 E16.71299
G1 X160.763 Y123.954 E16.73713
G1 X160.946 Y124.091 E16.74473
G1 X161.883 Y124.091 E16.7759
G1 X162.608 Y124.131 E16.80005
G1 X163.325 Y124.25 E16.82422
G1 X164.024 Y124.448 E16.84838
G1 X164.697 Y124.721 E16.87254
G1 X165.336 Y125.066 E16.89669
G1 X165.933 Y125.48 E16.92086
G1 X166.55 Y126.024 E16.94822
G1 X166.667 Y126.141 E16.95372
G1 X167.151 Y126.682 E16.97786
G1 X167.574 Y127.273 E17.00204
G1 X167.928 Y127.907 E17.02619
G1 X168.211 Y128.576 E17.05035
G1 X168.419 Y129.272 E17.07451
G1 X168.549 Y129.987 E17.09868
G1 X168.6 Y130.808 E17.12604
G1 X168.6 Y140.592 E17.45145
G1 X168.56 Y141.317 E17.4756
G1 X168.522 Y141.547 E17.48336
G1 X168.549 Y141.696 E17.48839
G1 X168.6 Y142.517 E17.51575
G1 X168.6 Y149.883 E17.76075
G1 X168.56 Y150.608 E17.7849
G1 X168.536 Y150.891 E17.79434
G1 X168.6 Y151.808 E17.82492
G1 X168.6 Y169.192 E18.40311
G1 X168.56 Y169.917 E18.42726
G1 X168.441 Y170.634 E18.45144
G1 X168.243 Y171.333 E18.4756
G1 X167.97 Y172.006 E18.49976
G1 X167.625 Y172.645 E18.52391
G1 X167.211 Y173.242 E18.54807
G1 X166.667 Y173.859 E18.57543
G1 X166.55 Y173.976 E18.58093
G1 X166.009 Y174.46 E18.60508
G1 X165.418 Y174.883 E18.62925
G1 X164.784 Y175.237 E18.6534
G1 X164.115 Y175.52 E18.67756
G1 X163.419 Y175.728 E18.70172
G1 X162.704 Y175.858 E18.72589
G1 X161.883 Y175.909 E18.75325
G1 X157.117 Y175.909 E18.91177
G1 X156.392 Y175.869 E18.93592
G1 X155.675 Y175.75 E18.9601
G1 X154.976 Y175.552 E18.98426
G1 X154.303 Y175.279 E19.00841
G1 X153.664 Y174.934 E19.03257
G1 X153.067 Y174.52 E19.05673
G1 X152.45 Y173.976 E19.08409
G1 X152.333 Y173.859 E19.08959
G1 X151.849 Y173.318 E19.11374
G1 X151.426 Y172.727 E19.13791
G1 X151.072 Y172.093 E19.16206
G1 X150.789 Y171.424 E19.18622
G1 X150.581 Y170.728 E19.21038
G1 X150.451 Y170.013 E19.23455
G1 X150.4 Y169.192 E19.26191
G1 X150.4 Y163.2 E19.46121
G1 X144.723 Y160.551 E19.66957
G1 X143.014 Y159.729 E19.73264
G1 X142.563 Y159.543 E19.74887
G1 X137.768 Y157.309 E19.92481
G1 X137.127 Y156.966 E19.94899
G1 X136.528 Y156.555 E19.97315
G1 X136.259 Y156.323 E19.98497
G1 X135.976 Y156.243 E19.99475
G1 X135.303 Y155.97 E20.01891
G1 X134.664 Y155.625 E20.04306
G1 X134.067 Y155.211 E20.06722
G1 X133.45 Y154.667 E20.09458
G1 X133.333 Y154.55 E20.10008
G1 X132.849 Y154.009 E20.12423
G1 X132.426 Y153.418 E20.1484
G1 X132.072 Y152.784 E20.17255
G1 X131.789 Y152.115 E20.19671
G1 X131.581 Y151.419 E20.22087
G1 X131.451 Y150.704 E20.24504
G1 X131.4 Y149.883 E20.2724
G1 X131.4 Y142.517 E20.5174
G1 X131.428 Y142.003 E20.53452
G1 X131.4 Y141.594 E20.54815
G1 X131.402 Y139.249 E20.62615
G1 X131.45 Y138.457 E20.65254
G1 X131.488 Y138.145 E20.66299
G1 X131.616 Y137.43 E20.68715
G1 X131.779 Y136.856 E20.707
G1 X131.892 Y136.517 E20.71888
G1 X132.159 Y135.841 E20.74306
G1 X132.529 Y135.15 E20.76913
G1 X132.712 Y134.852 E20.78076
G1 X133.125 Y134.255 E20.8049
G1 X133.815 Y133.498 E20.83897
G0 F6000 X134.089 Y133.789
G1 F1200 X134.357 Y133.537 E20.85121
G1 X134.896 Y133.085 E20.8746
G1 X135.417 Y132.736 E20.89546
G1 X135.659 Y132.591 E20.90484
G1 X136.222 Y132.291 E20.92606
G1 X154.324 Y123.837 E21.59056
G1 X154.978 Y123.576 E21.61398
G1 X155.657 Y123.391 E21.63739
G1 X156.5 Y123.271 E21.66571
G1 X156.652 Y123.26 E21.67077
G1 X157.356 Y123.249 E21.69419
G1 X158.057 Y123.318 E21.71762
G1 X158.745 Y123.466 E21.74103
G1 X159.412 Y123.691 E21.76444
G1 X160.05 Y123.991 E21.78789
G1 X160.649 Y124.36 E21.81129
G1 X160.816 Y124.491 E21.81835
G1 X161.883 Y124.491 E21.85384
G1 X162.586 Y124.531 E21.87726
G1 X163.28 Y124.65 E21.90068
G1 X163.955 Y124.848 E21.92407
G1 X164.604 Y125.12 E21.94748
G1 X165.218 Y125.465 E21.9709
G1 X165.789 Y125.876 E21.9943
G1 X166.267 Y126.307 E22.01571
G1 X166.384 Y126.424 E22.02121
G1 X166.853 Y126.949 E22.04463
G1 X167.259 Y127.524 E22.06804
G1 X167.597 Y128.142 E22.09147
G1 X167.864 Y128.793 E22.11487
G1 X168.054 Y129.471 E22.13829
G1 X168.167 Y130.166 E22.16171
G1 X168.2 Y130.808 E22.18309
G1 X168.2 Y140.592 E22.50851
G1 X168.16 Y141.295 E22.53193
G1 X168.115 Y141.556 E22.54073
G1 X168.167 Y141.875 E22.55148
G1 X168.2 Y142.517 E22.57287
