;FLAVOR:Marlin
;TIME:6816
;Filament used: 3.69194m
;Layer height: 0.2
;MINX:110.037
;MINY:118.331
;MINZ:0.2
;MAXX:188.726
;MAXY:181.669
;MAXZ:29.8
;Generated with Cura_SteamEngine 4.9.0
M140 S50
M105
M190 S50
M104 S200
M105
M109 S200
M82 ;absolute extrusion mode
M201 X500.00 Y500.00 Z100.00 E5000.00 ;Setup machine max acceleration
M203 X500.00 Y500.00 Z10.00 E50.00 ;Setup machine max feedrate
M204 P500.00 R1000.00 T500.00 ;Setup Print/Retract/Travel acceleration
M205 X8.00 Y8.00 Z0.40 E5.00 ;Setup Jerk
M220 S100 ;Reset Feedrate
M221 S100 ;Reset Flowrate

G28 ;Home

G92 E0 ;Reset Extruder
G1 Z2.0 F3000 ;Move Z Axis up
G1 X10.1 Y20 Z0.28 F5000.0 ;Move to start position
G1 X10.1 Y200.0 Z0.28 F1500.0 E15 ;Draw the first line
G1 X10.4 Y200.0 Z0.28 F5000.0 ;Move to side a little
G1 X10.4 Y20 Z0.28 F1500.0 E30 ;Draw the second line
G92 E0 ;Reset Extruder
G1 Z2.0 F3000 ;Move Z Axis up

G92 E0
G92 E0
G1 F2700 E-5
;LAYER_COUNT:149
;LAYER:0
M107
G0 F6000 X114.72 Y140.105 Z0.2
;TYPE:SKIRT
G1 F2700 E0
G1 F1200 X115.18 Y139.747 E0.01939
G1 X115.569 Y139.467 E0.03533
G1 X116.196 Y139.061 E0.06017
G1 X116.52 Y138.872 E0.07265
G1 X117.047 Y138.59 E0.09253
G1 X117.474 Y138.383 E0.10831
G1 X117.972 Y138.163 E0.12642
G1 X118.286 Y138.037 E0.13767
G1 X119.009 Y137.787 E0.16312
G1 X119.438 Y137.662 E0.17798
G1 X119.979 Y137.526 E0.19653
G1 X120.36 Y137.444 E0.20949
G1 X121.072 Y137.324 E0.23351
G1 X121.489 Y137.274 E0.24748
G1 X122.017 Y137.229 E0.2651
G1 X122.386 Y137.21 E0.27739
G1 X122.786 Y137.2 E0.2907
G1 X128.9 Y137.199 E0.49405
G1 X129.368 Y137.082 E0.5101
G1 X130.15 Y136.968 E0.53638
G1 X130.676 Y136.945 E0.55389
G1 X131.052 Y136.829 E0.56698
G1 X131.693 Y136.701 E0.58872
G1 X131.859 Y136.65 E0.5945
G1 X132.633 Y136.493 E0.62077
G1 X133.401 Y136.417 E0.64643
G1 X134.625 Y136.356 E0.68719
G1 X134.831 Y135.883 E0.70435
G1 X135.394 Y134.928 E0.74123
G1 X135.691 Y134.498 E0.75861
G1 X135.788 Y134.316 E0.76547
G1 X139.454 Y123.901 E1.1327
G1 X139.754 Y123.171 E1.15895
G1 X140.126 Y122.474 E1.18523
G1 X140.566 Y121.819 E1.21148
G1 X141.071 Y121.211 E1.23776
G1 X141.634 Y120.658 E1.26401
G1 X142.343 Y120.098 E1.29406
G1 X142.446 Y120.026 E1.29824
G1 X143.115 Y119.607 E1.3245
G1 X143.824 Y119.258 E1.35078
G1 X144.564 Y118.982 E1.37705
G1 X145.328 Y118.782 E1.40332
G1 X146.108 Y118.661 E1.42957
G1 X146.915 Y118.619 E1.45645
G1 X151.257 Y118.619 E1.60086
G1 X152.046 Y118.659 E1.62714
G1 X152.826 Y118.778 E1.65338
G1 X153.591 Y118.976 E1.67966
G1 X154.331 Y119.25 E1.70591
G1 X155.04 Y119.598 E1.73218
G1 X155.711 Y120.016 E1.75847
G1 X156.335 Y120.499 E1.78472
G1 X156.908 Y121.042 E1.81097
G1 X157.629 Y121.921 E1.84879
G1 X157.749 Y122.091 E1.85571
G1 X158.172 Y122.758 E1.88198
G1 X158.524 Y123.465 E1.90824
G1 X158.803 Y124.204 E1.93452
G1 X159.006 Y124.967 E1.96078
G1 X159.131 Y125.746 E1.98702
G1 X159.177 Y126.535 E2.01331
G1 X159.142 Y127.324 E2.03957
G1 X159.028 Y128.105 E2.06582
G1 X158.741 Y129.161 E2.10222
G1 X157.916 Y131.521 E2.18537
G1 X156.062 Y136.773 E2.37062
G1 X163.499 Y136.773 E2.61798
G1 X163.61 Y136.506 E2.62759
G1 X163.827 Y136.128 E2.64209
G1 X163.966 Y135.748 E2.65555
G1 X164.311 Y135.037 E2.68183
G1 X164.574 Y134.596 E2.69891
G1 X164.737 Y134.341 E2.70898
G1 X164.912 Y134.023 E2.72105
G1 X164.964 Y133.904 E2.72537
G1 X168.088 Y123.887 E3.07436
G1 X168.361 Y123.146 E3.10063
G1 X168.707 Y122.436 E3.1269
G1 X169.124 Y121.765 E3.15317
G1 X169.606 Y121.14 E3.17942
G1 X170.149 Y120.566 E3.2057
G1 X170.883 Y119.948 E3.23762
G1 X170.988 Y119.87 E3.24197
G1 X171.645 Y119.431 E3.26825
G1 X172.342 Y119.062 E3.29448
G1 X173.074 Y118.765 E3.32075
G1 X173.832 Y118.543 E3.34702
G1 X174.609 Y118.399 E3.37331
G1 X175.639 Y118.331 E3.40764
G1 X180.806 Y118.331 E3.5795
G1 X181.595 Y118.371 E3.60577
G1 X182.375 Y118.49 E3.63201
G1 X183.14 Y118.688 E3.6583
G1 X183.88 Y118.962 E3.68454
G1 X184.589 Y119.31 E3.71081
G1 X185.26 Y119.728 E3.7371
G1 X185.884 Y120.211 E3.76335
G1 X186.457 Y120.754 E3.78961
G1 X187.087 Y121.507 E3.82226
G1 X187.207 Y121.67 E3.82899
G1 X187.643 Y122.328 E3.85525
G1 X188.009 Y123.028 E3.88152
G1 X188.303 Y123.761 E3.90779
G1 X188.522 Y124.52 E3.93406
G1 X188.662 Y125.297 E3.96032
G1 X188.723 Y126.084 E3.98657
G1 X188.704 Y126.874 E4.01286
G1 X188.606 Y127.657 E4.0391
G1 X188.376 Y128.605 E4.07155
G1 X187.718 Y130.727 E4.14544
G1 X186.936 Y133.221 E4.23237
G1 X185.457 Y137.994 E4.39857
G1 X185.444 Y138.579 E4.41803
G1 X185.386 Y139.366 E4.44428
G1 X185.262 Y140.071 E4.46809
G1 X185.605 Y140.513 E4.4867
G1 X186.024 Y141.183 E4.51298
G1 X186.373 Y141.891 E4.53923
G1 X186.648 Y142.631 E4.56549
G1 X186.906 Y143.713 E4.60249
G1 X186.996 Y144.497 E4.62873
G1 X187.012 Y144.995 E4.64531
G1 X187.012 Y154.986 E4.97761
G1 X186.99 Y155.572 E4.99711
G1 X186.895 Y156.356 E5.02338
G1 X186.785 Y156.885 E5.04135
G1 X186.712 Y157.183 E5.05156
G1 X186.486 Y157.939 E5.0778
G1 X186.184 Y158.669 E5.10408
G1 X185.81 Y159.365 E5.13035
G1 X185.367 Y160.019 E5.15663
G1 X185.313 Y160.083 E5.15941
G1 X185.329 Y160.155 E5.16187
G1 X185.432 Y161.255 E5.19861
G1 X185.448 Y161.977 E5.22263
G1 X186.521 Y165.411 E5.34229
G1 X188.376 Y171.396 E5.5507
G1 X188.572 Y172.161 E5.57696
G1 X188.689 Y172.942 E5.60323
G1 X188.726 Y173.731 E5.6295
G1 X188.683 Y174.519 E5.65575
G1 X188.561 Y175.299 E5.68201
G1 X188.361 Y176.063 E5.70827
G1 X188.084 Y176.803 E5.73455
G1 X187.734 Y177.511 E5.76082
G1 X187.203 Y178.336 E5.79345
G1 X187.082 Y178.5 E5.80023
G1 X186.581 Y179.111 E5.82651
G1 X186.022 Y179.668 E5.85276
G1 X185.408 Y180.166 E5.87905
G1 X184.748 Y180.599 E5.90531
G1 X184.048 Y180.963 E5.93155
G1 X183.314 Y181.255 E5.95782
G1 X182.554 Y181.47 E5.98409
G1 X181.776 Y181.608 E6.01037
G1 X180.805 Y181.669 E6.04273
G1 X175.639 Y181.669 E6.21455
G1 X174.85 Y181.629 E6.24083
G1 X174.07 Y181.51 E6.26707
G1 X173.305 Y181.312 E6.29336
G1 X172.565 Y181.038 E6.3196
G1 X171.856 Y180.69 E6.34587
G1 X171.026 Y180.159 E6.37864
G1 X170.921 Y180.082 E6.38297
G1 X170.309 Y179.583 E6.40924
G1 X169.75 Y179.025 E6.43551
G1 X169.251 Y178.414 E6.46175
G1 X168.816 Y177.755 E6.48801
G1 X168.449 Y177.055 E6.5143
G1 X168.087 Y176.113 E6.54786
G1 X165.595 Y168.119 E6.82636
G1 X165.399 Y167.355 E6.8526
G1 X165.34 Y166.964 E6.86575
G1 X164.926 Y165.997 E6.90073
G1 X164.781 Y165.74 E6.91055
G1 X164.445 Y165.183 E6.93218
G1 X164.072 Y164.487 E6.95845
G1 X163.853 Y163.959 E6.97746
G1 X163.759 Y163.804 E6.98349
G1 X163.483 Y163.228 E7.00473
G1 X156.057 Y163.228 E7.25172
G1 X158.733 Y170.813 E7.51924
G1 X158.957 Y171.57 E7.5455
G1 X159.104 Y172.346 E7.57177
G1 X159.172 Y173.133 E7.59804
G1 X159.16 Y173.922 E7.62428
G1 X159.068 Y174.707 E7.65057
G1 X158.897 Y175.478 E7.67684
G1 X158.65 Y176.227 E7.70307
G1 X158.327 Y176.948 E7.72935
G1 X157.751 Y177.903 E7.76644
G1 X157.629 Y178.076 E7.77348
G1 X157.142 Y178.698 E7.79976
G1 X156.595 Y179.267 E7.82601
G1 X155.992 Y179.778 E7.8523
G1 X155.342 Y180.225 E7.87854
G1 X154.649 Y180.604 E7.90481
G1 X153.921 Y180.911 E7.93108
G1 X153.167 Y181.143 E7.95732
G1 X152.392 Y181.298 E7.98361
G1 X151.255 Y181.381 E8.02153
G1 X146.923 Y181.381 E8.16561
G1 X146.134 Y181.341 E8.19189
G1 X145.354 Y181.222 E8.21813
G1 X144.589 Y181.024 E8.24441
G1 X143.849 Y180.75 E8.27066
G1 X143.14 Y180.402 E8.29693
G1 X142.568 Y180.052 E8.31923
G1 X142.464 Y179.982 E8.3234
G1 X141.832 Y179.508 E8.34968
G1 X141.251 Y178.973 E8.37594
G1 X140.727 Y178.382 E8.40221
G1 X140.266 Y177.741 E8.42848
G1 X139.872 Y177.057 E8.45473
G1 X139.465 Y176.11 E8.48901
G1 X135.784 Y165.693 E8.85648
G1 X135.729 Y165.557 E8.86136
G1 X135.52 Y165.256 E8.87355
G1 X134.675 Y164.098 E8.92123
G1 X134.356 Y163.61 E8.94062
G1 X134.164 Y163.626 E8.94702
G1 X133.375 Y163.609 E8.97327
G1 X132.591 Y163.513 E8.99954
G1 X132.201 Y163.434 E9.01278
G1 X131.226 Y163.212 E9.04604
G1 X130.807 Y163.094 E9.06051
G1 X130.077 Y163.057 E9.08483
G1 X129.297 Y162.938 E9.11107
G1 X128.764 Y162.8 E9.12938
G1 X122.723 Y162.8 E9.33031
G1 X122.417 Y162.794 E9.34049
G1 X122.137 Y162.783 E9.34981
G1 X121.448 Y162.725 E9.3728
G1 X121.036 Y162.672 E9.38662
G1 X120.403 Y162.564 E9.40798
G1 X119.958 Y162.469 E9.42311
G1 X119.273 Y162.29 E9.44666
G1 X118.909 Y162.177 E9.45934
G1 X118.911 Y162.171 E9.45955
G1 X118.227 Y161.942 E9.48354
G1 X117.991 Y161.847 E9.492
G1 X117.564 Y161.66 E9.5075
G1 X117.125 Y161.452 E9.52366
G1 X116.519 Y161.132 E9.54645
G1 X116.137 Y160.908 E9.56118
G1 X115.484 Y160.479 E9.58717
G1 X115.173 Y160.252 E9.59997
G1 X114.719 Y159.894 E9.6192
G1 X114.358 Y159.587 E9.63497
G1 X113.907 Y159.172 E9.65535
G1 X113.668 Y158.934 E9.66657
G1 X113.207 Y158.432 E9.68924
G1 X112.913 Y158.083 E9.70442
G1 X112.51 Y157.563 E9.7263
G1 X112.273 Y157.228 E9.73995
G1 X111.921 Y156.684 E9.7615
G1 X111.72 Y156.343 E9.77466
G1 X111.392 Y155.723 E9.79799
G1 X111.155 Y155.223 E9.81639
G1 X110.892 Y154.599 E9.83892
G1 X110.795 Y154.338 E9.84818
G1 X110.646 Y153.899 E9.8636
G1 X110.522 Y153.493 E9.87772
G1 X110.338 Y152.766 E9.90266
G1 X110.253 Y152.347 E9.91688
G1 X110.146 Y151.668 E9.93974
G1 X110.101 Y151.268 E9.95313
G1 X110.061 Y150.778 E9.96948
G1 X110.042 Y150.391 E9.98237
G1 X110.037 Y149.749 E10.00372
G1 X110.053 Y149.269 E10.0197
G1 X110.134 Y148.381 E10.04935
G1 X110.184 Y148.045 E10.06065
G1 X110.261 Y147.613 E10.07525
G1 X110.351 Y147.178 E10.09002
G1 X110.505 Y146.56 E10.1112
G1 X110.616 Y146.182 E10.12431
G1 X110.84 Y145.527 E10.14733
G1 X110.996 Y145.13 E10.16152
G1 X111.279 Y144.495 E10.18464
G1 X111.47 Y144.113 E10.19885
G1 X111.767 Y143.573 E10.21934
G1 X111.972 Y143.233 E10.23255
G1 X112.317 Y142.71 E10.25339
G1 X112.562 Y142.369 E10.26735
G1 X112.899 Y141.933 E10.28568
G1 X113.19 Y141.583 E10.30082
G1 X113.673 Y141.055 E10.32462
G1 X113.866 Y140.862 E10.3337
G1 X114.364 Y140.404 E10.3562
G1 X114.72 Y140.105 E10.37167
G0 F6000 X114.978 Y140.411
G1 F1200 X115.414 Y140.072 E10.39004
G1 X115.803 Y139.792 E10.40598
G1 X116.397 Y139.406 E10.42954
G1 X116.721 Y139.217 E10.44201
G1 X117.222 Y138.95 E10.4609
G1 X117.649 Y138.743 E10.47668
G1 X118.121 Y138.534 E10.49385
G1 X118.435 Y138.408 E10.5051
G1 X119.121 Y138.171 E10.52924
G1 X119.55 Y138.046 E10.5441
G1 X120.063 Y137.917 E10.5617
G1 X120.444 Y137.835 E10.57466
G1 X121.12 Y137.722 E10.59745
G1 X121.537 Y137.672 E10.61142
G1 X122.037 Y137.629 E10.62811
G1 X122.406 Y137.61 E10.6404
G1 X122.786 Y137.6 E10.65305
G1 X128.929 Y137.599 E10.85736
G1 X129.623 Y137.441 E10.88104
G1 X130.386 Y137.35 E10.90659
G1 X130.728 Y137.345 E10.91797
G1 X131.266 Y137.188 E10.93661
G1 X131.703 Y137.118 E10.95133
G1 X131.977 Y137.033 E10.96087
G1 X132.732 Y136.883 E10.98647
G1 X133.421 Y136.816 E11.0095
G1 X134.798 Y136.747 E11.05536
G1 X134.87 Y136.747 E11.05775
G1 X134.974 Y136.552 E11.0651
G1 X135.216 Y136.007 E11.08493
G1 X135.723 Y135.155 E11.11791
G1 X136.034 Y134.704 E11.13613
G1 X136.156 Y134.48 E11.14461
G1 X139.832 Y124.034 E11.51293
G1 X140.124 Y123.323 E11.5385
G1 X140.489 Y122.646 E11.56408
G1 X140.923 Y122.01 E11.58969
G1 X141.42 Y121.423 E11.61527
G1 X141.975 Y120.891 E11.64084
G1 X142.572 Y120.426 E11.66601
G1 X142.675 Y120.354 E11.67019
G1 X143.328 Y119.947 E11.69578
G1 X144.019 Y119.609 E11.72137
G1 X144.741 Y119.345 E11.74694
G1 X145.487 Y119.158 E11.77252
G1 X146.249 Y119.049 E11.79812
G1 X146.915 Y119.019 E11.82029
G1 X151.257 Y119.019 E11.96471
G1 X152.025 Y119.059 E11.99029
G1 X152.785 Y119.178 E12.01587
G1 X153.528 Y119.376 E12.04145
G1 X154.247 Y119.65 E12.06704
G1 X154.933 Y119.997 E12.09261
G1 X155.58 Y120.413 E12.11819
G1 X156.18 Y120.894 E12.14377
G1 X156.727 Y121.435 E12.16936
G1 X157.303 Y122.152 E12.19995
G1 X157.423 Y122.322 E12.20687
G1 X157.833 Y122.972 E12.23243
G1 X158.173 Y123.662 E12.25801
G1 X158.441 Y124.383 E12.2836
G1 X158.631 Y125.128 E12.30917
G1 X158.744 Y125.889 E12.33476
G1 X158.777 Y126.658 E12.36036
G1 X158.73 Y127.425 E12.38592
G1 X158.603 Y128.184 E12.41151
G1 X158.363 Y129.029 E12.44073
G1 X157.539 Y131.388 E12.52384
G1 X155.497 Y137.173 E12.72788
G1 X163.764 Y137.173 E13.00284
G1 X163.997 Y136.624 E13.02268
G1 X164.198 Y136.278 E13.03599
G1 X164.358 Y135.849 E13.05122
G1 X164.701 Y135.16 E13.07682
G1 X164.911 Y134.811 E13.09036
G1 X165.076 Y134.553 E13.10055
G1 X165.274 Y134.195 E13.11416
G1 X165.338 Y134.047 E13.11952
G1 X168.47 Y124.006 E13.46935
G1 X168.736 Y123.284 E13.49494
G1 X169.077 Y122.595 E13.52051
G1 X169.487 Y121.944 E13.5461
G1 X169.962 Y121.339 E13.57169
G1 X170.498 Y120.787 E13.59728
G1 X171.121 Y120.269 E13.62422
G1 X171.226 Y120.191 E13.62858
G1 X171.867 Y119.765 E13.65417
G1 X172.548 Y119.408 E13.67975
G1 X173.262 Y119.123 E13.70532
G1 X174.003 Y118.914 E13.73092
G1 X174.761 Y118.783 E13.75651
G1 X175.639 Y118.731 E13.78576
G1 X180.806 Y118.731 E13.95762
G1 X181.574 Y118.771 E13.9832
G1 X182.334 Y118.89 E14.00878
G1 X183.077 Y119.088 E14.03436
G1 X183.796 Y119.362 E14.05995
G1 X184.482 Y119.709 E14.08552
G1 X185.129 Y120.125 E14.1111
G1 X185.729 Y120.606 E14.13668
G1 X186.276 Y121.147 E14.16227
G1 X186.765 Y121.744 E14.18793
G1 X186.885 Y121.907 E14.19467
G1 X187.308 Y122.549 E14.22024
G1 X187.663 Y123.232 E14.24584
G1 X187.944 Y123.948 E14.27142
G1 X188.15 Y124.689 E14.297
G1 X188.277 Y125.447 E14.32257
G1 X188.326 Y126.215 E14.34816
G1 X188.294 Y126.983 E14.37373
G1 X188.182 Y127.744 E14.39931
G1 X187.994 Y128.486 E14.42477
G1 X187.336 Y130.607 E14.49863
G1 X186.562 Y133.077 E14.58472
G1 X185.059 Y137.93 E14.7537
G1 X185.044 Y138.57 E14.77499
G1 X184.987 Y139.337 E14.80057
G1 X184.85 Y140.094 E14.82616
G1 X184.835 Y140.172 E14.8288
G1 X185.289 Y140.758 E14.85346
G1 X185.694 Y141.412 E14.87904
G1 X186.029 Y142.105 E14.90464
G1 X186.29 Y142.828 E14.93021
G1 X186.511 Y143.778 E14.96265
G1 X186.598 Y144.543 E14.98826
G1 X186.612 Y144.995 E15.0033
G1 X186.612 Y154.986 E15.3356
G1 X186.591 Y155.544 E15.35417
G1 X186.498 Y156.307 E15.37974
G1 X186.396 Y156.79 E15.39616
G1 X186.323 Y157.088 E15.40636
G1 X186.102 Y157.824 E15.43192
G1 X185.805 Y158.534 E15.45752
G1 X185.436 Y159.209 E15.4831
G1 X184.999 Y159.842 E15.50869
G1 X184.881 Y159.98 E15.51473
G1 X184.944 Y160.28 E15.52492
G1 X185.032 Y161.264 E15.55778
G1 X185.05 Y162.042 E15.58366
G1 X186.139 Y165.529 E15.70517
G1 X187.994 Y171.514 E15.91357
G1 X188.183 Y172.26 E15.93917
G1 X188.294 Y173.021 E15.96474
G1 X188.326 Y173.789 E15.99031
G1 X188.277 Y174.557 E16.01591
G1 X188.149 Y175.315 E16.04147
G1 X187.942 Y176.056 E16.06706
G1 X187.66 Y176.772 E16.09266
G1 X187.306 Y177.455 E16.11825
G1 X186.881 Y178.098 E16.14388
G1 X186.76 Y178.262 E16.15066
G1 X186.271 Y178.857 E16.17627
G1 X185.724 Y179.397 E16.20184
G1 X185.124 Y179.878 E16.22742
G1 X184.477 Y180.294 E16.253
G1 X183.79 Y180.64 E16.27858
G1 X183.071 Y180.913 E16.30416
G1 X182.328 Y181.111 E16.32974
G1 X181.568 Y181.23 E16.35532
G1 X180.805 Y181.269 E16.38074
G1 X175.639 Y181.269 E16.55256
G1 X174.871 Y181.229 E16.57814
G1 X174.111 Y181.11 E16.60372
G1 X173.368 Y180.912 E16.6293
G1 X172.649 Y180.638 E16.65489
G1 X171.963 Y180.291 E16.68046
G1 X171.263 Y179.836 E16.70823
G1 X171.158 Y179.759 E16.71256
G1 X170.562 Y179.273 E16.73813
G1 X170.02 Y178.727 E16.76372
G1 X169.538 Y178.128 E16.78929
G1 X169.12 Y177.482 E16.81489
G1 X168.771 Y176.797 E16.84046
G1 X168.469 Y175.994 E16.86899
G1 X165.977 Y168 E17.14749
G1 X165.787 Y167.255 E17.17306
G1 X165.728 Y166.857 E17.18645
G1 X165.281 Y165.811 E17.22428
G1 X165.121 Y165.528 E17.23509
G1 X164.788 Y164.976 E17.25653
G1 X164.425 Y164.298 E17.28211
G1 X164.214 Y163.783 E17.30062
G1 X164.101 Y163.596 E17.30789
G1 X163.772 Y162.9 E17.3335
G1 X163.747 Y162.828 E17.33603
G1 X155.491 Y162.828 E17.61063
G1 X158.355 Y170.946 E17.89694
G1 X158.573 Y171.684 E17.92254
G1 X158.713 Y172.44 E17.94811
G1 X158.774 Y173.207 E17.9737
G1 X158.755 Y173.976 E17.99929
G1 X158.656 Y174.738 E18.02484
G1 X158.479 Y175.487 E18.05044
G1 X158.225 Y176.213 E18.07602
G1 X157.897 Y176.908 E18.10158
G1 X157.424 Y177.673 E18.1315
G1 X157.302 Y177.846 E18.13854
G1 X156.827 Y178.45 E18.1641
G1 X156.292 Y179.002 E18.18966
G1 X155.702 Y179.496 E18.21526
G1 X155.064 Y179.926 E18.24085
G1 X154.385 Y180.287 E18.26642
G1 X153.672 Y180.575 E18.292
G1 X152.933 Y180.788 E18.31758
