;FLAVOR:Marlin
;TIME:10042
;Filament used: 5.52227m
;Layer height: 0.2
;MINX:101.225
;MINY:117.719
;MINZ:0.2
;MAXX:200.398
;MAXY:182.281
;MAXZ:33.6
;Generated with Cura_SteamEngine 4.9.0
M140 S50
M105
M190 S50
M104 S200
M105
M109 S200
M82 ;absolute extrusion mode
M201 X500.00 Y500.00 Z100.00 E5000.00 ;Setup machine max acceleration
M203 X500.00 Y500.00 Z10.00 E50.00 ;Setup machine max feedrate
M204 P500.00 R1000.00 T500.00 ;Setup Print/Retract/Travel acceleration
M205 X8.00 Y8.00 Z0.40 E5.00 ;Setup Jerk
M220 S100 ;Reset Feedrate
M221 S100 ;Reset Flowrate

G28 ;Home

G92 E0 ;Reset Extruder
G1 Z2.0 F3000 ;Move Z Axis up
G1 X10.1 Y20 Z0.28 F5000.0 ;Move to start position
G1 X10.1 Y200.0 Z0.28 F1500.0 E15 ;Draw the first line
G1 X10.4 Y200.0 Z0.28 F5000.0 ;Move to side a little
G1 X10.4 Y20 Z0.28 F1500.0 E30 ;Draw the second line
G92 E0 ;Reset Extruder
G1 Z2.0 F3000 ;Move Z Axis up

G92 E0
G92 E0
G1 F2700 E-5
;LAYER_COUNT:168
;LAYER:0
M107
G0 F6000 X116.25 Y120.526 Z0.2
;TYPE:SKIRT
G1 F2700 E0
G1 F1200 X116.833 Y119.993 E0.02627
G1 X117.149 Y119.745 E0.03963
G1 X117.262 Y119.661 E0.04432
G1 X117.918 Y119.223 E0.07055
G1 X118.616 Y118.853 E0.09683
G1 X119.348 Y118.556 E0.1231
G1 X120.106 Y118.334 E0.14937
G1 X120.882 Y118.19 E0.17562
G1 X121.915 Y118.121 E0.21006
G1 X126.263 Y118.121 E0.35467
G1 X127.052 Y118.161 E0.38095
G1 X127.832 Y118.28 E0.40719
G1 X128.597 Y118.478 E0.43347
G1 X129.337 Y118.752 E0.45972
G1 X130.046 Y119.1 E0.48599
G1 X130.717 Y119.518 E0.51228
G1 X131.341 Y120.001 E0.53853
G1 X131.914 Y120.544 E0.56478
G1 X132.484 Y121.216 E0.59409
G1 X132.605 Y121.376 E0.60076
G1 X133.049 Y122.029 E0.62703
G1 X133.425 Y122.724 E0.65331
G1 X133.728 Y123.453 E0.67957
G1 X133.956 Y124.209 E0.70583
G1 X134.107 Y124.984 E0.73209
G1 X134.178 Y125.771 E0.75837
G1 X134.169 Y126.56 E0.78462
G1 X134.081 Y127.345 E0.81089
G1 X133.896 Y128.181 E0.83937
G1 X131.574 Y136.486 E1.12619
G1 X132.006 Y136.437 E1.14065
G1 X132.413 Y136.408 E1.15422
G1 X133.238 Y136.393 E1.18166
G1 X133.566 Y136.404 E1.19258
G1 X133.908 Y136.404 E1.20395
G1 X134.694 Y136.482 E1.23022
G1 X135.468 Y136.64 E1.2565
G1 X135.889 Y136.772 E1.27117
G1 X154.985 Y136.773 E1.90631
G1 X155.759 Y136.557 E1.93303
G1 X156.159 Y136.479 E1.94659
G1 X156.313 Y136.453 E1.95178
G1 X157.098 Y136.361 E1.97807
G1 X157.887 Y136.349 E2.00432
G1 X158.725 Y136.424 E2.0323
G1 X158.973 Y136.46 E2.04064
G1 X159.118 Y136.417 E2.04567
G1 X159.894 Y136.27 E2.07193
G1 X160.681 Y136.204 E2.0982
G1 X161.47 Y136.217 E2.12445
G1 X162.017 Y136.29 E2.1428
G1 X162.118 Y136.028 E2.15214
G1 X162.245 Y135.776 E2.16153
G1 X162.341 Y135.488 E2.17162
G1 X163.544 Y129.697 E2.36835
G1 X163.567 Y128.912 E2.39447
G1 X163.698 Y127.987 E2.42554
G1 X164.024 Y126.377 E2.48017
G1 X164.514 Y124.019 E2.56028
G1 X164.714 Y123.255 E2.58654
G1 X164.99 Y122.515 E2.61281
G1 X165.339 Y121.807 E2.63907
G1 X165.758 Y121.137 E2.66535
G1 X166.242 Y120.514 E2.69159
G1 X166.788 Y119.943 E2.71787
G1 X167.258 Y119.532 E2.73863
G1 X167.366 Y119.445 E2.74324
G1 X168.005 Y118.981 E2.76951
G1 X168.688 Y118.584 E2.79579
G1 X169.407 Y118.259 E2.82203
G1 X170.156 Y118.008 E2.8483
G1 X170.926 Y117.834 E2.87456
G1 X171.71 Y117.738 E2.90083
G1 X172.259 Y117.719 E2.9191
G1 X176.823 Y117.719 E3.0709
G1 X177.612 Y117.759 E3.09718
G1 X178.392 Y117.878 E3.12342
G1 X179.157 Y118.076 E3.1497
G1 X179.897 Y118.35 E3.17595
G1 X180.606 Y118.698 E3.20222
G1 X181.277 Y119.116 E3.22851
G1 X181.901 Y119.599 E3.25475
G1 X182.474 Y120.142 E3.28101
G1 X182.847 Y120.565 E3.29977
G1 X182.972 Y120.717 E3.30631
G1 X183.443 Y121.351 E3.33258
G1 X183.846 Y122.03 E3.35884
G1 X184.179 Y122.746 E3.38511
G1 X184.438 Y123.492 E3.41137
G1 X184.619 Y124.261 E3.43765
G1 X184.723 Y125.044 E3.46392
G1 X184.746 Y125.833 E3.49017
G1 X184.69 Y126.621 E3.51645
G1 X184.585 Y127.257 E3.53789
G1 X182.52 Y137.2 E3.87565
G1 X187.549 Y137.2 E4.04292
G1 X188.02 Y137.214 E4.05859
G1 X188.565 Y137.247 E4.07675
G1 X188.953 Y137.28 E4.0897
G1 X189.377 Y137.327 E4.10389
G1 X190.375 Y137.504 E4.1376
G1 X190.791 Y137.606 E4.15185
G1 X191.361 Y137.769 E4.17156
G1 X191.816 Y137.918 E4.18749
G1 X192.469 Y138.165 E4.21071
G1 X192.839 Y138.324 E4.2241
G1 X193.448 Y138.618 E4.2466
G1 X193.828 Y138.822 E4.26094
G1 X194.429 Y139.18 E4.28421
G1 X194.883 Y139.479 E4.30229
G1 X195.495 Y139.925 E4.32748
G1 X195.776 Y140.152 E4.33949
G1 X196.313 Y140.629 E4.36338
G1 X196.533 Y140.843 E4.37359
G1 X196.732 Y141.023 E4.38251
G1 X197.128 Y141.45 E4.40188
G1 X197.43 Y141.801 E4.41728
G1 X197.849 Y142.334 E4.43983
G1 X198.123 Y142.715 E4.45544
G1 X198.474 Y143.247 E4.47664
G1 X198.666 Y143.566 E4.48902
G1 X199.027 Y144.237 E4.51437
G1 X199.252 Y144.71 E4.53179
G1 X199.486 Y145.256 E4.55154
G1 X199.634 Y145.64 E4.56523
G1 X199.877 Y146.379 E4.59111
G1 X199.991 Y146.794 E4.60542
G1 X200.156 Y147.531 E4.63054
G1 X200.234 Y147.982 E4.64576
G1 X200.314 Y148.584 E4.66596
G1 X200.364 Y149.118 E4.6838
G1 X200.398 Y149.845 E4.70801
G1 X200.398 Y150.214 E4.72028
G1 X200.368 Y150.895 E4.74295
G1 X200.324 Y151.397 E4.75971
G1 X200.204 Y152.238 E4.78797
G1 X200.128 Y152.62 E4.80092
G1 X200.007 Y153.137 E4.81858
G1 X199.88 Y153.606 E4.83474
G1 X199.624 Y154.386 E4.86205
G1 X199.493 Y154.724 E4.8741
G1 X199.23 Y155.326 E4.89595
G1 X198.985 Y155.828 E4.91453
G1 X198.741 Y156.288 E4.93185
G1 X198.546 Y156.628 E4.94489
G1 X198.086 Y157.338 E4.97303
G1 X197.813 Y157.713 E4.98845
G1 X197.333 Y158.309 E5.01391
G1 X197.049 Y158.628 E5.02811
G1 X196.59 Y159.101 E5.05003
G1 X196.222 Y159.45 E5.0669
G1 X195.704 Y159.899 E5.0897
G1 X195.35 Y160.18 E5.10473
G1 X194.784 Y160.59 E5.12798
G1 X194.472 Y160.795 E5.1404
G1 X193.892 Y161.141 E5.16286
G1 X193.473 Y161.367 E5.17869
G1 X192.911 Y161.642 E5.1995
G1 X192.47 Y161.836 E5.21553
G1 X191.622 Y162.151 E5.24562
G1 X191.209 Y162.278 E5.25999
G1 X190.722 Y162.411 E5.27678
G1 X190.306 Y162.51 E5.291
G1 X189.531 Y162.654 E5.31722
G1 X189.156 Y162.704 E5.3298
G1 X188.469 Y162.764 E5.35274
G1 X187.835 Y162.792 E5.37384
G1 X187.492 Y162.8 E5.38526
G1 X182.522 Y162.801 E5.55056
G1 X184.573 Y172.764 E5.88888
G1 X184.693 Y173.544 E5.91513
G1 X184.733 Y174.333 E5.9414
G1 X184.693 Y175.122 E5.96768
G1 X184.574 Y175.902 E5.99392
G1 X184.377 Y176.667 E6.0202
G1 X184.103 Y177.407 E6.04644
G1 X183.756 Y178.117 E6.07273
G1 X183.338 Y178.787 E6.09899
G1 X183.044 Y179.183 E6.1154
G1 X182.929 Y179.328 E6.12155
G1 X182.408 Y179.921 E6.1478
G1 X181.829 Y180.458 E6.17407
G1 X181.199 Y180.934 E6.20033
G1 X180.524 Y181.344 E6.2266
G1 X179.811 Y181.684 E6.25287
G1 X179.068 Y181.95 E6.27912
G1 X178.301 Y182.139 E6.30539
G1 X177.519 Y182.249 E6.33166
G1 X176.818 Y182.281 E6.355
G1 X172.477 Y182.281 E6.49938
G1 X171.688 Y182.241 E6.52566
G1 X170.908 Y182.122 E6.5519
G1 X170.143 Y181.924 E6.57818
G1 X169.403 Y181.65 E6.60443
G1 X168.939 Y181.433 E6.62147
G1 X168.603 Y181.262 E6.63401
G1 X167.918 Y180.868 E6.66029
G1 X167.277 Y180.408 E6.68653
G1 X166.685 Y179.885 E6.7128
G1 X166.15 Y179.304 E6.73907
G1 X165.675 Y178.673 E6.76534
G1 X165.267 Y177.997 E6.7916
G1 X164.93 Y177.283 E6.81786
G1 X164.666 Y176.539 E6.84412
G1 X164.504 Y175.895 E6.86621
G1 X163.698 Y172.011 E6.99814
G1 X163.577 Y171.231 E7.02439
G1 X163.535 Y170.442 E7.05067
G1 X163.542 Y170.296 E7.05554
G1 X162.335 Y164.486 E7.2529
G1 X162.303 Y164.411 E7.25561
G1 X162.168 Y163.981 E7.2706
G1 X162.037 Y163.681 E7.28149
G1 X161.645 Y163.711 E7.29457
G1 X160.856 Y163.69 E7.32082
G1 X160.072 Y163.591 E7.3471
G1 X159.519 Y163.46 E7.36601
G1 X158.971 Y163.554 E7.3845
G1 X157.79 Y163.605 E7.42381
G1 X157.488 Y163.595 E7.43386
G1 X157.134 Y163.597 E7.44564
G1 X156.348 Y163.522 E7.4719
G1 X155.574 Y163.368 E7.49815
G1 X155.118 Y163.228 E7.51401
G1 X136.035 Y163.227 E8.14872
G1 X135.325 Y163.431 E8.17329
G1 X134.791 Y163.536 E8.19139
G1 X134.679 Y163.554 E8.19516
G1 X133.894 Y163.64 E8.22143
G1 X133.104 Y163.646 E8.2477
G1 X132.37 Y163.579 E8.27222
G1 X131.711 Y163.488 E8.29434
G1 X131.573 Y163.518 E8.29904
G1 X133.894 Y171.818 E8.58569
G1 X134.068 Y172.589 E8.61198
G1 X134.163 Y173.373 E8.63825
G1 X134.178 Y174.162 E8.66449
G1 X134.114 Y174.949 E8.69075
G1 X133.97 Y175.726 E8.71704
G1 X133.748 Y176.484 E8.74331
G1 X133.451 Y177.215 E8.76955
G1 X133.082 Y177.913 E8.79581
G1 X132.603 Y178.624 E8.82432
G1 X132.482 Y178.784 E8.831
G1 X131.975 Y179.389 E8.85725
G1 X131.409 Y179.939 E8.8835
G1 X130.79 Y180.43 E8.90978
G1 X130.124 Y180.855 E8.93606
G1 X129.419 Y181.211 E8.96232
G1 X128.682 Y181.494 E8.98858
G1 X127.92 Y181.701 E9.01484
G1 X127.141 Y181.829 E9.0411
G1 X126.261 Y181.879 E9.07042
G1 X121.913 Y181.879 E9.21503
G1 X121.124 Y181.839 E9.24131
G1 X120.344 Y181.72 E9.26755
G1 X119.579 Y181.522 E9.29383
G1 X118.839 Y181.248 E9.32008
G1 X118.13 Y180.9 E9.34635
G1 X117.145 Y180.252 E9.38556
G1 X117.044 Y180.174 E9.38981
G1 X116.445 Y179.661 E9.41604
G1 X115.9 Y179.089 E9.44232
G1 X115.416 Y178.465 E9.46858
G1 X114.997 Y177.796 E9.49484
G1 X114.648 Y177.087 E9.52112
G1 X114.303 Y176.11 E9.55558
G1 X112.337 Y169.113 E9.79732
G1 X111.133 Y164.793 E9.94648
G1 X110.957 Y164.379 E9.96144
G1 X110.716 Y163.9 E9.97927
G1 X110.598 Y163.592 E9.99024
G1 X110.531 Y163.586 E9.99248
G1 X109.85 Y163.55 E10.01516
G1 X109.584 Y163.509 E10.02411
G1 X108.832 Y163.44 E10.04923
G1 X108.057 Y163.29 E10.07548
G1 X107.301 Y163.062 E10.10175
G1 X106.586 Y162.764 E10.12751
G1 X106.206 Y162.615 E10.14109
G1 X105.713 Y162.372 E10.15937
G1 X105.423 Y162.216 E10.17032
G1 X104.747 Y161.807 E10.1966
G1 X104.116 Y161.332 E10.22287
G1 X103.537 Y160.796 E10.24911
G1 X103.015 Y160.204 E10.27536
G1 X102.555 Y159.562 E10.30163
G1 X102.099 Y158.75 E10.33261
G1 X102.083 Y158.717 E10.33383
G1 X101.775 Y157.99 E10.36009
G1 X101.563 Y157.316 E10.38359
G1 X101.486 Y157.026 E10.39357
G1 X101.322 Y156.253 E10.41985
G1 X101.238 Y155.468 E10.44611
G1 X101.225 Y155.024 E10.46088
G1 X101.225 Y144.975 E10.79511
G1 X101.265 Y144.186 E10.82139
G1 X101.435 Y143.177 E10.85542
G1 X101.507 Y142.873 E10.86581
G1 X101.728 Y142.115 E10.89207
G1 X102.024 Y141.383 E10.91833
G1 X102.223 Y140.985 E10.93313
G1 X102.629 Y140.308 E10.95939
G1 X103.102 Y139.676 E10.98564
G1 X103.636 Y139.094 E11.01192
G1 X104.227 Y138.57 E11.03819
G1 X104.867 Y138.108 E11.06444
G1 X105.25 Y137.884 E11.0792
G1 X105.434 Y137.758 E11.08661
G1 X106.126 Y137.378 E11.11287
G1 X106.853 Y137.07 E11.13913
G1 X107.608 Y136.837 E11.16541
G1 X108.178 Y136.723 E11.18475
G1 X108.335 Y136.672 E11.19024
G1 X109.107 Y136.505 E11.21651
G1 X109.892 Y136.418 E11.24278
G1 X110.361 Y136.404 E11.25838
G1 X110.582 Y136.404 E11.26573
G1 X110.683 Y136.227 E11.27251
G1 X110.991 Y135.553 E11.29716
G1 X111.075 Y135.322 E11.30533
G1 X111.138 Y135.19 E11.3102
G1 X114.29 Y123.907 E11.69984
G1 X114.54 Y123.158 E11.7261
G1 X114.865 Y122.438 E11.75238
G1 X115.262 Y121.755 E11.77865
G1 X115.725 Y121.115 E11.80492
G1 X116.25 Y120.526 E11.83117
G0 F6000 X116.606 Y120.736
G1 F1200 X117.387 Y120.066 E11.86539
G1 X117.5 Y119.982 E11.87008
G1 X118.141 Y119.556 E11.89567
G1 X118.822 Y119.199 E11.92125
G1 X119.536 Y118.914 E11.94682
G1 X120.276 Y118.705 E11.97239
G1 X121.034 Y118.574 E11.99798
G1 X121.915 Y118.521 E12.02733
G1 X126.263 Y118.521 E12.17195
G1 X127.031 Y118.561 E12.19753
G1 X127.791 Y118.68 E12.22311
G1 X128.534 Y118.878 E12.24869
G1 X129.253 Y119.152 E12.27428
G1 X129.939 Y119.499 E12.29985
G1 X130.586 Y119.915 E12.32543
G1 X131.186 Y120.396 E12.35101
G1 X131.733 Y120.937 E12.3766
G1 X132.165 Y121.457 E12.39908
G1 X132.286 Y121.617 E12.40575
G1 X132.718 Y122.254 E12.43135
G1 X133.081 Y122.932 E12.45693
G1 X133.371 Y123.644 E12.4825
G1 X133.587 Y124.383 E12.50811
G1 X133.724 Y125.14 E12.5337
G1 X133.782 Y125.907 E12.55928
G1 X133.76 Y126.675 E12.58483
G1 X133.659 Y127.438 E12.61043
G1 X133.511 Y128.073 E12.63212
G1 X131.043 Y136.902 E12.93703
G1 X131.208 Y136.951 E12.94276
G1 X131.463 Y136.899 E12.95141
G1 X132.034 Y136.836 E12.97052
G1 X132.441 Y136.807 E12.98409
G1 X133.225 Y136.792 E13.01017
G1 X133.57 Y136.804 E13.02165
G1 X133.908 Y136.804 E13.03289
G1 X134.673 Y136.884 E13.05848
G1 X135.426 Y137.043 E13.08407
G1 X135.826 Y137.172 E13.09805
G1 X155.079 Y137.173 E13.73841
G1 X155.507 Y137.032 E13.7534
G1 X156.226 Y136.873 E13.77789
G1 X156.38 Y136.847 E13.78308
G1 X157.144 Y136.759 E13.80866
G1 X157.913 Y136.75 E13.83424
G1 X158.668 Y136.82 E13.85946
G1 X159.006 Y136.869 E13.87082
G1 X159.309 Y136.783 E13.8813
G1 X160.067 Y136.652 E13.90688
G1 X160.834 Y136.6 E13.93245
G1 X161.603 Y136.628 E13.95804
G1 X162.276 Y136.726 E13.98066
G1 X162.508 Y136.136 E14.00175
G1 X162.617 Y135.925 E14.00965
G1 X162.727 Y135.6 E14.02106
G1 X163.949 Y129.719 E14.22084
G1 X163.943 Y129.633 E14.22371
G1 X163.973 Y128.865 E14.24927
G1 X164.09 Y128.066 E14.27613
G1 X164.416 Y126.458 E14.3307
G1 X164.906 Y124.1 E14.4108
G1 X165.101 Y123.357 E14.43635
G1 X165.373 Y122.637 E14.46195
G1 X165.718 Y121.949 E14.48755
G1 X166.132 Y121.301 E14.51313
G1 X166.611 Y120.7 E14.53869
G1 X167.15 Y120.151 E14.56428
G1 X167.509 Y119.843 E14.58001
G1 X167.617 Y119.756 E14.58462
G1 X168.24 Y119.305 E14.6102
G1 X168.907 Y118.922 E14.63579
G1 X169.61 Y118.61 E14.66137
G1 X170.341 Y118.372 E14.68694
G1 X171.093 Y118.211 E14.71251
G1 X171.858 Y118.13 E14.7381
G1 X172.259 Y118.119 E14.75144
G1 X176.823 Y118.119 E14.90324
G1 X177.591 Y118.159 E14.92882
G1 X178.351 Y118.278 E14.95441
G1 X179.094 Y118.476 E14.97998
G1 X179.813 Y118.75 E15.00557
G1 X180.499 Y119.097 E15.03114
G1 X181.146 Y119.513 E15.05673
G1 X181.746 Y119.994 E15.0823
G1 X182.539 Y120.819 E15.12036
G1 X182.664 Y120.971 E15.12691
G1 X183.121 Y121.589 E15.15247
G1 X183.511 Y122.252 E15.17806
G1 X183.83 Y122.952 E15.20364
G1 X184.075 Y123.681 E15.22922
G1 X184.243 Y124.431 E15.25478
G1 X184.333 Y125.195 E15.28037
G1 X184.342 Y125.965 E15.30598
G1 X184.272 Y126.73 E15.33153
G1 X184.193 Y127.176 E15.3466
G1 X182.028 Y137.6 E15.7007
G1 X187.549 Y137.6 E15.88433
G1 X187.996 Y137.614 E15.8992
G1 X188.541 Y137.647 E15.91736
G1 X188.909 Y137.678 E15.92965
G1 X189.333 Y137.725 E15.94384
G1 X190.28 Y137.893 E15.97583
G1 X190.696 Y137.995 E15.99007
G1 X191.237 Y138.149 E16.00878
G1 X191.692 Y138.298 E16.0247
G1 X192.311 Y138.532 E16.04671
G1 X192.681 Y138.691 E16.06011
G1 X193.259 Y138.97 E16.08146
G1 X193.639 Y139.174 E16.0958
G1 X194.209 Y139.514 E16.11788
G1 X194.663 Y139.813 E16.13596
G1 X195.243 Y140.237 E16.15985
G1 X195.524 Y140.464 E16.17187
G1 X196.034 Y140.916 E16.19453
G1 X196.264 Y141.14 E16.20521
G1 X196.477 Y141.334 E16.21479
G1 X196.824 Y141.711 E16.23184
G1 X197.126 Y142.062 E16.24724
G1 X197.525 Y142.567 E16.26864
G1 X197.799 Y142.948 E16.28425
G1 X198.131 Y143.453 E16.30435
G1 X198.323 Y143.772 E16.31674
G1 X198.665 Y144.409 E16.34078
G1 X198.89 Y144.882 E16.3582
G1 X199.113 Y145.4 E16.37696
G1 X199.261 Y145.784 E16.39065
G1 X199.492 Y146.485 E16.4152
G1 X199.606 Y146.9 E16.42951
G1 X199.762 Y147.599 E16.45333
G1 X199.84 Y148.05 E16.46856
G1 X199.916 Y148.621 E16.48772
G1 X199.966 Y149.155 E16.50555
G1 X199.998 Y149.845 E16.52853
G1 X199.998 Y150.214 E16.5408
G1 X199.97 Y150.86 E16.56231
G1 X199.926 Y151.362 E16.57907
G1 X199.812 Y152.16 E16.60588
G1 X199.736 Y152.542 E16.61883
G1 X199.621 Y153.032 E16.63557
G1 X199.494 Y153.501 E16.65173
G1 X199.251 Y154.241 E16.67764
G1 X199.12 Y154.579 E16.6897
G1 X198.87 Y155.151 E16.71046
G1 X198.625 Y155.653 E16.72904
G1 X198.394 Y156.089 E16.74545
G1 X198.199 Y156.429 E16.75849
G1 X197.763 Y157.102 E16.78516
G1 X197.49 Y157.477 E16.80058
G1 X197.034 Y158.043 E16.82476
G1 X196.75 Y158.362 E16.83896
G1 X196.315 Y158.81 E16.85973
G1 X195.947 Y159.159 E16.8766
G1 X195.456 Y159.586 E16.89824
G1 X195.102 Y159.867 E16.91328
G1 X194.565 Y160.255 E16.93531
G1 X194.253 Y160.46 E16.94773
G1 X193.702 Y160.789 E16.96907
G1 X193.283 Y161.015 E16.98491
G1 X192.75 Y161.276 E17.00465
G1 X192.309 Y161.47 E17.02067
G1 X191.504 Y161.769 E17.04923
G1 X191.091 Y161.896 E17.0636
G1 X190.629 Y162.022 E17.07953
G1 X190.213 Y162.121 E17.09375
G1 X189.478 Y162.257 E17.11861
G1 X189.103 Y162.307 E17.1312
G1 X188.451 Y162.365 E17.15297
G1 X187.817 Y162.393 E17.17408
G1 X187.492 Y162.4 E17.18489
