;FLAVOR:Marlin
;TIME:9139
;Filament used: 4.72595m
;Layer height: 0.2
;MINX:68.724
;MINY:85.219
;MINZ:0.2
;MAXX:167.898
;MAXY:149.781
;MAXZ:33.6
;Generated with Cura_SteamEngine 4.9.1
M140 S50
M105
M190 S50
M104 S200
M105
M109 S200
M82 ;absolute extrusion mode
; Ender 3 Custom Start G-code
G92 E0 ; Reset Extruder
G28 ; Home all axes
G1 Z2.0 F3000 ; Move Z Axis up little to prevent scratching of Heat Bed
G1 X0.1 Y20 Z0.3 F5000.0 ; Move to start position
G1 X0.1 Y200.0 Z0.3 F1500.0 E15 ; Draw the first line
G1 X0.4 Y200.0 Z0.3 F5000.0 ; Move to side a little
G1 X0.4 Y20 Z0.3 F1500.0 E30 ; Draw the second line
G92 E0 ; Reset Extruder
G1 Z2.0 F3000 ; Move Z Axis up little to prevent scratching of Heat Bed
G1 X5 Y20 Z0.3 F5000.0 ; Move over to prevent blob squish
G92 E0
G92 E0
G1 F2700 E-5
;LAYER_COUNT:168
;LAYER:0
M107
G0 F6000 X83.75 Y88.026 Z0.2
;TYPE:SKIRT
G1 F2700 E0
G1 F1200 X84.333 Y87.493 E0.02627
G1 X84.649 Y87.245 E0.03963
G1 X84.762 Y87.161 E0.04432
G1 X85.418 Y86.723 E0.07055
G1 X86.116 Y86.353 E0.09683
G1 X86.848 Y86.056 E0.1231
G1 X87.606 Y85.834 E0.14937
G1 X88.382 Y85.69 E0.17562
G1 X89.415 Y85.621 E0.21006
G1 X93.763 Y85.621 E0.35467
G1 X94.552 Y85.661 E0.38095
G1 X95.332 Y85.78 E0.40719
G1 X96.097 Y85.978 E0.43347
G1 X96.837 Y86.252 E0.45972
G1 X97.546 Y86.6 E0.48599
G1 X98.217 Y87.018 E0.51228
G1 X98.841 Y87.501 E0.53853
G1 X99.414 Y88.044 E0.56478
G1 X99.984 Y88.716 E0.59409
G1 X100.105 Y88.876 E0.60076
G1 X100.549 Y89.529 E0.62703
G1 X100.925 Y90.224 E0.65331
G1 X101.228 Y90.953 E0.67957
G1 X101.456 Y91.709 E0.70583
G1 X101.607 Y92.484 E0.73209
G1 X101.678 Y93.271 E0.75837
G1 X101.669 Y94.06 E0.78462
G1 X101.581 Y94.845 E0.81089
G1 X101.396 Y95.681 E0.83937
G1 X99.074 Y103.986 E1.12619
G1 X99.506 Y103.937 E1.14065
G1 X99.913 Y103.908 E1.15422
G1 X100.738 Y103.893 E1.18166
G1 X101.066 Y103.904 E1.19258
G1 X101.408 Y103.904 E1.20395
G1 X102.194 Y103.982 E1.23022
G1 X102.968 Y104.14 E1.2565
G1 X103.389 Y104.272 E1.27117
G1 X122.484 Y104.273 E1.90627
G1 X122.515 Y104.261 E1.90738
G1 X123.597 Y103.989 E1.94449
G1 X123.755 Y103.961 E1.94982
G1 X124.538 Y103.862 E1.97607
G1 X125.328 Y103.844 E2.00236
G1 X126.24 Y103.922 E2.0328
G1 X126.486 Y103.948 E2.04103
G1 X127.26 Y103.789 E2.06731
G1 X128.045 Y103.709 E2.09355
G1 X128.835 Y103.709 E2.11983
G1 X129.516 Y103.794 E2.14265
G1 X129.618 Y103.528 E2.15213
G1 X129.745 Y103.276 E2.16152
G1 X129.841 Y102.988 E2.17161
G1 X131.044 Y97.197 E2.36833
G1 X131.067 Y96.412 E2.39445
G1 X131.198 Y95.487 E2.42553
G1 X131.524 Y93.877 E2.48016
G1 X132.014 Y91.519 E2.56027
G1 X132.214 Y90.755 E2.58653
G1 X132.49 Y90.015 E2.6128
G1 X132.839 Y89.307 E2.63906
G1 X133.258 Y88.637 E2.66534
G1 X133.742 Y88.014 E2.69158
G1 X134.288 Y87.443 E2.71785
G1 X134.758 Y87.032 E2.73862
G1 X134.866 Y86.945 E2.74323
G1 X135.505 Y86.481 E2.7695
G1 X136.188 Y86.084 E2.79577
G1 X136.907 Y85.759 E2.82202
G1 X137.656 Y85.508 E2.84829
G1 X138.426 Y85.334 E2.87455
G1 X139.21 Y85.238 E2.90082
G1 X139.759 Y85.219 E2.91909
G1 X144.323 Y85.219 E3.07089
G1 X145.112 Y85.259 E3.09716
G1 X145.892 Y85.378 E3.12341
G1 X146.657 Y85.576 E3.14969
G1 X147.397 Y85.85 E3.17593
G1 X148.106 Y86.198 E3.2022
G1 X148.777 Y86.616 E3.2285
G1 X149.401 Y87.099 E3.25474
G1 X149.974 Y87.642 E3.281
G1 X150.347 Y88.065 E3.29976
G1 X150.472 Y88.217 E3.3063
G1 X150.943 Y88.851 E3.33257
G1 X151.346 Y89.53 E3.35883
G1 X151.679 Y90.246 E3.3851
G1 X151.938 Y90.992 E3.41136
G1 X152.119 Y91.761 E3.43764
G1 X152.223 Y92.544 E3.46391
G1 X152.246 Y93.333 E3.49016
G1 X152.19 Y94.121 E3.51644
G1 X152.085 Y94.757 E3.53788
G1 X150.02 Y104.7 E3.87564
G1 X154.949 Y104.7 E4.03958
G1 X155.382 Y104.712 E4.05399
G1 X156.102 Y104.752 E4.07797
G1 X156.631 Y104.8 E4.09564
G1 X156.977 Y104.843 E4.10723
G1 X157.799 Y104.99 E4.13501
G1 X158.229 Y105.091 E4.1497
G1 X158.9 Y105.281 E4.17289
G1 X159.298 Y105.413 E4.18684
G1 X159.926 Y105.651 E4.20918
G1 X160.335 Y105.827 E4.22399
G1 X160.96 Y106.13 E4.24709
G1 X161.393 Y106.364 E4.26346
G1 X161.988 Y106.721 E4.28654
G1 X162.375 Y106.977 E4.30197
G1 X162.884 Y107.343 E4.32282
G1 X163.18 Y107.575 E4.33533
G1 X163.811 Y108.127 E4.36321
G1 X164.071 Y108.381 E4.3753
G1 X164.152 Y108.451 E4.37886
G1 X164.653 Y108.981 E4.40312
G1 X164.915 Y109.286 E4.41649
G1 X165.318 Y109.797 E4.43814
G1 X165.645 Y110.249 E4.4567
G1 X166.036 Y110.845 E4.4804
G1 X166.193 Y111.11 E4.49065
G1 X166.49 Y111.661 E4.51147
G1 X166.708 Y112.107 E4.52798
G1 X167.012 Y112.816 E4.55364
G1 X167.158 Y113.209 E4.56758
G1 X167.349 Y113.795 E4.58808
G1 X167.483 Y114.267 E4.6044
G1 X167.676 Y115.128 E4.63375
G1 X167.737 Y115.498 E4.64622
G1 X167.804 Y116.004 E4.6632
G1 X167.861 Y116.584 E4.68258
G1 X167.898 Y117.347 E4.70799
G1 X167.898 Y117.753 E4.72149
G1 X167.861 Y118.515 E4.74686
G1 X167.823 Y118.902 E4.7598
G1 X167.742 Y119.494 E4.77967
G1 X167.659 Y119.965 E4.79558
G1 X167.491 Y120.702 E4.82072
G1 X167.373 Y121.126 E4.83536
G1 X167.156 Y121.789 E4.85856
G1 X166.982 Y122.25 E4.87495
G1 X166.668 Y122.972 E4.90114
G1 X166.447 Y123.416 E4.91763
G1 X166.142 Y123.97 E4.93867
G1 X165.938 Y124.308 E4.9518
G1 X165.517 Y124.935 E4.97692
G1 X165.255 Y125.287 E4.99151
G1 X164.911 Y125.716 E5.0098
G1 X164.665 Y126.002 E5.02235
G1 X164.12 Y126.575 E5.04865
G1 X163.808 Y126.871 E5.06295
G1 X163.495 Y127.155 E5.07701
G1 X163.179 Y127.423 E5.09079
G1 X162.937 Y127.617 E5.10111
G1 X162.297 Y128.078 E5.12734
G1 X161.897 Y128.337 E5.14319
G1 X161.411 Y128.628 E5.16203
G1 X161.043 Y128.83 E5.17599
G1 X160.375 Y129.156 E5.20072
G1 X159.878 Y129.37 E5.21871
G1 X159.134 Y129.646 E5.24511
G1 X158.848 Y129.736 E5.25508
G1 X158.272 Y129.894 E5.27494
G1 X157.721 Y130.022 E5.29376
G1 X157.014 Y130.152 E5.31767
G1 X156.634 Y130.204 E5.33042
G1 X155.923 Y130.268 E5.35417
G1 X155.384 Y130.292 E5.37211
G1 X155.038 Y130.3 E5.38362
G1 X150.022 Y130.301 E5.55046
G1 X152.073 Y140.264 E5.88878
G1 X152.193 Y141.044 E5.91502
G1 X152.233 Y141.833 E5.9413
G1 X152.193 Y142.622 E5.96758
G1 X152.074 Y143.402 E5.99382
G1 X151.877 Y144.167 E6.02009
G1 X151.603 Y144.907 E6.04634
G1 X151.256 Y145.617 E6.07262
G1 X150.838 Y146.287 E6.09889
G1 X150.544 Y146.683 E6.11529
G1 X150.429 Y146.828 E6.12145
G1 X149.908 Y147.421 E6.1477
G1 X149.329 Y147.958 E6.17397
G1 X148.699 Y148.434 E6.20023
G1 X148.024 Y148.844 E6.2265
G1 X147.311 Y149.184 E6.25277
G1 X146.568 Y149.45 E6.27902
G1 X145.801 Y149.639 E6.30529
G1 X145.019 Y149.749 E6.33156
G1 X144.318 Y149.781 E6.3549
G1 X139.977 Y149.781 E6.49928
G1 X139.188 Y149.741 E6.52556
G1 X138.408 Y149.622 E6.5518
G1 X137.643 Y149.424 E6.57808
G1 X136.903 Y149.15 E6.60433
G1 X136.439 Y148.933 E6.62136
G1 X136.103 Y148.762 E6.6339
G1 X135.418 Y148.368 E6.66019
G1 X134.777 Y147.908 E6.68643
G1 X134.185 Y147.385 E6.7127
G1 X133.65 Y146.804 E6.73897
G1 X133.175 Y146.173 E6.76524
G1 X132.767 Y145.497 E6.7915
G1 X132.43 Y144.783 E6.81776
G1 X132.166 Y144.039 E6.84402
G1 X132.004 Y143.395 E6.8661
G1 X131.198 Y139.511 E6.99804
G1 X131.077 Y138.731 E7.02429
G1 X131.035 Y137.942 E7.05057
G1 X131.042 Y137.796 E7.05543
G1 X129.835 Y131.986 E7.2528
G1 X129.803 Y131.911 E7.25551
G1 X129.668 Y131.481 E7.2705
G1 X129.537 Y131.181 E7.28139
G1 X129.145 Y131.211 E7.29447
G1 X128.356 Y131.19 E7.32072
G1 X127.572 Y131.091 E7.347
G1 X127.019 Y130.96 E7.3659
G1 X126.471 Y131.054 E7.3844
G1 X125.29 Y131.105 E7.42371
G1 X124.988 Y131.095 E7.43376
G1 X124.634 Y131.097 E7.44554
G1 X123.848 Y131.022 E7.4718
G1 X123.074 Y130.868 E7.49805
G1 X122.618 Y130.728 E7.51391
G1 X103.535 Y130.727 E8.14861
G1 X102.825 Y130.931 E8.17318
G1 X102.291 Y131.036 E8.19129
G1 X102.179 Y131.054 E8.19506
G1 X101.394 Y131.14 E8.22132
G1 X100.604 Y131.146 E8.2476
G1 X99.87 Y131.079 E8.27211
G1 X99.211 Y130.988 E8.29424
G1 X99.073 Y131.018 E8.29894
G1 X101.394 Y139.319 E8.58562
G1 X101.568 Y140.089 E8.61188
G1 X101.663 Y140.873 E8.63814
G1 X101.678 Y141.662 E8.66439
G1 X101.614 Y142.45 E8.69068
G1 X101.47 Y143.226 E8.71694
G1 X101.248 Y143.984 E8.74321
G1 X100.951 Y144.716 E8.76948
G1 X100.582 Y145.413 E8.79571
G1 X100.103 Y146.124 E8.82422
G1 X99.982 Y146.284 E8.8309
G1 X99.475 Y146.889 E8.85715
G1 X98.909 Y147.439 E8.8834
G1 X98.29 Y147.93 E8.90968
G1 X97.624 Y148.355 E8.93595
G1 X96.919 Y148.711 E8.96222
G1 X96.182 Y148.994 E8.98848
G1 X95.42 Y149.201 E9.01474
G1 X94.641 Y149.329 E9.041
G1 X93.761 Y149.379 E9.07032
G1 X89.413 Y149.379 E9.21493
G1 X88.624 Y149.339 E9.24121
G1 X87.844 Y149.22 E9.26745
G1 X87.079 Y149.022 E9.29373
G1 X86.339 Y148.748 E9.31998
G1 X85.63 Y148.4 E9.34625
G1 X84.645 Y147.752 E9.38546
G1 X84.544 Y147.674 E9.38971
G1 X83.945 Y147.161 E9.41594
G1 X83.4 Y146.589 E9.44222
G1 X82.916 Y145.965 E9.46848
G1 X82.497 Y145.296 E9.49474
G1 X82.148 Y144.587 E9.52102
G1 X81.803 Y143.61 E9.55548
G1 X79.837 Y136.613 E9.79721
G1 X78.633 Y132.293 E9.94637
G1 X78.457 Y131.879 E9.96134
G1 X78.216 Y131.4 E9.97917
G1 X78.098 Y131.092 E9.99014
G1 X77.341 Y131.05 E10.01536
G1 X77.084 Y131.01 E10.02401
G1 X76.329 Y130.941 E10.04922
G1 X75.554 Y130.79 E10.07549
G1 X74.798 Y130.561 E10.10176
G1 X73.576 Y130.055 E10.14575
G1 X73.219 Y129.874 E10.15906
G1 X72.916 Y129.711 E10.17051
G1 X72.24 Y129.302 E10.19678
G1 X71.609 Y128.827 E10.22305
G1 X71.03 Y128.291 E10.2493
G1 X70.507 Y127.699 E10.27557
G1 X70.048 Y127.057 E10.30182
G1 X69.678 Y126.416 E10.32644
G1 X69.349 Y125.697 E10.35273
G1 X69.026 Y124.69 E10.38791
G1 X68.956 Y124.407 E10.3976
G1 X68.806 Y123.632 E10.42386
G1 X68.741 Y122.985 E10.44549
G1 X68.737 Y122.916 E10.44779
G1 X68.724 Y122.464 E10.46282
G1 X68.725 Y112.474 E10.79509
G1 X68.765 Y111.686 E10.82134
G1 X68.935 Y110.677 E10.85537
G1 X69.007 Y110.373 E10.86576
G1 X69.228 Y109.615 E10.89202
G1 X69.524 Y108.883 E10.91828
G1 X69.723 Y108.485 E10.93308
G1 X70.129 Y107.808 E10.95934
G1 X70.602 Y107.176 E10.98559
G1 X71.136 Y106.594 E11.01186
G1 X71.727 Y106.07 E11.03813
G1 X72.367 Y105.608 E11.06439
G1 X72.75 Y105.384 E11.07915
G1 X72.934 Y105.258 E11.08656
G1 X73.626 Y104.878 E11.11282
G1 X74.353 Y104.57 E11.13908
G1 X75.108 Y104.337 E11.16536
G1 X75.678 Y104.223 E11.18469
G1 X75.835 Y104.172 E11.19019
G1 X76.607 Y104.005 E11.21646
G1 X77.392 Y103.918 E11.24273
G1 X77.861 Y103.904 E11.25833
G1 X78.082 Y103.904 E11.26568
G1 X78.183 Y103.727 E11.27246
G1 X78.491 Y103.053 E11.29711
G1 X78.575 Y102.822 E11.30528
G1 X78.638 Y102.69 E11.31015
G1 X81.79 Y91.407 E11.69979
G1 X82.04 Y90.658 E11.72605
G1 X82.365 Y89.938 E11.75233
G1 X82.762 Y89.255 E11.7786
G1 X83.225 Y88.615 E11.80487
G1 X83.75 Y88.026 E11.83112
G0 F6000 X84.106 Y88.236
G1 F1200 X84.887 Y87.566 E11.86534
G1 X85 Y87.482 E11.87003
G1 X85.641 Y87.056 E11.89562
G1 X86.322 Y86.699 E11.9212
G1 X87.036 Y86.414 E11.94677
G1 X87.776 Y86.205 E11.97234
G1 X88.534 Y86.074 E11.99793
G1 X89.415 Y86.021 E12.02728
G1 X93.763 Y86.021 E12.1719
G1 X94.531 Y86.061 E12.19748
G1 X95.291 Y86.18 E12.22306
G1 X96.034 Y86.378 E12.24864
G1 X96.753 Y86.652 E12.27423
G1 X97.439 Y86.999 E12.2998
G1 X98.086 Y87.415 E12.32538
G1 X98.686 Y87.896 E12.35096
G1 X99.233 Y88.437 E12.37655
G1 X99.665 Y88.957 E12.39903
G1 X99.786 Y89.117 E12.4057
G1 X100.218 Y89.754 E12.4313
G1 X100.581 Y90.432 E12.45688
G1 X100.871 Y91.144 E12.48245
G1 X101.087 Y91.883 E12.50806
G1 X101.224 Y92.64 E12.53365
G1 X101.282 Y93.407 E12.55923
G1 X101.26 Y94.175 E12.58478
G1 X101.159 Y94.938 E12.61038
G1 X101.011 Y95.573 E12.63207
G1 X98.543 Y104.402 E12.93698
G1 X98.708 Y104.451 E12.94271
G1 X98.963 Y104.399 E12.95136
G1 X99.534 Y104.336 E12.97047
G1 X99.941 Y104.307 E12.98404
G1 X100.725 Y104.292 E13.01012
G1 X101.07 Y104.304 E13.0216
G1 X101.408 Y104.304 E13.03284
G1 X102.173 Y104.384 E13.05843
G1 X102.926 Y104.543 E13.08402
G1 X103.326 Y104.672 E13.098
G1 X122.576 Y104.673 E13.73826
G1 X123.024 Y104.526 E13.75394
G1 X123.667 Y104.383 E13.77585
G1 X123.825 Y104.355 E13.78119
G1 X124.588 Y104.26 E13.80676
G1 X125.357 Y104.245 E13.83234
G1 X126.182 Y104.318 E13.85989
G1 X126.504 Y104.365 E13.87071
G1 X126.683 Y104.311 E13.87693
G1 X127.439 Y104.167 E13.90253
G1 X128.205 Y104.103 E13.92809
G1 X128.974 Y104.118 E13.95368
G1 X129.776 Y104.227 E13.9806
G1 X130.008 Y103.636 E14.00171
G1 X130.117 Y103.425 E14.00961
G1 X130.227 Y103.1 E14.02102
G1 X131.449 Y97.219 E14.2208
G1 X131.443 Y97.133 E14.22367
G1 X131.473 Y96.365 E14.24924
G1 X131.59 Y95.566 E14.27609
G1 X131.916 Y93.958 E14.33066
G1 X132.406 Y91.6 E14.41077
G1 X132.601 Y90.857 E14.43632
G1 X132.873 Y90.137 E14.46192
G1 X133.218 Y89.449 E14.48751
G1 X133.632 Y88.801 E14.51309
G1 X134.111 Y88.2 E14.53865
G1 X134.65 Y87.651 E14.56424
G1 X135.009 Y87.343 E14.57997
G1 X135.117 Y87.256 E14.58459
G1 X135.74 Y86.805 E14.61017
G1 X136.407 Y86.422 E14.63575
G1 X137.11 Y86.11 E14.66133
G1 X137.841 Y85.872 E14.6869
G1 X138.593 Y85.711 E14.71248
G1 X139.358 Y85.63 E14.73806
G1 X139.759 Y85.619 E14.75141
G1 X144.323 Y85.619 E14.9032
G1 X145.091 Y85.659 E14.92878
G1 X145.851 Y85.778 E14.95437
G1 X146.594 Y85.976 E14.97994
G1 X147.313 Y86.25 E15.00554
G1 X147.999 Y86.597 E15.0311
G1 X148.646 Y87.013 E15.05669
G1 X149.246 Y87.494 E15.08227
G1 X150.039 Y88.319 E15.12033
G1 X150.164 Y88.471 E15.12687
G1 X150.621 Y89.089 E15.15244
G1 X151.011 Y89.752 E15.17802
G1 X151.33 Y90.452 E15.2036
G1 X151.575 Y91.181 E15.22918
G1 X151.743 Y91.931 E15.25475
G1 X151.833 Y92.695 E15.28033
G1 X151.842 Y93.465 E15.30595
G1 X151.772 Y94.23 E15.3315
G1 X151.693 Y94.676 E15.34656
G1 X149.528 Y105.1 E15.70066
G1 X154.949 Y105.1 E15.88097
G1 X155.359 Y105.111 E15.89461
G1 X156.079 Y105.151 E15.91859
G1 X156.582 Y105.196 E15.93539
G1 X156.928 Y105.239 E15.94699
G1 X157.707 Y105.379 E15.97331
G1 X158.137 Y105.48 E15.988
G1 X158.774 Y105.66 E16.01002
G1 X159.172 Y105.792 E16.02396
G1 X159.768 Y106.019 E16.04518
G1 X160.177 Y106.195 E16.05999
G1 X160.77 Y106.482 E16.0819
G1 X161.203 Y106.716 E16.09827
G1 X161.768 Y107.054 E16.12017
G1 X162.155 Y107.31 E16.1356
G1 X162.637 Y107.658 E16.15537
G1 X162.933 Y107.89 E16.16788
G1 X163.532 Y108.414 E16.19435
G1 X163.814 Y108.689 E16.20745
G1 X163.917 Y108.78 E16.21202
G1 X164.349 Y109.242 E16.23306
G1 X164.611 Y109.547 E16.24643
G1 X164.994 Y110.032 E16.26699
G1 X165.321 Y110.484 E16.28554
G1 X165.692 Y111.049 E16.30802
G1 X165.849 Y111.314 E16.31827
G1 X166.13 Y111.836 E16.33799
G1 X166.348 Y112.282 E16.3545
G1 X166.637 Y112.955 E16.37886
G1 X166.783 Y113.348 E16.3928
G1 X166.965 Y113.904 E16.41226
G1 X167.099 Y114.376 E16.42858
G1 X167.281 Y115.193 E16.45642
G1 X167.342 Y115.563 E16.46889
G1 X167.406 Y116.043 E16.485
G1 X167.463 Y116.623 E16.50438
G1 X167.498 Y117.347 E16.52849
G1 X167.498 Y117.753 E16.54199
G1 X167.463 Y118.476 E16.56607
G1 X167.425 Y118.863 E16.579
G1 X167.348 Y119.424 E16.59784
G1 X167.265 Y119.895 E16.61374
G1 X167.106 Y120.595 E16.63762
G1 X166.988 Y121.019 E16.65226
G1 X166.782 Y121.648 E16.67427
G1 X166.608 Y122.109 E16.69066
G1 X166.31 Y122.793 E16.71548
G1 X166.089 Y123.237 E16.73197
G1 X165.8 Y123.764 E16.75196
G1 X165.596 Y124.102 E16.76509
G1 X165.196 Y124.696 E16.78891
G1 X164.934 Y125.048 E16.80351
G1 X164.608 Y125.456 E16.82088
G1 X164.362 Y125.742 E16.83342
G1 X163.845 Y126.284 E16.85834
G1 X163.533 Y126.58 E16.87264
G1 X163.229 Y126.857 E16.88632
G1 X162.929 Y127.111 E16.89939
G1 X162.687 Y127.305 E16.90971
G1 X162.08 Y127.743 E16.9346
G1 X161.68 Y128.002 E16.95045
G1 X161.219 Y128.277 E16.96831
G1 X160.851 Y128.479 E16.98227
G1 X160.217 Y128.789 E17.00574
G1 X159.72 Y129.003 E17.02374
G1 X159.014 Y129.265 E17.04879
G1 X158.728 Y129.355 E17.05876
G1 X158.181 Y129.504 E17.07762
G1 X157.63 Y129.632 E17.09643
G1 X156.959 Y129.756 E17.11913
