;FLAVOR:Marlin
;TIME:6603
;Filament used: 3.49284m
;Layer height: 0.2
;MINX:77.538
;MINY:85.831
;MINZ:0.2
;MAXX:156.226
;MAXY:149.169
;MAXZ:29.8
;Generated with Cura_SteamEngine 4.9.0
M140 S50
M105
M190 S50
M104 S200
M105
M109 S200
M82 ;absolute extrusion mode
; Ender 3 Custom Start G-code
G92 E0 ; Reset Extruder
G28 ; Home all axes
G1 Z2.0 F3000 ; Move Z Axis up little to prevent scratching of Heat Bed
G1 X0.1 Y20 Z0.3 F5000.0 ; Move to start position
G1 X0.1 Y200.0 Z0.3 F1500.0 E15 ; Draw the first line
G1 X0.4 Y200.0 Z0.3 F5000.0 ; Move to side a little
G1 X0.4 Y20 Z0.3 F1500.0 E30 ; Draw the second line
G92 E0 ; Reset Extruder
G1 Z2.0 F3000 ; Move Z Axis up little to prevent scratching of Heat Bed
G1 X5 Y20 Z0.3 F5000.0 ; Move over to prevent blob squish
G92 E0
G92 E0
G1 F2700 E-5
;LAYER_COUNT:149
;LAYER:0
M107
G0 F6000 X82.66 Y107.263 Z0.2
;TYPE:SKIRT
G1 F2700 E0
G1 F1200 X83.023 Y107 E0.01491
G1 X83.677 Y106.574 E0.04087
G1 X84.038 Y106.364 E0.05476
G1 X84.536 Y106.098 E0.07354
G1 X84.972 Y105.885 E0.08968
G1 X85.482 Y105.658 E0.10824
G1 X85.78 Y105.538 E0.11893
G1 X86.513 Y105.284 E0.14473
G1 X86.925 Y105.164 E0.159
G1 X87.45 Y105.031 E0.17702
G1 X87.832 Y104.948 E0.19002
G1 X88.586 Y104.822 E0.21544
G1 X89.041 Y104.769 E0.23068
G1 X89.551 Y104.727 E0.2477
G1 X89.889 Y104.71 E0.25896
G1 X90.28 Y104.7 E0.27197
G1 X96.4 Y104.699 E0.47552
G1 X96.868 Y104.582 E0.49156
G1 X97.65 Y104.468 E0.51785
G1 X98.176 Y104.445 E0.53536
G1 X98.552 Y104.329 E0.54845
G1 X99.193 Y104.201 E0.57019
G1 X99.359 Y104.15 E0.57596
G1 X100.133 Y103.993 E0.60223
G1 X100.901 Y103.917 E0.6279
G1 X102.125 Y103.856 E0.66866
G1 X102.331 Y103.383 E0.68582
G1 X102.894 Y102.428 E0.72269
G1 X103.191 Y101.998 E0.74007
G1 X103.288 Y101.816 E0.74693
G1 X106.954 Y91.401 E1.11417
G1 X107.254 Y90.671 E1.14042
G1 X107.626 Y89.974 E1.1667
G1 X108.066 Y89.319 E1.19294
G1 X108.571 Y88.711 E1.21923
G1 X109.134 Y88.158 E1.24548
G1 X109.843 Y87.598 E1.27553
G1 X109.946 Y87.526 E1.27971
G1 X110.615 Y87.107 E1.30596
G1 X111.324 Y86.758 E1.33225
G1 X112.064 Y86.482 E1.35851
G1 X112.828 Y86.282 E1.38478
G1 X113.608 Y86.161 E1.41103
G1 X114.415 Y86.119 E1.43791
G1 X118.757 Y86.119 E1.58233
G1 X119.546 Y86.159 E1.6086
G1 X120.326 Y86.278 E1.63485
G1 X121.091 Y86.476 E1.66113
G1 X121.831 Y86.75 E1.68737
G1 X122.54 Y87.098 E1.71364
G1 X123.211 Y87.516 E1.73994
G1 X123.835 Y87.999 E1.76618
G1 X124.408 Y88.542 E1.79244
G1 X125.129 Y89.421 E1.83025
G1 X125.249 Y89.591 E1.83717
G1 X125.672 Y90.258 E1.86344
G1 X126.024 Y90.965 E1.88971
G1 X126.303 Y91.704 E1.91598
G1 X126.506 Y92.467 E1.94224
G1 X126.631 Y93.246 E1.96848
G1 X126.677 Y94.035 E1.99477
G1 X126.642 Y94.824 E2.02104
G1 X126.528 Y95.605 E2.04729
G1 X126.241 Y96.661 E2.08369
G1 X125.416 Y99.021 E2.16684
G1 X123.562 Y104.273 E2.35208
G1 X130.999 Y104.273 E2.59944
G1 X131.11 Y104.006 E2.60906
G1 X131.327 Y103.628 E2.62355
G1 X131.466 Y103.248 E2.63701
G1 X131.811 Y102.537 E2.6633
G1 X132.074 Y102.096 E2.68038
G1 X132.237 Y101.841 E2.69044
G1 X132.412 Y101.523 E2.70251
G1 X132.464 Y101.404 E2.70683
G1 X135.588 Y91.387 E3.05583
G1 X135.861 Y90.646 E3.08209
G1 X136.207 Y89.936 E3.10836
G1 X136.624 Y89.265 E3.13464
G1 X137.106 Y88.64 E3.16089
G1 X137.649 Y88.066 E3.18717
G1 X138.383 Y87.448 E3.21908
G1 X138.488 Y87.37 E3.22343
G1 X139.145 Y86.931 E3.24971
G1 X139.842 Y86.562 E3.27594
G1 X140.574 Y86.265 E3.30222
G1 X141.332 Y86.043 E3.32849
G1 X142.109 Y85.899 E3.35477
G1 X143.139 Y85.831 E3.3891
G1 X148.306 Y85.831 E3.56096
G1 X149.095 Y85.871 E3.58724
G1 X149.875 Y85.99 E3.61348
G1 X150.64 Y86.188 E3.63976
G1 X151.38 Y86.462 E3.66601
G1 X152.089 Y86.81 E3.69228
G1 X152.76 Y87.228 E3.71857
G1 X153.384 Y87.711 E3.74481
G1 X153.957 Y88.254 E3.77107
G1 X154.587 Y89.007 E3.80373
G1 X154.707 Y89.17 E3.81046
G1 X155.143 Y89.828 E3.83671
G1 X155.509 Y90.528 E3.86298
G1 X155.803 Y91.261 E3.88925
G1 X156.022 Y92.02 E3.91553
G1 X156.162 Y92.797 E3.94178
G1 X156.223 Y93.584 E3.96804
G1 X156.204 Y94.374 E3.99432
G1 X156.106 Y95.157 E4.02057
G1 X155.876 Y96.105 E4.05301
G1 X155.218 Y98.227 E4.12691
G1 X154.436 Y100.721 E4.21384
G1 X152.957 Y105.494 E4.38004
G1 X152.944 Y106.079 E4.3995
G1 X152.886 Y106.866 E4.42575
G1 X152.762 Y107.571 E4.44955
G1 X153.105 Y108.013 E4.46816
G1 X153.524 Y108.683 E4.49445
G1 X153.873 Y109.391 E4.5207
G1 X154.148 Y110.131 E4.54696
G1 X154.406 Y111.213 E4.58395
G1 X154.496 Y111.997 E4.6102
G1 X154.512 Y112.495 E4.62677
G1 X154.512 Y122.486 E4.95907
G1 X154.49 Y123.072 E4.97858
G1 X154.395 Y123.856 E5.00484
G1 X154.285 Y124.385 E5.02282
G1 X154.212 Y124.683 E5.03302
G1 X153.986 Y125.439 E5.05926
G1 X153.684 Y126.169 E5.08554
G1 X153.31 Y126.865 E5.11182
G1 X152.867 Y127.519 E5.13809
G1 X152.813 Y127.583 E5.14088
G1 X152.829 Y127.655 E5.14333
G1 X152.932 Y128.755 E5.18008
G1 X152.948 Y129.477 E5.2041
G1 X154.021 Y132.911 E5.32376
G1 X155.876 Y138.896 E5.53216
G1 X156.072 Y139.661 E5.55843
G1 X156.189 Y140.442 E5.58469
G1 X156.226 Y141.231 E5.61096
G1 X156.183 Y142.019 E5.63721
G1 X156.061 Y142.799 E5.66347
G1 X155.861 Y143.563 E5.68974
G1 X155.584 Y144.303 E5.71602
G1 X155.234 Y145.011 E5.74229
G1 X154.703 Y145.836 E5.77492
G1 X154.582 Y146 E5.7817
G1 X154.081 Y146.611 E5.80798
G1 X153.522 Y147.168 E5.83422
G1 X152.908 Y147.666 E5.86052
G1 X152.248 Y148.099 E5.88677
G1 X151.548 Y148.463 E5.91301
G1 X150.814 Y148.755 E5.93929
G1 X150.054 Y148.97 E5.96556
G1 X149.276 Y149.108 E5.99184
G1 X148.305 Y149.169 E6.0242
G1 X143.139 Y149.169 E6.19602
G1 X142.35 Y149.129 E6.2223
G1 X141.57 Y149.01 E6.24854
G1 X140.805 Y148.812 E6.27482
G1 X140.065 Y148.538 E6.30107
G1 X139.356 Y148.19 E6.32733
G1 X138.526 Y147.659 E6.36011
G1 X138.421 Y147.582 E6.36444
G1 X137.809 Y147.083 E6.3907
G1 X137.25 Y146.525 E6.41697
G1 X136.751 Y145.914 E6.44321
G1 X136.316 Y145.255 E6.46947
G1 X135.949 Y144.555 E6.49576
G1 X135.587 Y143.613 E6.52933
G1 X133.095 Y135.619 E6.80783
G1 X132.899 Y134.855 E6.83406
G1 X132.84 Y134.464 E6.84721
G1 X132.426 Y133.497 E6.8822
G1 X132.281 Y133.24 E6.89201
G1 X131.945 Y132.683 E6.91365
G1 X131.572 Y131.987 E6.93991
G1 X131.353 Y131.459 E6.95892
G1 X131.259 Y131.304 E6.96495
G1 X130.983 Y130.728 E6.9862
G1 X123.557 Y130.728 E7.23319
G1 X126.233 Y138.313 E7.5007
G1 X126.457 Y139.07 E7.52696
G1 X126.604 Y139.846 E7.55323
G1 X126.672 Y140.633 E7.5795
G1 X126.66 Y141.422 E7.60575
G1 X126.568 Y142.207 E7.63204
G1 X126.397 Y142.978 E7.6583
G1 X126.15 Y143.727 E7.68454
G1 X125.827 Y144.448 E7.71081
G1 X125.251 Y145.403 E7.74791
G1 X125.129 Y145.576 E7.75495
G1 X124.642 Y146.198 E7.78122
G1 X124.095 Y146.767 E7.80747
G1 X123.492 Y147.278 E7.83376
G1 X122.842 Y147.725 E7.86
G1 X122.149 Y148.104 E7.88627
G1 X121.421 Y148.411 E7.91255
G1 X120.667 Y148.643 E7.93879
G1 X119.892 Y148.798 E7.96507
G1 X118.755 Y148.881 E8.00299
G1 X114.423 Y148.881 E8.14707
G1 X113.634 Y148.841 E8.17335
G1 X112.854 Y148.722 E8.19959
G1 X112.089 Y148.524 E8.22588
G1 X111.349 Y148.25 E8.25212
G1 X110.64 Y147.902 E8.27839
G1 X110.068 Y147.552 E8.30069
G1 X109.964 Y147.482 E8.30486
G1 X109.332 Y147.008 E8.33114
G1 X108.751 Y146.473 E8.35741
G1 X108.227 Y145.882 E8.38368
G1 X107.766 Y145.241 E8.40994
G1 X107.372 Y144.557 E8.43619
G1 X106.965 Y143.61 E8.47048
G1 X103.284 Y133.193 E8.83794
G1 X103.229 Y133.057 E8.84282
G1 X103.02 Y132.756 E8.85501
G1 X102.175 Y131.598 E8.90269
G1 X101.856 Y131.11 E8.92208
G1 X101.664 Y131.126 E8.92849
G1 X100.875 Y131.109 E8.95474
G1 X100.091 Y131.013 E8.98101
G1 X99.701 Y130.934 E8.99424
G1 X98.726 Y130.712 E9.0275
G1 X98.307 Y130.594 E9.04198
G1 X97.577 Y130.557 E9.06629
G1 X96.797 Y130.438 E9.09253
G1 X96.264 Y130.3 E9.11085
G1 X90.223 Y130.3 E9.31177
G1 X89.917 Y130.294 E9.32195
G1 X89.637 Y130.283 E9.33127
G1 X88.941 Y130.224 E9.3545
G1 X88.524 Y130.17 E9.36849
G1 X87.919 Y130.068 E9.38889
G1 X87.482 Y129.976 E9.40375
G1 X86.766 Y129.789 E9.42836
G1 X86.407 Y129.677 E9.44087
G1 X86.409 Y129.669 E9.44114
G1 X85.728 Y129.441 E9.46503
G1 X85.481 Y129.341 E9.47389
G1 X85.064 Y129.158 E9.48904
G1 X84.594 Y128.935 E9.50634
G1 X83.958 Y128.596 E9.53031
G1 X83.604 Y128.386 E9.544
G1 X82.984 Y127.977 E9.5687
G1 X82.68 Y127.755 E9.58122
G1 X82.249 Y127.417 E9.59944
G1 X81.871 Y127.098 E9.61589
G1 X81.352 Y126.618 E9.63941
G1 X81.113 Y126.376 E9.65072
G1 X80.715 Y125.941 E9.67033
G1 X80.424 Y125.598 E9.68529
G1 X80.01 Y125.065 E9.70774
G1 X79.783 Y124.745 E9.72079
G1 X79.453 Y124.239 E9.74088
G1 X79.247 Y123.895 E9.75421
G1 X78.868 Y123.181 E9.7811
G1 X78.644 Y122.7 E9.79875
G1 X78.429 Y122.193 E9.81706
G1 X78.325 Y121.921 E9.82675
G1 X78.133 Y121.353 E9.84669
G1 X78.009 Y120.935 E9.86119
G1 X77.869 Y120.394 E9.87978
G1 X77.777 Y119.976 E9.89402
G1 X77.636 Y119.102 E9.92346
G1 X77.592 Y118.677 E9.93767
G1 X77.56 Y118.249 E9.95195
G1 X77.542 Y117.875 E9.9644
G1 X77.538 Y117.235 E9.98569
G1 X77.554 Y116.765 E10.00133
G1 X77.632 Y115.895 E10.03038
G1 X77.687 Y115.521 E10.04295
G1 X77.768 Y115.067 E10.05829
G1 X77.85 Y114.673 E10.07168
G1 X78.028 Y113.979 E10.09551
G1 X78.148 Y113.587 E10.10914
G1 X78.338 Y113.038 E10.12847
G1 X78.481 Y112.671 E10.14157
G1 X78.737 Y112.087 E10.16277
G1 X78.946 Y111.658 E10.17865
G1 X79.312 Y110.991 E10.20395
G1 X79.508 Y110.672 E10.2164
G1 X79.781 Y110.258 E10.2329
G1 X79.992 Y109.959 E10.24507
G1 X80.402 Y109.428 E10.26738
G1 X80.746 Y109.02 E10.28513
G1 X81.194 Y108.533 E10.30714
G1 X81.365 Y108.362 E10.31518
G1 X81.873 Y107.896 E10.33811
G1 X82.229 Y107.598 E10.35355
G1 X82.66 Y107.263 E10.37171
G0 F6000 X82.894 Y107.587
G1 F1200 X83.257 Y107.324 E10.38662
G1 X83.878 Y106.92 E10.41126
G1 X84.239 Y106.71 E10.42515
G1 X84.712 Y106.457 E10.44299
G1 X85.148 Y106.244 E10.45913
G1 X85.632 Y106.029 E10.47675
G1 X85.93 Y105.909 E10.48743
G1 X86.625 Y105.668 E10.5119
G1 X87.037 Y105.548 E10.52617
G1 X87.535 Y105.422 E10.54326
G1 X87.917 Y105.339 E10.55626
G1 X88.632 Y105.22 E10.58037
G1 X89.087 Y105.167 E10.5956
G1 X89.571 Y105.126 E10.61176
G1 X89.909 Y105.109 E10.62301
G1 X90.28 Y105.1 E10.63536
G1 X96.429 Y105.099 E10.83987
G1 X97.123 Y104.941 E10.86355
G1 X97.886 Y104.85 E10.8891
G1 X98.228 Y104.845 E10.90048
G1 X98.766 Y104.688 E10.91912
G1 X99.203 Y104.618 E10.93384
G1 X99.477 Y104.533 E10.94338
G1 X100.232 Y104.383 E10.96898
G1 X100.921 Y104.316 E10.99201
G1 X102.298 Y104.247 E11.03786
G1 X102.37 Y104.247 E11.04026
G1 X102.474 Y104.052 E11.04761
G1 X102.716 Y103.507 E11.06744
G1 X103.223 Y102.655 E11.10042
G1 X103.534 Y102.204 E11.11864
G1 X103.656 Y101.98 E11.12712
G1 X107.332 Y91.534 E11.49544
G1 X107.624 Y90.823 E11.52101
G1 X107.989 Y90.146 E11.54659
G1 X108.423 Y89.51 E11.5722
G1 X108.92 Y88.923 E11.59778
G1 X109.475 Y88.391 E11.62335
G1 X110.072 Y87.926 E11.64852
G1 X110.175 Y87.854 E11.6527
G1 X110.828 Y87.447 E11.67829
G1 X111.519 Y87.109 E11.70388
G1 X112.241 Y86.845 E11.72944
G1 X112.987 Y86.658 E11.75502
G1 X113.749 Y86.549 E11.78063
G1 X114.415 Y86.519 E11.8028
G1 X118.757 Y86.519 E11.94722
G1 X119.525 Y86.559 E11.97279
G1 X120.285 Y86.678 E11.99838
G1 X121.028 Y86.876 E12.02395
G1 X121.747 Y87.15 E12.04955
G1 X122.433 Y87.497 E12.07512
G1 X123.08 Y87.913 E12.1007
G1 X123.68 Y88.394 E12.12628
G1 X124.227 Y88.935 E12.15186
G1 X124.803 Y89.652 E12.18245
G1 X124.923 Y89.822 E12.18938
G1 X125.333 Y90.472 E12.21494
G1 X125.673 Y91.162 E12.24052
G1 X125.941 Y91.883 E12.2661
G1 X126.131 Y92.628 E12.29168
G1 X126.244 Y93.389 E12.31726
G1 X126.277 Y94.158 E12.34287
G1 X126.23 Y94.925 E12.36842
G1 X126.103 Y95.684 E12.39402
G1 X125.863 Y96.529 E12.42324
G1 X125.039 Y98.888 E12.50634
G1 X122.997 Y104.673 E12.71039
G1 X131.264 Y104.673 E12.98535
G1 X131.497 Y104.124 E13.00519
G1 X131.698 Y103.778 E13.0185
G1 X131.858 Y103.349 E13.03373
G1 X132.201 Y102.66 E13.05932
G1 X132.411 Y102.311 E13.07287
G1 X132.576 Y102.053 E13.08306
G1 X132.774 Y101.695 E13.09666
G1 X132.838 Y101.547 E13.10203
G1 X135.97 Y91.506 E13.45186
G1 X136.236 Y90.784 E13.47745
G1 X136.577 Y90.095 E13.50302
G1 X136.987 Y89.444 E13.52861
G1 X137.462 Y88.839 E13.55419
G1 X137.998 Y88.287 E13.57979
G1 X138.621 Y87.769 E13.60673
G1 X138.726 Y87.691 E13.61108
G1 X139.367 Y87.265 E13.63668
G1 X140.048 Y86.908 E13.66226
G1 X140.762 Y86.623 E13.68783
G1 X141.503 Y86.414 E13.71343
G1 X142.261 Y86.283 E13.73902
G1 X143.139 Y86.231 E13.76827
G1 X148.306 Y86.231 E13.94013
G1 X149.074 Y86.271 E13.96571
G1 X149.834 Y86.39 E13.99129
G1 X150.577 Y86.588 E14.01687
G1 X151.296 Y86.862 E14.04246
G1 X151.982 Y87.209 E14.06803
G1 X152.629 Y87.625 E14.09361
G1 X153.229 Y88.106 E14.11919
G1 X153.776 Y88.647 E14.14478
G1 X154.265 Y89.244 E14.17044
G1 X154.385 Y89.407 E14.17717
G1 X154.808 Y90.049 E14.20275
G1 X155.163 Y90.732 E14.22835
G1 X155.444 Y91.448 E14.25393
G1 X155.65 Y92.189 E14.27951
G1 X155.777 Y92.947 E14.30507
G1 X155.826 Y93.715 E14.33067
G1 X155.794 Y94.483 E14.35624
G1 X155.682 Y95.244 E14.38182
G1 X155.494 Y95.986 E14.40728
G1 X154.836 Y98.107 E14.48114
G1 X154.062 Y100.577 E14.56723
G1 X152.559 Y105.43 E14.73621
G1 X152.544 Y106.07 E14.7575
G1 X152.487 Y106.837 E14.78308
G1 X152.35 Y107.594 E14.80867
G1 X152.335 Y107.672 E14.81131
G1 X152.789 Y108.258 E14.83596
G1 X153.194 Y108.912 E14.86155
G1 X153.529 Y109.605 E14.88715
G1 X153.79 Y110.328 E14.91272
G1 X154.011 Y111.278 E14.94516
G1 X154.098 Y112.043 E14.97076
G1 X154.112 Y112.495 E14.98581
G1 X154.112 Y122.486 E15.31811
G1 X154.091 Y123.044 E15.33668
G1 X153.998 Y123.807 E15.36225
G1 X153.896 Y124.29 E15.37866
G1 X153.823 Y124.588 E15.38887
G1 X153.602 Y125.324 E15.41443
G1 X153.305 Y126.034 E15.44003
G1 X152.936 Y126.709 E15.46561
G1 X152.499 Y127.342 E15.4912
G1 X152.381 Y127.48 E15.49723
G1 X152.444 Y127.78 E15.50743
G1 X152.532 Y128.764 E15.54029
G1 X152.55 Y129.542 E15.56617
G1 X153.639 Y133.029 E15.68767
G1 X155.494 Y139.014 E15.89608
G1 X155.683 Y139.76 E15.92167
G1 X155.794 Y140.521 E15.94725
G1 X155.826 Y141.289 E15.97282
G1 X155.777 Y142.057 E15.99841
G1 X155.649 Y142.815 E16.02398
G1 X155.442 Y143.556 E16.04957
G1 X155.16 Y144.272 E16.07517
G1 X154.806 Y144.955 E16.10075
G1 X154.381 Y145.598 E16.12639
G1 X154.26 Y145.762 E16.13317
G1 X153.771 Y146.357 E16.15878
G1 X153.224 Y146.897 E16.18435
G1 X152.624 Y147.378 E16.20993
G1 X151.977 Y147.794 E16.23551
G1 X151.29 Y148.14 E16.26109
G1 X150.571 Y148.413 E16.28667
G1 X149.828 Y148.611 E16.31225
G1 X149.068 Y148.73 E16.33783
G1 X148.305 Y148.769 E16.36324
G1 X143.139 Y148.769 E16.53507
G1 X142.371 Y148.729 E16.56064
G1 X141.611 Y148.61 E16.58623
G1 X140.868 Y148.412 E16.6118
G1 X140.149 Y148.138 E16.6374
G1 X139.463 Y147.791 E16.66297
G1 X138.763 Y147.336 E16.69073
G1 X138.658 Y147.259 E16.69506
G1 X138.062 Y146.773 E16.72064
G1 X137.52 Y146.227 E16.74623
G1 X137.038 Y145.628 E16.7718
G1 X136.62 Y144.982 E16.79739
G1 X136.271 Y144.297 E16.82296
G1 X135.969 Y143.494 E16.8515
G1 X133.477 Y135.5 E17.13
G1 X133.287 Y134.755 E17.15557
G1 X133.228 Y134.357 E17.16895
G1 X132.781 Y133.311 E17.20679
G1 X132.621 Y133.028 E17.2176
G1 X132.288 Y132.476 E17.23904
G1 X131.925 Y131.798 E17.26462
G1 X131.714 Y131.283 E17.28313
G1 X131.601 Y131.096 E17.2904
G1 X131.272 Y130.4 E17.316
G1 X131.247 Y130.328 E17.31854
G1 X122.991 Y130.328 E17.59313
G1 X125.855 Y138.446 E17.87945
G1 X126.073 Y139.184 E17.90505
G1 X126.213 Y139.94 E17.93062
G1 X126.274 Y140.707 E17.95621
G1 X126.255 Y141.476 E17.98179
G1 X126.156 Y142.238 E18.00735
G1 X125.979 Y142.987 E18.03295
G1 X125.725 Y143.713 E18.05853
G1 X125.397 Y144.408 E18.08409
G1 X124.924 Y145.173 E18.11401
G1 X124.802 Y145.346 E18.12105
G1 X124.327 Y145.95 E18.1466
G1 X123.792 Y146.502 E18.17217
G1 X123.202 Y146.996 E18.19777
G1 X122.564 Y147.426 E18.22336
G1 X121.885 Y147.787 E18.24893
G1 X121.172 Y148.075 E18.27451
G1 X120.433 Y148.288 E18.30009
G1 X119.675 Y148.424 E18.3257
G1 X118.755 Y148.481 E18.35636
G1 X114.423 Y148.481 E18.50044
G1 X113.655 Y148.441 E18.52602
G1 X112.895 Y148.322 E18.55161
G1 X112.152 Y148.124 E18.57718
G1 X111.433 Y147.85 E18.60277
G1 X110.747 Y147.503 E18.62834
G1 X110.291 Y147.22 E18.64619
G1 X110.187 Y147.15 E18.65036
G1 X109.572 Y146.688 E18.67595
G1 X109.008 Y146.165 E18.70153
G1 X108.502 Y145.585 E18.72713
