;FLAVOR:Marlin
;TIME:5874
;Filament used: 2.87867m
;Layer height: 0.2
;MINX:77.787
;MINY:85.831
;MINZ:0.2
;MAXX:156.169
;MAXY:149.169
;MAXZ:29.8
;Generated with Cura_SteamEngine 4.9.1
M140 S50
M105
M190 S50
M104 S200
M105
M109 S200
M82 ;absolute extrusion mode
; Ender 3 Custom Start G-code
G92 E0 ; Reset Extruder
G28 ; Home all axes
G1 Z2.0 F3000 ; Move Z Axis up little to prevent scratching of Heat Bed
G1 X0.1 Y20 Z0.3 F5000.0 ; Move to start position
G1 X0.1 Y200.0 Z0.3 F1500.0 E15 ; Draw the first line
G1 X0.4 Y200.0 Z0.3 F5000.0 ; Move to side a little
G1 X0.4 Y20 Z0.3 F1500.0 E30 ; Draw the second line
G92 E0 ; Reset Extruder
G1 Z2.0 F3000 ; Move Z Axis up little to prevent scratching of Heat Bed
G1 X5 Y20 Z0.3 F5000.0 ; Move over to prevent blob squish
G92 E0
G92 E0
G1 F2700 E-5
;LAYER_COUNT:149
;LAYER:0
M107
G0 F6000 X82.65 Y107.458 Z0.2
;TYPE:SKIRT
G1 F2700 E0
G1 F1200 X83.208 Y107.043 E0.02313
G1 X83.542 Y106.817 E0.03654
G1 X83.962 Y106.552 E0.05306
G1 X84.282 Y106.364 E0.0654
G1 X84.988 Y105.996 E0.09188
G1 X85.412 Y105.802 E0.10739
G1 X85.773 Y105.648 E0.12045
G1 X86.16 Y105.494 E0.1343
G1 X86.872 Y105.249 E0.15934
G1 X87.179 Y105.16 E0.16997
G1 X87.789 Y105.01 E0.19087
G1 X88.239 Y104.918 E0.20614
G1 X88.891 Y104.813 E0.22811
G1 X89.274 Y104.768 E0.24094
G1 X89.933 Y104.719 E0.26291
G1 X90.398 Y104.704 E0.27839
G1 X90.648 Y104.7 E0.2867
G1 X96.638 Y104.699 E0.48593
G1 X97.114 Y104.58 E0.50225
G1 X97.896 Y104.466 E0.52854
G1 X98.426 Y104.442 E0.54618
G1 X98.763 Y104.337 E0.55792
G1 X99.456 Y104.195 E0.58145
G1 X99.571 Y104.159 E0.58546
G1 X100.344 Y103.999 E0.61171
G1 X101.104 Y103.919 E0.63713
G1 X102.427 Y103.845 E0.6812
G1 X103.382 Y102.24 E0.74332
G1 X105.238 Y96.991 E0.9285
G1 X107.205 Y91.402 E1.12556
G1 X107.505 Y90.671 E1.15184
G1 X107.877 Y89.974 E1.17812
G1 X108.317 Y89.319 E1.20437
G1 X108.822 Y88.711 E1.23065
G1 X109.385 Y88.158 E1.2569
G1 X110.094 Y87.598 E1.28695
G1 X110.197 Y87.526 E1.29113
G1 X110.866 Y87.107 E1.31739
G1 X111.575 Y86.758 E1.34367
G1 X112.315 Y86.482 E1.36994
G1 X113.079 Y86.282 E1.39621
G1 X113.859 Y86.161 E1.42246
G1 X114.666 Y86.119 E1.44934
G1 X119.006 Y86.119 E1.59368
G1 X119.795 Y86.159 E1.61996
G1 X120.575 Y86.278 E1.6462
G1 X121.34 Y86.476 E1.67249
G1 X122.08 Y86.75 E1.69873
G1 X122.789 Y87.098 E1.725
G1 X123.46 Y87.516 E1.75129
G1 X124.084 Y87.999 E1.77754
G1 X124.657 Y88.542 E1.8038
G1 X125.373 Y89.414 E1.84132
G1 X125.494 Y89.585 E1.84829
G1 X125.917 Y90.251 E1.87453
G1 X126.27 Y90.958 E1.90081
G1 X126.551 Y91.696 E1.92708
G1 X126.755 Y92.459 E1.95335
G1 X126.88 Y93.238 E1.97959
G1 X126.927 Y94.027 E2.00588
G1 X126.893 Y94.816 E2.03215
G1 X126.78 Y95.597 E2.05839
G1 X126.491 Y96.662 E2.09509
G1 X125.913 Y98.317 E2.1534
G1 X123.812 Y104.273 E2.36346
G1 X131.674 Y104.273 E2.62495
G1 X132.68 Y102.485 E2.69319
G1 X136.14 Y91.383 E3.07996
G1 X136.413 Y90.642 E3.10623
G1 X136.759 Y89.932 E3.13249
G1 X137.176 Y89.261 E3.15877
G1 X137.658 Y88.636 E3.18502
G1 X138.201 Y88.062 E3.2113
G1 X138.927 Y87.449 E3.24291
G1 X139.025 Y87.376 E3.24697
G1 X139.682 Y86.937 E3.27325
G1 X140.379 Y86.566 E3.29951
G1 X141.11 Y86.268 E3.32577
G1 X141.868 Y86.046 E3.35204
G1 X142.644 Y85.901 E3.3783
G1 X143.685 Y85.831 E3.413
G1 X148.25 Y85.831 E3.56483
G1 X149.039 Y85.871 E3.59111
G1 X149.819 Y85.99 E3.61735
G1 X150.584 Y86.188 E3.64363
G1 X151.324 Y86.462 E3.66988
G1 X152.033 Y86.81 E3.69615
G1 X152.704 Y87.228 E3.72244
G1 X153.328 Y87.711 E3.74869
G1 X153.901 Y88.254 E3.77494
G1 X154.527 Y89 E3.80733
G1 X154.648 Y89.164 E3.81411
G1 X155.084 Y89.822 E3.84036
G1 X155.451 Y90.522 E3.86665
G1 X155.746 Y91.254 E3.8929
G1 X155.965 Y92.013 E3.91918
G1 X156.106 Y92.79 E3.94544
G1 X156.168 Y93.577 E3.9717
G1 X156.15 Y94.367 E3.99798
G1 X156.052 Y95.15 E4.02423
G1 X155.821 Y96.104 E4.05687
G1 X154.361 Y100.816 E4.22095
G1 X152.529 Y106.678 E4.42522
G1 X152.523 Y106.803 E4.42938
G1 X152.808 Y107.102 E4.44312
G1 X153.291 Y107.727 E4.46939
G1 X153.709 Y108.397 E4.49565
G1 X154.056 Y109.106 E4.52191
G1 X154.33 Y109.846 E4.54815
G1 X154.475 Y110.371 E4.56627
G1 X154.543 Y110.656 E4.57601
G1 X154.705 Y111.572 E4.60695
G1 X154.711 Y111.624 E4.60869
G1 X154.762 Y112.518 E4.63848
G1 X154.762 Y122.478 E4.96975
G1 X154.735 Y123.126 E4.99132
G1 X154.731 Y123.174 E4.99292
G1 X154.626 Y123.956 E5.01916
G1 X154.531 Y124.393 E5.03404
G1 X154.459 Y124.685 E5.04404
G1 X154.232 Y125.442 E5.07033
G1 X153.929 Y126.171 E5.09658
G1 X153.554 Y126.866 E5.12285
G1 X153.11 Y127.519 E5.14911
G1 X152.603 Y128.124 E5.17537
G1 X152.545 Y128.18 E5.17805
G1 X152.558 Y128.409 E5.18568
G1 X155.817 Y138.889 E5.55071
G1 X156.013 Y139.654 E5.57698
G1 X156.131 Y140.435 E5.60325
G1 X156.169 Y141.223 E5.62949
G1 X156.127 Y142.012 E5.65577
G1 X156.006 Y142.792 E5.68202
G1 X155.806 Y143.556 E5.70829
G1 X155.53 Y144.296 E5.73455
G1 X155.181 Y145.005 E5.76084
G1 X154.664 Y145.811 E5.79269
G1 X154.544 Y145.975 E5.79945
G1 X154.046 Y146.588 E5.82571
G1 X153.488 Y147.147 E5.85198
G1 X152.877 Y147.647 E5.87824
G1 X152.219 Y148.083 E5.9045
G1 X151.52 Y148.45 E5.93076
G1 X150.787 Y148.745 E5.95704
G1 X150.028 Y148.963 E5.9833
G1 X149.251 Y149.104 E6.00957
G1 X148.249 Y149.169 E6.04296
G1 X143.692 Y149.169 E6.19453
G1 X142.903 Y149.129 E6.2208
G1 X142.123 Y149.01 E6.24705
G1 X141.358 Y148.812 E6.27333
G1 X140.618 Y148.538 E6.29958
G1 X139.909 Y148.19 E6.32584
G1 X139.101 Y147.674 E6.35773
G1 X138.998 Y147.599 E6.36197
G1 X138.384 Y147.103 E6.38822
G1 X137.823 Y146.547 E6.41449
G1 X137.321 Y145.937 E6.44077
G1 X136.884 Y145.279 E6.46704
G1 X136.515 Y144.581 E6.4933
G1 X136.139 Y143.605 E6.52809
G1 X135.29 Y140.868 E6.6234
G1 X132.689 Y132.53 E6.9139
G1 X131.689 Y130.727 E6.98248
G1 X123.811 Y130.727 E7.2445
G1 X126.486 Y138.319 E7.51223
G1 X126.71 Y139.076 E7.53848
G1 X126.857 Y139.852 E7.56475
G1 X126.924 Y140.639 E7.59102
G1 X126.912 Y141.428 E7.61727
G1 X126.82 Y142.212 E7.64352
G1 X126.649 Y142.983 E7.66979
G1 X126.401 Y143.733 E7.69606
G1 X126.078 Y144.454 E7.72234
G1 X125.484 Y145.434 E7.76045
G1 X125.363 Y145.604 E7.76739
G1 X124.873 Y146.223 E7.79365
G1 X124.323 Y146.79 E7.81993
G1 X123.718 Y147.298 E7.8462
G1 X123.066 Y147.743 E7.87246
G1 X122.371 Y148.119 E7.89874
G1 X121.642 Y148.423 E7.92501
G1 X120.887 Y148.651 E7.95124
G1 X120.111 Y148.803 E7.97754
G1 X119.008 Y148.881 E8.01432
G1 X114.665 Y148.881 E8.15877
G1 X113.876 Y148.841 E8.18504
G1 X113.096 Y148.722 E8.21129
G1 X112.331 Y148.524 E8.23757
G1 X111.591 Y148.25 E8.26381
G1 X110.882 Y147.902 E8.29008
G1 X110.209 Y147.483 E8.31645
G1 X110.107 Y147.412 E8.32058
G1 X109.482 Y146.928 E8.34688
G1 X108.91 Y146.384 E8.37313
G1 X108.396 Y145.785 E8.39938
G1 X107.944 Y145.137 E8.42566
G1 X107.561 Y144.447 E8.45191
G1 X107.212 Y143.619 E8.48179
G1 X106.861 Y142.628 E8.51676
G1 X103.334 Y132.624 E8.86957
G1 X103.065 Y132.078 E8.88981
G1 X103.024 Y131.968 E8.89372
G1 X102.782 Y131.559 E8.90952
G1 X102.615 Y131.198 E8.92275
G1 X102.563 Y131.115 E8.92601
G1 X102.298 Y131.107 E8.93483
G1 X102.231 Y131.096 E8.93709
G1 X101.691 Y131.123 E8.95507
G1 X100.902 Y131.083 E8.98135
G1 X100.101 Y130.959 E9.00831
G1 X99.132 Y130.757 E9.04123
G1 X98.498 Y130.591 E9.06303
G1 X97.827 Y130.557 E9.08537
G1 X97.047 Y130.438 E9.11161
G1 X96.514 Y130.3 E9.12993
G1 X90.489 Y130.3 E9.33032
G1 X90.148 Y130.293 E9.34166
G1 X89.874 Y130.281 E9.35078
G1 X89.381 Y130.243 E9.36723
G1 X88.953 Y130.197 E9.38155
G1 X88.12 Y130.062 E9.40962
G1 X87.759 Y129.983 E9.42191
G1 X87.277 Y129.861 E9.43844
G1 X86.806 Y129.726 E9.45474
G1 X86.23 Y129.536 E9.47491
G1 X85.876 Y129.404 E9.48748
G1 X85.232 Y129.131 E9.51074
G1 X84.948 Y128.995 E9.52122
G1 X84.384 Y128.696 E9.54245
G1 X83.949 Y128.442 E9.5592
G1 X83.476 Y128.142 E9.57783
G1 X83.159 Y127.925 E9.59061
G1 X82.62 Y127.521 E9.61301
G1 X82.326 Y127.28 E9.62566
G1 X81.81 Y126.817 E9.64872
G1 X81.5 Y126.513 E9.66316
G1 X81.15 Y126.147 E9.68
G1 X80.919 Y125.889 E9.69152
G1 X80.533 Y125.422 E9.71167
G1 X80.264 Y125.07 E9.7264
G1 X79.84 Y124.457 E9.75119
G1 X79.632 Y124.123 E9.76428
G1 X79.325 Y123.583 E9.78494
G1 X79.115 Y123.177 E9.80014
G1 X78.885 Y122.693 E9.81797
G1 X78.756 Y122.395 E9.82877
G1 X78.505 Y121.734 E9.85228
G1 X78.376 Y121.342 E9.86601
G1 X78.21 Y120.763 E9.88604
G1 X78.102 Y120.323 E9.90111
G1 X77.967 Y119.643 E9.92417
G1 X77.904 Y119.231 E9.93803
G1 X77.842 Y118.712 E9.95542
G1 X77.815 Y118.394 E9.96603
G1 X77.787 Y117.734 E9.988
G1 X77.787 Y117.279 E10.00314
G1 X77.811 Y116.667 E10.02351
G1 X77.841 Y116.286 E10.03622
G1 X77.922 Y115.624 E10.0584
G1 X77.993 Y115.195 E10.07287
G1 X78.133 Y114.529 E10.0955
G1 X78.237 Y114.124 E10.10941
G1 X78.383 Y113.625 E10.1267
G1 X78.49 Y113.3 E10.13808
G1 X78.815 Y112.475 E10.16757
G1 X78.864 Y112.361 E10.1717
G1 X79.168 Y111.715 E10.19545
G1 X79.36 Y111.351 E10.20913
G1 X79.664 Y110.825 E10.22934
G1 X79.88 Y110.483 E10.24279
G1 X80.304 Y109.877 E10.26739
G1 X80.546 Y109.564 E10.28055
G1 X80.832 Y109.216 E10.29553
G1 X81.079 Y108.932 E10.30805
G1 X81.556 Y108.43 E10.33109
G1 X81.873 Y108.125 E10.34572
G1 X82.352 Y107.701 E10.36699
G1 X82.65 Y107.458 E10.37978
G0 F6000 X82.902 Y107.768
G1 F1200 X83.432 Y107.374 E10.40175
G1 X83.766 Y107.148 E10.41516
G1 X84.165 Y106.897 E10.43084
G1 X84.485 Y106.709 E10.44318
G1 X85.154 Y106.36 E10.46828
G1 X85.578 Y106.166 E10.48379
G1 X85.921 Y106.019 E10.4962
G1 X86.308 Y105.865 E10.51005
G1 X86.984 Y105.634 E10.53381
G1 X87.291 Y105.545 E10.54444
G1 X87.869 Y105.402 E10.56425
G1 X88.319 Y105.31 E10.57952
G1 X88.937 Y105.211 E10.60034
G1 X89.32 Y105.166 E10.61317
G1 X89.945 Y105.119 E10.63401
G1 X90.41 Y105.104 E10.64949
G1 X90.648 Y105.1 E10.65741
G1 X96.666 Y105.099 E10.85756
G1 X97.369 Y104.939 E10.88154
G1 X98.132 Y104.848 E10.9071
G1 X98.482 Y104.843 E10.91874
G1 X98.979 Y104.695 E10.93599
G1 X99.52 Y104.595 E10.95429
G1 X99.691 Y104.541 E10.96025
G1 X100.445 Y104.388 E10.98584
G1 X101.127 Y104.318 E11.00865
G1 X102.507 Y104.241 E11.05462
G1 X102.657 Y104.241 E11.05961
G1 X103.745 Y102.414 E11.13033
G1 X105.62 Y97.112 E11.31738
G1 X107.583 Y91.534 E11.51406
G1 X107.875 Y90.823 E11.53962
G1 X108.24 Y90.146 E11.5652
G1 X108.674 Y89.51 E11.59081
G1 X109.17 Y88.923 E11.61637
G1 X109.726 Y88.391 E11.64197
G1 X110.323 Y87.926 E11.66714
G1 X110.426 Y87.854 E11.67131
G1 X111.079 Y87.447 E11.69691
G1 X111.77 Y87.109 E11.72249
G1 X112.492 Y86.845 E11.74806
G1 X113.238 Y86.658 E11.77364
G1 X114 Y86.549 E11.79924
G1 X114.666 Y86.519 E11.82142
G1 X119.006 Y86.519 E11.96577
G1 X119.774 Y86.559 E11.99134
G1 X120.534 Y86.678 E12.01693
G1 X121.277 Y86.876 E12.0425
G1 X121.996 Y87.15 E12.0681
G1 X122.682 Y87.497 E12.09367
G1 X123.329 Y87.913 E12.11925
G1 X123.929 Y88.394 E12.14483
G1 X124.476 Y88.935 E12.17041
G1 X125.047 Y89.645 E12.20072
G1 X125.168 Y89.816 E12.20769
G1 X125.579 Y90.466 E12.23326
G1 X125.92 Y91.155 E12.25883
G1 X126.188 Y91.876 E12.28442
G1 X126.38 Y92.621 E12.31001
G1 X126.493 Y93.382 E12.33559
G1 X126.527 Y94.15 E12.36116
G1 X126.481 Y94.918 E12.38675
G1 X126.355 Y95.677 E12.41234
G1 X126.113 Y96.53 E12.44183
G1 X125.535 Y98.184 E12.50011
G1 X123.245 Y104.673 E12.72898
G1 X131.908 Y104.673 E13.01711
G1 X133.049 Y102.645 E13.0945
G1 X136.522 Y91.502 E13.48271
G1 X136.789 Y90.781 E13.50828
G1 X137.129 Y90.091 E13.53386
G1 X137.539 Y89.44 E13.55945
G1 X138.014 Y88.835 E13.58503
G1 X138.55 Y88.283 E13.61063
G1 X139.166 Y87.769 E13.63731
G1 X139.264 Y87.696 E13.64137
G1 X139.904 Y87.27 E13.66694
G1 X140.585 Y86.912 E13.69253
G1 X141.299 Y86.626 E13.71812
G1 X142.039 Y86.416 E13.7437
G1 X142.797 Y86.284 E13.76929
G1 X143.685 Y86.231 E13.79888
G1 X148.25 Y86.231 E13.95071
G1 X149.018 Y86.271 E13.97629
G1 X149.778 Y86.39 E14.00188
G1 X150.521 Y86.588 E14.02745
G1 X151.24 Y86.862 E14.05304
G1 X151.926 Y87.209 E14.07861
G1 X152.573 Y87.625 E14.10419
G1 X153.173 Y88.106 E14.12977
G1 X153.72 Y88.647 E14.15536
G1 X154.205 Y89.238 E14.18079
G1 X154.326 Y89.402 E14.18757
G1 X154.75 Y90.043 E14.21313
G1 X155.104 Y90.726 E14.23872
G1 X155.387 Y91.441 E14.26429
G1 X155.593 Y92.182 E14.28987
G1 X155.722 Y92.941 E14.31548
G1 X155.77 Y93.708 E14.34104
G1 X155.74 Y94.477 E14.36664
G1 X155.629 Y95.238 E14.39221
G1 X155.439 Y95.986 E14.41788
G1 X153.979 Y100.697 E14.58192
G1 X152.134 Y106.599 E14.78759
G1 X152.117 Y106.954 E14.79941
G1 X152.543 Y107.408 E14.82012
G1 X153.008 Y108.021 E14.84571
G1 X153.407 Y108.679 E14.87131
G1 X153.735 Y109.374 E14.89687
G1 X154.086 Y110.464 E14.93495
G1 X154.154 Y110.749 E14.9447
G1 X154.307 Y111.618 E14.97405
G1 X154.313 Y111.67 E14.97579
G1 X154.362 Y112.518 E15.00404
G1 X154.362 Y122.478 E15.33531
G1 X154.336 Y123.093 E15.35578
G1 X154.332 Y123.141 E15.35738
G1 X154.229 Y123.903 E15.38296
G1 X154.143 Y124.298 E15.39641
G1 X154.071 Y124.59 E15.40641
G1 X153.848 Y125.326 E15.43199
G1 X153.55 Y126.035 E15.45757
G1 X153.18 Y126.709 E15.48314
G1 X152.742 Y127.342 E15.50874
G1 X152.241 Y127.925 E15.53431
G1 X152.131 Y128.029 E15.53934
G1 X152.161 Y128.437 E15.55295
G1 X152.159 Y128.474 E15.55418
G1 X155.435 Y139.008 E15.9211
G1 X155.625 Y139.753 E15.94667
G1 X155.737 Y140.514 E15.97225
G1 X155.769 Y141.283 E15.99785
G1 X155.721 Y142.05 E16.02341
G1 X155.593 Y142.809 E16.04901
G1 X155.388 Y143.55 E16.07458
G1 X155.106 Y144.266 E16.10018
G1 X154.752 Y144.949 E16.12577
G1 X154.341 Y145.575 E16.15067
G1 X154.221 Y145.739 E16.15743
G1 X153.735 Y146.335 E16.18301
G1 X153.19 Y146.878 E16.2086
G1 X152.592 Y147.361 E16.23417
G1 X151.946 Y147.779 E16.25976
G1 X151.261 Y148.128 E16.28533
G1 X150.543 Y148.404 E16.31091
G1 X149.8 Y148.605 E16.33651
G1 X149.041 Y148.727 E16.36208
G1 X148.249 Y148.769 E16.38846
G1 X143.692 Y148.769 E16.54003
G1 X142.924 Y148.729 E16.5656
G1 X142.164 Y148.61 E16.59119
G1 X141.421 Y148.412 E16.61676
G1 X140.702 Y148.138 E16.64236
G1 X140.016 Y147.791 E16.66793
G1 X139.336 Y147.351 E16.69486
G1 X139.233 Y147.276 E16.6991
G1 X138.636 Y146.792 E16.72466
G1 X138.092 Y146.248 E16.75025
G1 X137.607 Y145.65 E16.77586
G1 X137.187 Y145.006 E16.80143
G1 X136.837 Y144.321 E16.82702
G1 X136.521 Y143.486 E16.85671
G1 X135.672 Y140.749 E16.95202
G1 X133.059 Y132.374 E17.24382
G1 X131.924 Y130.327 E17.32167
G1 X123.245 Y130.327 E17.61033
G1 X126.108 Y138.452 E17.89686
G1 X126.326 Y139.189 E17.92242
G1 X126.466 Y139.946 E17.94803
G1 X126.526 Y140.712 E17.97358
G1 X126.507 Y141.481 E17.99917
G1 X126.408 Y142.244 E18.02476
G1 X126.23 Y142.992 E18.05033
G1 X125.976 Y143.718 E18.07591
G1 X125.647 Y144.414 E18.10152
G1 X125.158 Y145.202 E18.13236
G1 X125.037 Y145.372 E18.1393
G1 X124.559 Y145.975 E18.1649
G1 X124.021 Y146.524 E18.19046
G1 X123.429 Y147.015 E18.21604
G1 X122.789 Y147.442 E18.24163
G1 X122.108 Y147.8 E18.26722
G1 X121.394 Y148.086 E18.2928
G1 X120.654 Y148.296 E18.31839
G1 X119.896 Y148.427 E18.34397
G1 X119.008 Y148.481 E18.37356
G1 X114.665 Y148.481 E18.51801
G1 X113.897 Y148.441 E18.54359
G1 X113.137 Y148.322 E18.56918
G1 X112.394 Y148.124 E18.59475
G1 X111.675 Y147.85 E18.62034
G1 X110.989 Y147.503 E18.64591
G1 X110.437 Y147.154 E18.66763
G1 X110.335 Y147.083 E18.67177
G1 X109.728 Y146.612 E18.69732
G1 X109.172 Y146.08 E18.72291
G1 X108.675 Y145.493 E18.7485
G1 X108.242 Y144.857 E18.77409
G1 X107.877 Y144.181 E18.79964
G1 X107.589 Y143.485 E18.82469
G1 X107.238 Y142.495 E18.85963
G1 X103.704 Y132.47 E19.21317
G1 X103.416 Y131.882 E19.23495
G1 X103.382 Y131.788 E19.23827
G1 X103.118 Y131.338 E19.25562
G1 X102.963 Y130.997 E19.26808
G1 X102.806 Y130.723 E19.27859
G1 X102.291 Y130.705 E19.29573
G1 X102.234 Y130.696 E19.29765
G1 X101.651 Y130.723 E19.31706
G1 X100.883 Y130.679 E19.34264
G1 X100.183 Y130.567 E19.36622
