;FLAVOR:Marlin
;TIME:10060
;Filament used: 5.39276m
;Layer height: 0.2
;MINX:68.725
;MINY:85.219
;MINZ:0.2
;MAXX:167.898
;MAXY:149.781
;MAXZ:33.6
;Generated with Cura_SteamEngine 4.9.0
M140 S50
M105
M190 S50
M104 S200
M105
M109 S200
M82 ;absolute extrusion mode
; Ender 3 Custom Start G-code
G92 E0 ; Reset Extruder
G28 ; Home all axes
G1 Z2.0 F3000 ; Move Z Axis up little to prevent scratching of Heat Bed
G1 X0.1 Y20 Z0.3 F5000.0 ; Move to start position
G1 X0.1 Y200.0 Z0.3 F1500.0 E15 ; Draw the first line
G1 X0.4 Y200.0 Z0.3 F5000.0 ; Move to side a little
G1 X0.4 Y20 Z0.3 F1500.0 E30 ; Draw the second line
G92 E0 ; Reset Extruder
G1 Z2.0 F3000 ; Move Z Axis up little to prevent scratching of Heat Bed
G1 X5 Y20 Z0.3 F5000.0 ; Move over to prevent blob squish
G92 E0
G92 E0
G1 F2700 E-5
;LAYER_COUNT:168
;LAYER:0
M107
G0 F6000 X83.448 Y88.022 Z0.2
;TYPE:SKIRT
G1 F2700 E0
G1 F1200 X84.291 Y87.283 E0.03729
G1 X84.398 Y87.202 E0.04175
G1 X85.051 Y86.758 E0.06801
G1 X85.746 Y86.382 E0.0943
G1 X86.475 Y86.078 E0.12057
G1 X87.23 Y85.85 E0.1468
G1 X88.006 Y85.699 E0.17309
G1 X89.106 Y85.621 E0.20977
G1 X94.265 Y85.621 E0.38136
G1 X95.054 Y85.661 E0.40763
G1 X95.834 Y85.78 E0.43388
G1 X96.599 Y85.978 E0.46016
G1 X97.339 Y86.252 E0.48641
G1 X98.048 Y86.6 E0.51267
G1 X98.719 Y87.018 E0.53897
G1 X99.343 Y87.501 E0.56521
G1 X99.916 Y88.044 E0.59147
G1 X100.439 Y88.654 E0.61819
G1 X100.561 Y88.812 E0.62483
G1 X101.011 Y89.461 E0.6511
G1 X101.394 Y90.151 E0.67735
G1 X101.704 Y90.877 E0.7036
G1 X101.94 Y91.631 E0.72988
G1 X102.098 Y92.405 E0.75616
G1 X102.177 Y93.191 E0.78243
G1 X102.177 Y93.98 E0.80867
G1 X102.096 Y94.766 E0.83495
G1 X101.903 Y95.666 E0.86557
G1 X99.935 Y102.751 E1.11014
G1 X99.605 Y103.93 E1.15086
G1 X99.913 Y103.908 E1.16113
G1 X100.738 Y103.893 E1.18857
G1 X101.066 Y103.904 E1.19949
G1 X101.408 Y103.904 E1.21086
G1 X102.194 Y103.982 E1.23714
G1 X102.968 Y104.14 E1.26341
G1 X103.389 Y104.272 E1.27808
G1 X122.484 Y104.273 E1.91319
G1 X122.515 Y104.261 E1.91429
G1 X123.277 Y104.052 E1.94057
G1 X123.692 Y103.972 E1.95463
G1 X123.844 Y103.947 E1.95975
G1 X124.629 Y103.859 E1.98603
G1 X125.418 Y103.85 E2.01227
G1 X126.216 Y103.923 E2.03892
G1 X126.47 Y103.959 E2.04745
G1 X126.547 Y103.936 E2.05013
G1 X127.321 Y103.783 E2.07637
G1 X128.107 Y103.708 E2.10263
G1 X128.897 Y103.714 E2.12891
G1 X129.533 Y103.796 E2.15023
G1 X129.772 Y103.142 E2.17339
G1 X129.838 Y103 E2.1786
G1 X131.068 Y97.075 E2.37987
G1 X131.091 Y96.299 E2.40569
G1 X131.226 Y95.35 E2.43757
G1 X131.527 Y93.892 E2.48709
G1 X132.021 Y91.518 E2.56774
G1 X132.22 Y90.754 E2.594
G1 X132.496 Y90.014 E2.62027
G1 X132.846 Y89.306 E2.64654
G1 X133.265 Y88.637 E2.67279
G1 X133.75 Y88.013 E2.69908
G1 X134.295 Y87.442 E2.72533
G1 X134.757 Y87.038 E2.74574
G1 X134.866 Y86.95 E2.7504
G1 X135.505 Y86.486 E2.77667
G1 X136.187 Y86.088 E2.80293
G1 X136.907 Y85.762 E2.82922
G1 X137.655 Y85.51 E2.85547
G1 X138.425 Y85.335 E2.88173
G1 X139.209 Y85.239 E2.90801
G1 X139.766 Y85.219 E2.92654
G1 X144.323 Y85.219 E3.07811
G1 X145.112 Y85.259 E3.10439
G1 X145.892 Y85.378 E3.13063
G1 X146.657 Y85.576 E3.15691
G1 X147.397 Y85.85 E3.18316
G1 X148.106 Y86.198 E3.20943
G1 X148.777 Y86.616 E3.23572
G1 X149.401 Y87.099 E3.26196
G1 X149.974 Y87.642 E3.28822
G1 X150.347 Y88.065 E3.30698
G1 X150.472 Y88.217 E3.31352
G1 X150.943 Y88.851 E3.33979
G1 X151.346 Y89.53 E3.36605
G1 X151.679 Y90.246 E3.39232
G1 X151.938 Y90.992 E3.41858
G1 X152.119 Y91.761 E3.44486
G1 X152.223 Y92.544 E3.47113
G1 X152.246 Y93.333 E3.49738
G1 X152.19 Y94.121 E3.52366
G1 X152.085 Y94.757 E3.5451
G1 X150.02 Y104.7 E3.88286
G1 X155.039 Y104.7 E4.04979
G1 X155.511 Y104.714 E4.0655
G1 X156.055 Y104.747 E4.08363
G1 X156.485 Y104.785 E4.09798
G1 X156.94 Y104.838 E4.11322
G1 X157.857 Y105.001 E4.1442
G1 X158.274 Y105.101 E4.15846
G1 X158.892 Y105.277 E4.17983
G1 X159.272 Y105.402 E4.19314
G1 X159.893 Y105.635 E4.2152
G1 X160.299 Y105.808 E4.22988
G1 X160.948 Y106.121 E4.25384
G1 X161.372 Y106.35 E4.26987
G1 X161.981 Y106.716 E4.2935
G1 X162.386 Y106.985 E4.30967
G1 X162.875 Y107.338 E4.32973
G1 X163.21 Y107.6 E4.34388
G1 X163.851 Y108.16 E4.37219
G1 X164.136 Y108.438 E4.38543
G1 X164.253 Y108.549 E4.39079
G1 X164.57 Y108.888 E4.40623
G1 X164.867 Y109.225 E4.42117
G1 X165.386 Y109.882 E4.44902
G1 X165.641 Y110.243 E4.46372
G1 X165.935 Y110.692 E4.48157
G1 X166.152 Y111.049 E4.49546
G1 X166.502 Y111.689 E4.51972
G1 X166.714 Y112.125 E4.53585
G1 X167.009 Y112.815 E4.56081
G1 X167.156 Y113.21 E4.57483
G1 X167.367 Y113.865 E4.59771
G1 X167.509 Y114.382 E4.61555
G1 X167.657 Y115.025 E4.63749
G1 X167.716 Y115.343 E4.64825
G1 X167.816 Y116.073 E4.67276
G1 X167.867 Y116.645 E4.69186
G1 X167.898 Y117.338 E4.71493
G1 X167.898 Y117.704 E4.7271
G1 X167.851 Y118.555 E4.75545
G1 X167.797 Y119.047 E4.77191
G1 X167.754 Y119.38 E4.78308
G1 X167.684 Y119.836 E4.79842
G1 X167.449 Y120.88 E4.83402
G1 X167.325 Y121.296 E4.84845
G1 X167.144 Y121.831 E4.86724
G1 X167.005 Y122.198 E4.88029
G1 X166.731 Y122.834 E4.90332
G1 X166.502 Y123.307 E4.9208
G1 X166.169 Y123.924 E4.94412
G1 X165.954 Y124.282 E4.95801
G1 X165.57 Y124.861 E4.98112
G1 X165.317 Y125.208 E4.9954
G1 X164.904 Y125.727 E5.01746
G1 X164.614 Y126.061 E5.03218
G1 X164.094 Y126.604 E5.05718
G1 X163.838 Y126.847 E5.06892
G1 X163.645 Y127.024 E5.07763
G1 X163.494 Y127.158 E5.08435
G1 X163.156 Y127.441 E5.09901
G1 X162.888 Y127.653 E5.11037
G1 X162.311 Y128.069 E5.13403
G1 X161.96 Y128.298 E5.14797
G1 X161.47 Y128.592 E5.16698
G1 X161.041 Y128.829 E5.18328
G1 X160.342 Y129.171 E5.20916
G1 X159.894 Y129.363 E5.22537
G1 X159.191 Y129.625 E5.25032
G1 X158.799 Y129.75 E5.26401
G1 X158.212 Y129.912 E5.28426
G1 X157.799 Y130.009 E5.29837
G1 X157.032 Y130.15 E5.32431
G1 X156.598 Y130.207 E5.33887
G1 X155.932 Y130.265 E5.36111
G1 X155.331 Y130.292 E5.38111
G1 X154.982 Y130.3 E5.39273
G1 X150.025 Y130.301 E5.5576
G1 X152.079 Y140.26 E5.89581
G1 X152.199 Y141.041 E5.92209
G1 X152.24 Y141.829 E5.94833
G1 X152.201 Y142.618 E5.97461
G1 X152.082 Y143.399 E6.00088
G1 X151.885 Y144.163 E6.02712
G1 X151.611 Y144.904 E6.0534
G1 X151.264 Y145.614 E6.07968
G1 X150.847 Y146.284 E6.10593
G1 X150.449 Y146.809 E6.12784
G1 X150.329 Y146.954 E6.1341
G1 X149.795 Y147.536 E6.16037
G1 X149.206 Y148.061 E6.18662
G1 X148.566 Y148.524 E6.21289
G1 X147.883 Y148.92 E6.23915
G1 X147.163 Y149.245 E6.26542
G1 X146.414 Y149.495 E6.29169
G1 X145.643 Y149.668 E6.31797
G1 X144.859 Y149.762 E6.34423
G1 X144.32 Y149.781 E6.36217
G1 X139.974 Y149.781 E6.50672
G1 X139.185 Y149.741 E6.53299
G1 X138.405 Y149.622 E6.55924
G1 X137.64 Y149.424 E6.58552
G1 X136.9 Y149.15 E6.61176
G1 X136.191 Y148.802 E6.63803
G1 X135.608 Y148.439 E6.66087
G1 X135.51 Y148.376 E6.66475
G1 X135.284 Y148.225 E6.67379
G1 X134.651 Y147.752 E6.70007
G1 X134.069 Y147.218 E6.72634
G1 X133.545 Y146.628 E6.75259
G1 X133.082 Y145.988 E6.77886
G1 X132.687 Y145.304 E6.80513
G1 X132.363 Y144.584 E6.83139
G1 X132.114 Y143.835 E6.85764
G1 X131.997 Y143.355 E6.87408
G1 X131.516 Y141.073 E6.95164
G1 X131.261 Y139.833 E6.99375
G1 X131.141 Y139.053 E7.02
G1 X131.101 Y138.264 E7.04627
G1 X131.109 Y138.113 E7.0513
G1 X129.847 Y132.046 E7.25741
G1 X129.724 Y131.79 E7.26686
G1 X129.515 Y131.215 E7.28721
G1 X129.147 Y131.243 E7.29948
G1 X128.358 Y131.222 E7.32573
G1 X127.575 Y131.122 E7.35199
G1 X126.943 Y130.974 E7.37358
G1 X126.433 Y131.059 E7.39077
G1 X125.322 Y131.108 E7.42776
G1 X124.922 Y131.096 E7.44107
G1 X124.496 Y131.091 E7.45524
G1 X123.711 Y131.002 E7.48152
G1 X122.94 Y130.834 E7.50776
G1 X122.615 Y130.728 E7.51913
G1 X103.535 Y130.727 E8.15374
G1 X102.825 Y130.931 E8.17831
G1 X102.291 Y131.036 E8.19641
G1 X102.179 Y131.054 E8.20018
G1 X101.394 Y131.14 E8.22645
G1 X100.604 Y131.146 E8.25272
G1 X99.87 Y131.079 E8.27724
G1 X99.594 Y131.041 E8.2865
G1 X101.906 Y139.32 E8.5724
G1 X102.079 Y140.091 E8.59868
G1 X102.174 Y140.875 E8.62495
G1 X102.189 Y141.664 E8.65119
G1 X102.124 Y142.451 E8.67746
G1 X101.98 Y143.228 E8.70374
G1 X101.758 Y143.985 E8.72998
G1 X101.461 Y144.717 E8.75625
G1 X101.091 Y145.415 E8.78253
G1 X100.61 Y146.129 E8.81116
G1 X100.488 Y146.29 E8.81788
G1 X99.98 Y146.894 E8.84413
G1 X99.413 Y147.444 E8.87041
G1 X98.793 Y147.934 E8.89669
G1 X98.128 Y148.359 E8.92294
G1 X97.422 Y148.714 E8.94922
G1 X96.685 Y148.996 E8.97547
G1 X95.923 Y149.202 E9.00172
G1 X95.143 Y149.33 E9.02801
G1 X94.271 Y149.379 E9.05706
G1 X89.107 Y149.379 E9.22882
G1 X88.318 Y149.339 E9.25509
G1 X87.538 Y149.22 E9.28133
G1 X86.773 Y149.022 E9.30762
G1 X86.033 Y148.748 E9.33386
G1 X85.324 Y148.4 E9.36013
G1 X84.399 Y147.798 E9.39684
G1 X84.292 Y147.717 E9.4013
G1 X83.687 Y147.209 E9.42758
G1 X83.137 Y146.643 E9.45383
G1 X82.647 Y146.024 E9.48008
G1 X82.222 Y145.358 E9.50636
G1 X81.867 Y144.653 E9.53262
G1 X81.489 Y143.601 E9.5698
G1 X81.239 Y142.707 E9.60067
G1 X81.186 Y142.618 E9.60412
G1 X80.855 Y141.901 E9.63038
G1 X80.583 Y141.1 E9.65852
G1 X79.214 Y136.221 E9.82706
G1 X78.06 Y132.084 E9.96991
G1 X78.048 Y132.057 E9.97089
G1 X77.799 Y131.307 E9.99718
G1 X77.709 Y131.066 E10.00573
G1 X77.404 Y131.051 E10.01589
G1 X77.134 Y131.013 E10.02496
G1 X76.347 Y130.943 E10.05124
G1 X75.572 Y130.794 E10.07749
G1 X74.815 Y130.568 E10.10376
G1 X74.081 Y130.264 E10.13019
G1 X73.688 Y130.107 E10.14426
G1 X73.171 Y129.847 E10.16351
G1 X72.842 Y129.666 E10.176
G1 X72.171 Y129.251 E10.20224
G1 X71.544 Y128.77 E10.22852
G1 X70.97 Y128.228 E10.25478
G1 X70.453 Y127.631 E10.28105
G1 X69.999 Y126.985 E10.30731
G1 X69.613 Y126.296 E10.33358
G1 X69.299 Y125.571 E10.35986
G1 X69.063 Y124.834 E10.38559
G1 X68.986 Y124.544 E10.39557
G1 X68.822 Y123.771 E10.42186
G1 X68.738 Y122.986 E10.44811
G1 X68.725 Y122.542 E10.46289
G1 X68.725 Y112.475 E10.79772
G1 X68.765 Y111.686 E10.82399
G1 X68.935 Y110.677 E10.85803
G1 X69.007 Y110.373 E10.86842
G1 X69.228 Y109.615 E10.89468
G1 X69.524 Y108.883 E10.92094
G1 X69.723 Y108.485 E10.93574
G1 X70.129 Y107.808 E10.962
G1 X70.602 Y107.176 E10.98825
G1 X71.136 Y106.594 E11.01452
G1 X71.727 Y106.07 E11.04079
G1 X72.367 Y105.608 E11.06705
G1 X72.75 Y105.384 E11.0818
G1 X72.934 Y105.258 E11.08922
G1 X73.626 Y104.878 E11.11548
G1 X74.353 Y104.57 E11.14174
G1 X75.108 Y104.337 E11.16802
G1 X75.678 Y104.223 E11.18735
G1 X75.835 Y104.172 E11.19284
G1 X76.607 Y104.005 E11.21911
G1 X77.392 Y103.918 E11.24538
G1 X77.723 Y103.908 E11.2564
G1 X77.804 Y103.695 E11.26398
G1 X77.995 Y103.078 E11.28546
G1 X78.061 Y102.932 E11.29079
G1 X80.675 Y93.564 E11.61427
G1 X80.925 Y92.815 E11.64053
G1 X81.25 Y92.095 E11.66681
G1 X81.334 Y91.951 E11.67235
G1 X81.487 Y91.402 E11.69131
G1 X81.738 Y90.653 E11.71758
G1 X82.063 Y89.934 E11.74383
G1 X82.459 Y89.251 E11.77008
G1 X82.923 Y88.611 E11.79638
G1 X83.448 Y88.022 E11.82262
G0 F6000 X83.804 Y88.232
G1 F1200 X84.533 Y87.602 E11.85467
G1 X84.64 Y87.521 E11.85913
G1 X85.276 Y87.089 E11.8847
G1 X85.954 Y86.726 E11.91028
G1 X86.666 Y86.435 E11.93586
G1 X87.404 Y86.219 E11.96144
G1 X88.161 Y86.082 E11.98703
G1 X89.106 Y86.021 E12.01852
G1 X94.265 Y86.021 E12.19011
G1 X95.033 Y86.061 E12.21569
G1 X95.793 Y86.18 E12.24127
G1 X96.536 Y86.378 E12.26685
G1 X97.255 Y86.652 E12.29244
G1 X97.941 Y86.999 E12.31801
G1 X98.588 Y87.415 E12.34359
G1 X99.188 Y87.896 E12.36917
G1 X99.735 Y88.437 E12.39476
G1 X100.122 Y88.898 E12.41478
G1 X100.244 Y89.056 E12.42142
G1 X100.682 Y89.689 E12.44702
G1 X101.052 Y90.363 E12.47259
G1 X101.35 Y91.072 E12.49817
G1 X101.572 Y91.809 E12.52377
G1 X101.717 Y92.564 E12.54934
G1 X101.783 Y93.33 E12.57492
G1 X101.769 Y94.099 E12.6005
G1 X101.675 Y94.863 E12.6261
G1 X101.517 Y95.559 E12.64984
G1 X99.55 Y102.643 E12.89437
G1 X99.061 Y104.388 E12.95464
G1 X99.534 Y104.336 E12.97047
G1 X99.941 Y104.307 E12.98404
G1 X100.725 Y104.292 E13.01012
G1 X101.07 Y104.304 E13.0216
G1 X101.408 Y104.304 E13.03284
G1 X102.173 Y104.384 E13.05843
G1 X102.926 Y104.543 E13.08402
G1 X103.326 Y104.672 E13.098
G1 X122.576 Y104.673 E13.73826
G1 X123.024 Y104.526 E13.75394
G1 X123.757 Y104.367 E13.77889
G1 X123.909 Y104.342 E13.78401
G1 X124.673 Y104.257 E13.80958
G1 X125.443 Y104.251 E13.83519
G1 X126.159 Y104.319 E13.85911
G1 X126.509 Y104.369 E13.87087
G1 X126.741 Y104.301 E13.87891
G1 X127.498 Y104.162 E13.90451
G1 X128.265 Y104.103 E13.9301
G1 X129.034 Y104.124 E13.95568
G1 X129.817 Y104.234 E13.98198
G1 X129.901 Y103.944 E13.99202
G1 X130.172 Y103.224 E14.01761
G1 X130.222 Y103.118 E14.02151
G1 X131.472 Y97.1 E14.22594
G1 X131.467 Y97.02 E14.22861
G1 X131.497 Y96.251 E14.2542
G1 X131.618 Y95.43 E14.28181
G1 X131.918 Y93.973 E14.33128
G1 X132.412 Y91.599 E14.41193
G1 X132.608 Y90.856 E14.43749
G1 X132.88 Y90.136 E14.46309
G1 X133.225 Y89.449 E14.48866
G1 X133.639 Y88.801 E14.51424
G1 X134.119 Y88.199 E14.53984
G1 X134.658 Y87.651 E14.56541
G1 X135.009 Y87.349 E14.58081
G1 X135.118 Y87.261 E14.58547
G1 X135.74 Y86.81 E14.61102
G1 X136.407 Y86.426 E14.63662
G1 X137.109 Y86.112 E14.6622
G1 X137.84 Y85.874 E14.68777
G1 X138.592 Y85.713 E14.71335
G1 X139.357 Y85.63 E14.73894
G1 X139.766 Y85.619 E14.75255
G1 X144.323 Y85.619 E14.90411
G1 X145.091 Y85.659 E14.92969
G1 X145.851 Y85.778 E14.95528
G1 X146.594 Y85.976 E14.98085
G1 X147.313 Y86.25 E15.00645
G1 X147.999 Y86.597 E15.03201
G1 X148.646 Y87.013 E15.0576
G1 X149.246 Y87.494 E15.08318
G1 X150.039 Y88.319 E15.12124
G1 X150.164 Y88.471 E15.12778
G1 X150.621 Y89.089 E15.15335
G1 X151.011 Y89.752 E15.17893
G1 X151.33 Y90.452 E15.20451
G1 X151.575 Y91.181 E15.23009
G1 X151.743 Y91.931 E15.25566
G1 X151.833 Y92.695 E15.28124
G1 X151.842 Y93.465 E15.30686
G1 X151.772 Y94.23 E15.33241
G1 X151.693 Y94.675 E15.34744
G1 X149.528 Y105.1 E15.70157
G1 X155.039 Y105.1 E15.88487
G1 X155.487 Y105.114 E15.89978
G1 X156.031 Y105.147 E15.9179
G1 X156.439 Y105.183 E15.93153
G1 X156.894 Y105.236 E15.94676
G1 X157.764 Y105.39 E15.97615
G1 X158.181 Y105.49 E15.99041
G1 X158.767 Y105.657 E16.01068
G1 X159.147 Y105.782 E16.02398
G1 X159.736 Y106.003 E16.04491
G1 X160.142 Y106.176 E16.05959
G1 X160.758 Y106.473 E16.08233
G1 X161.182 Y106.702 E16.09836
G1 X161.759 Y107.049 E16.12075
G1 X162.164 Y107.318 E16.13692
G1 X162.629 Y107.653 E16.15599
G1 X162.964 Y107.915 E16.17013
G1 X163.572 Y108.447 E16.197
G1 X163.857 Y108.725 E16.21024
G1 X163.983 Y108.845 E16.21603
G1 X164.27 Y109.152 E16.23001
G1 X164.567 Y109.489 E16.24495
G1 X165.059 Y110.113 E16.27138
G1 X165.314 Y110.474 E16.28608
G1 X165.593 Y110.899 E16.30299
G1 X165.81 Y111.256 E16.31688
G1 X166.142 Y111.864 E16.33992
G1 X166.354 Y112.3 E16.35605
G1 X166.634 Y112.955 E16.37974
G1 X166.781 Y113.35 E16.39376
G1 X166.982 Y113.971 E16.41547
G1 X167.124 Y114.488 E16.4333
G1 X167.264 Y115.098 E16.45412
G1 X167.323 Y115.416 E16.46487
G1 X167.418 Y116.109 E16.48814
G1 X167.469 Y116.681 E16.50724
G1 X167.498 Y117.338 E16.52911
G1 X167.498 Y117.704 E16.54129
G1 X167.454 Y118.511 E16.56817
G1 X167.4 Y119.003 E16.58463
G1 X167.358 Y119.319 E16.59523
G1 X167.288 Y119.775 E16.61058
G1 X167.066 Y120.766 E16.64435
G1 X166.942 Y121.182 E16.65879
G1 X166.77 Y121.689 E16.6766
G1 X166.631 Y122.056 E16.68965
G1 X166.371 Y122.66 E16.71152
G1 X166.142 Y123.133 E16.729
G1 X165.826 Y123.718 E16.75112
G1 X165.611 Y124.076 E16.765
G1 X165.246 Y124.626 E16.78696
G1 X164.993 Y124.973 E16.80124
G1 X164.602 Y125.465 E16.82214
G1 X164.312 Y125.799 E16.83686
G1 X163.819 Y126.314 E16.86057
G1 X163.563 Y126.557 E16.87231
G1 X163.229 Y126.859 E16.88729
G1 X162.908 Y127.128 E16.90122
G1 X162.64 Y127.34 E16.91258
G1 X162.092 Y127.734 E16.93503
G1 X161.741 Y127.963 E16.94897
G1 X161.276 Y128.242 E16.967
G1 X160.847 Y128.479 E16.98331
G1 X160.184 Y128.804 E17.00786
G1 X159.736 Y128.996 E17.02408
G1 X159.069 Y129.244 E17.04774
G1 X158.677 Y129.369 E17.06143
G1 X158.121 Y129.523 E17.08062
G1 X157.708 Y129.62 E17.09473
G1 X156.98 Y129.753 E17.11934
G1 X156.546 Y129.81 E17.1339
G1 X155.914 Y129.866 E17.155
G1 X155.313 Y129.893 E17.17501
G1 X154.982 Y129.9 E17.18602
G1 X149.534 Y129.901 E17.36723
G1 X151.687 Y140.341 E17.72177
G1 X151.803 Y141.101 E17.74734
G1 X151.84 Y141.87 E17.77295
G1 X151.796 Y142.638 E17.79853
G1 X151.673 Y143.397 E17.8241
G1 X151.472 Y144.139 E17.84967
G1 X151.195 Y144.857 E17.87527
