;FLAVOR:Marlin
;TIME:2605
;Filament used: 0.825186m
;Layer height: 0.12
;MINX:131.923
;MINY:121.376
;MINZ:0.12
;MAXX:168.08
;MAXY:178.238
;MAXZ:10.56
;Generated with Cura_SteamEngine 4.9.0
M140 S50
M105
M190 S50
M104 S200
M105
M109 S200
M82 ;absolute extrusion mode
M201 X500.00 Y500.00 Z100.00 E5000.00 ;Setup machine max acceleration
M203 X500.00 Y500.00 Z10.00 E50.00 ;Setup machine max feedrate
M204 P500.00 R1000.00 T500.00 ;Setup Print/Retract/Travel acceleration
M205 X8.00 Y8.00 Z0.40 E5.00 ;Setup Jerk
M220 S100 ;Reset Feedrate
M221 S100 ;Reset Flowrate

G28 ;Home

G92 E0 ;Reset Extruder
G1 Z2.0 F3000 ;Move Z Axis up
G1 X10.1 Y20 Z0.28 F5000.0 ;Move to start position
G1 X10.1 Y200.0 Z0.28 F1500.0 E15 ;Draw the first line
G1 X10.4 Y200.0 Z0.28 F5000.0 ;Move to side a little
G1 X10.4 Y20 Z0.28 F1500.0 E30 ;Draw the second line
G92 E0 ;Reset Extruder
G1 Z2.0 F3000 ;Move Z Axis up

G92 E0
G92 E0
G1 F2700 E-5
;LAYER_COUNT:88
;LAYER:0
M107
G0 F6000 X139.167 Y125.949 Z0.12
;TYPE:SKIRT
G1 F2700 E0
G1 F1200 X139.271 Y125.842 E0.00298
G1 X139.953 Y125.198 E0.0217
G1 X140.687 Y124.614 E0.04042
G1 X141.093 Y124.333 E0.05027
G1 X141.689 Y123.94 E0.06452
G1 X142.517 Y123.41 E0.08413
G1 X143.065 Y123.069 E0.09701
G1 X143.882 Y122.607 E0.11574
G1 X144.735 Y122.218 E0.13445
G1 X145.757 Y121.86 E0.15606
G1 X145.828 Y121.839 E0.15754
G1 X146.738 Y121.611 E0.17626
G1 X147.664 Y121.462 E0.19498
G1 X148.783 Y121.388 E0.21736
G1 X149.681 Y121.376 E0.23528
G1 X150.353 Y121.376 E0.24869
G1 X151.213 Y121.387 E0.26586
G1 X152.15 Y121.44 E0.28458
G1 X153.078 Y121.573 E0.30329
G1 X153.894 Y121.758 E0.31999
G1 X154.79 Y122.035 E0.33871
G1 X155.66 Y122.388 E0.35744
G1 X156.876 Y123.038 E0.38496
G1 X157.764 Y123.588 E0.4058
G1 X158.433 Y124.02 E0.4217
G1 X158.997 Y124.395 E0.43521
G1 X159.756 Y124.947 E0.45394
G1 X160.464 Y125.562 E0.47266
G1 X161.117 Y126.235 E0.49137
G1 X161.711 Y126.961 E0.51009
G1 X162.241 Y127.734 E0.52879
G1 X162.824 Y128.796 E0.55297
G1 X163.326 Y129.845 E0.57618
G1 X163.532 Y130.295 E0.58605
G1 X163.89 Y131.109 E0.6038
G1 X164.231 Y131.983 E0.62252
G1 X164.563 Y133.171 E0.64714
G1 X164.603 Y133.353 E0.65086
G1 X164.728 Y134.02 E0.6644
G1 X164.856 Y134.852 E0.6812
G1 X167.905 Y156.393 E1.11536
G1 X167.993 Y157.086 E1.1293
G1 X168.072 Y158.021 E1.14802
G1 X168.08 Y158.625 E1.16008
G1 X168.072 Y159.171 E1.17097
G1 X167.998 Y162.162 E1.23068
G1 X167.988 Y162.441 E1.23625
G1 X167.956 Y162.971 E1.24685
G1 X167.926 Y163.327 E1.25398
G1 X167.808 Y164.257 E1.27269
G1 X167.61 Y165.174 E1.29141
G1 X167.336 Y166.071 E1.31012
G1 X166.985 Y166.941 E1.32885
G1 X166.694 Y167.537 E1.34208
G1 X166.246 Y168.386 E1.36124
G1 X165.465 Y169.806 E1.39358
G1 X165.041 Y170.554 E1.41074
G1 X164.543 Y171.348 E1.42944
G1 X163.979 Y172.098 E1.44817
G1 X163.354 Y172.796 E1.46687
G1 X162.671 Y173.439 E1.48559
G1 X162.188 Y173.833 E1.49802
G1 X161.423 Y174.42 E1.51727
G1 X160.051 Y175.443 E1.55142
G1 X159.449 Y175.878 E1.56624
G1 X158.666 Y176.394 E1.58496
G1 X157.842 Y176.842 E1.60367
G1 X157.325 Y177.079 E1.61502
G1 X156.448 Y177.411 E1.63374
G1 X155.514 Y177.675 E1.65311
G1 X154.805 Y177.842 E1.66764
G1 X154.473 Y177.915 E1.67442
G1 X153.966 Y178.018 E1.68475
G1 X153.04 Y178.165 E1.70346
G1 X151.787 Y178.238 E1.72851
G1 X150.693 Y178.238 E1.75034
G1 X149.811 Y178.228 E1.76794
G1 X149.242 Y178.235 E1.7793
G1 X148.253 Y178.236 E1.79903
G1 X147.316 Y178.197 E1.81775
G1 X146.078 Y178.021 E1.8427
G1 X145.415 Y177.888 E1.8562
G1 X145.087 Y177.817 E1.86289
G1 X144.584 Y177.7 E1.8732
G1 X143.68 Y177.449 E1.89192
G1 X142.801 Y177.121 E1.91065
G1 X141.823 Y176.651 E1.9323
G1 X141.593 Y176.526 E1.93752
G1 X140.789 Y176.043 E1.95624
G1 X140.365 Y175.749 E1.96654
G1 X139.975 Y175.463 E1.97619
G1 X138.405 Y174.29 E2.0153
G1 X137.844 Y173.859 E2.02942
G1 X137.126 Y173.256 E2.04813
G1 X136.185 Y172.284 E2.07513
G1 X136.132 Y172.222 E2.07675
G1 X135.553 Y171.483 E2.09549
G1 X134.92 Y170.493 E2.11894
G1 X134.511 Y169.767 E2.13557
G1 X133.654 Y168.201 E2.17119
G1 X133.327 Y167.585 E2.18511
G1 X132.923 Y166.738 E2.20384
G1 X132.593 Y165.861 E2.22254
G1 X132.338 Y164.958 E2.24126
G1 X132.161 Y164.037 E2.25998
G1 X132.087 Y163.406 E2.27266
G1 X132.056 Y163.059 E2.27961
G1 X132.029 Y162.694 E2.28691
G1 X132.02 Y162.533 E2.29013
G1 X132.008 Y162.241 E2.29596
G1 X131.985 Y161.442 E2.31191
G1 X131.963 Y160.013 E2.34043
G1 X131.934 Y159.253 E2.35561
G1 X131.923 Y158.766 E2.36533
G1 X131.942 Y157.829 E2.38404
G1 X132.002 Y157.173 E2.39718
G1 X132.119 Y156.223 E2.41628
G1 X135.166 Y134.701 E2.85006
G1 X135.274 Y134.008 E2.86406
G1 X135.357 Y133.545 E2.87344
G1 X135.385 Y133.405 E2.87629
G1 X135.608 Y132.494 E2.89501
G1 X135.907 Y131.605 E2.91373
G1 X136.093 Y131.154 E2.92346
G1 X136.435 Y130.372 E2.9405
G1 X136.841 Y129.482 E2.96002
G1 X137.115 Y128.904 E2.97278
G1 X137.553 Y128.075 E2.99149
G1 X138.059 Y127.285 E3.01022
G1 X138.631 Y126.542 E3.02893
G1 X139.167 Y125.949 E3.04488
G0 F6000 X139.454 Y126.228
G1 F1200 X139.558 Y126.121 E3.04786
G1 X140.228 Y125.489 E3.06624
G1 X141.314 Y124.666 E3.09343
G1 X141.905 Y124.276 E3.10756
G1 X142.729 Y123.749 E3.12708
G1 X143.277 Y123.408 E3.13996
G1 X144.079 Y122.956 E3.15833
G1 X144.917 Y122.575 E3.1767
G1 X145.871 Y122.243 E3.19686
G1 X145.942 Y122.222 E3.19834
G1 X146.835 Y122 E3.2167
G1 X147.744 Y121.856 E3.23507
G1 X148.789 Y121.788 E3.25597
G1 X149.681 Y121.776 E3.27377
G1 X150.353 Y121.776 E3.28718
G1 X151.208 Y121.787 E3.30424
G1 X152.127 Y121.84 E3.32261
G1 X153.038 Y121.973 E3.34099
G1 X153.793 Y122.145 E3.35644
G1 X154.672 Y122.418 E3.37481
G1 X155.524 Y122.766 E3.39317
G1 X156.666 Y123.378 E3.41903
G1 X157.547 Y123.924 E3.43971
G1 X158.212 Y124.353 E3.45551
G1 X158.776 Y124.728 E3.46902
G1 X159.52 Y125.271 E3.4874
G1 X160.214 Y125.876 E3.50578
G1 X160.852 Y126.539 E3.52414
G1 X161.431 Y127.255 E3.54251
G1 X161.946 Y128.018 E3.56088
G1 X162.464 Y128.969 E3.5825
G1 X162.881 Y129.838 E3.60173
G1 X163.168 Y130.462 E3.61544
G1 X163.524 Y131.269 E3.63304
G1 X163.857 Y132.128 E3.65142
G1 X164.172 Y133.257 E3.67481
G1 X164.212 Y133.439 E3.67853
G1 X164.333 Y134.081 E3.69157
G1 X164.439 Y134.761 E3.7053
G1 X167.509 Y156.444 E4.14233
G1 X167.597 Y157.137 E4.15627
G1 X167.673 Y158.054 E4.17463
G1 X167.68 Y158.62 E4.18593
G1 X167.672 Y159.161 E4.19672
G1 X167.598 Y162.148 E4.25635
G1 X167.588 Y162.427 E4.26192
G1 X167.558 Y162.937 E4.27212
G1 X167.528 Y163.293 E4.27925
G1 X167.41 Y164.206 E4.29762
G1 X167.215 Y165.106 E4.316
G1 X166.941 Y165.985 E4.33437
G1 X166.593 Y166.837 E4.35274
G1 X166.34 Y167.35 E4.36415
G1 X165.892 Y168.199 E4.38331
G1 X165.115 Y169.612 E4.41549
G1 X164.693 Y170.356 E4.43256
G1 X164.204 Y171.136 E4.45093
G1 X163.649 Y171.87 E4.46929
G1 X163.032 Y172.553 E4.48766
G1 X162.358 Y173.181 E4.50605
G1 X161.944 Y173.516 E4.51667
G1 X161.184 Y174.1 E4.5358
G1 X159.816 Y175.119 E4.56984
G1 X159.214 Y175.554 E4.58466
G1 X158.445 Y176.06 E4.60303
G1 X157.635 Y176.498 E4.62141
G1 X157.168 Y176.711 E4.63165
G1 X156.306 Y177.037 E4.65004
G1 X155.422 Y177.286 E4.66837
G1 X154.713 Y177.453 E4.68291
G1 X154.393 Y177.523 E4.68945
G1 X153.886 Y177.626 E4.69977
G1 X152.977 Y177.77 E4.71814
G1 X151.787 Y177.838 E4.74192
G1 X150.697 Y177.838 E4.76367
G1 X149.809 Y177.828 E4.7814
G1 X149.242 Y177.835 E4.79271
G1 X148.253 Y177.836 E4.81245
G1 X147.333 Y177.797 E4.83083
G1 X146.157 Y177.629 E4.85453
G1 X145.494 Y177.496 E4.86803
G1 X145.178 Y177.427 E4.87448
G1 X144.675 Y177.31 E4.88479
G1 X143.788 Y177.063 E4.90316
G1 X142.926 Y176.74 E4.92153
G1 X142.014 Y176.299 E4.94175
G1 X141.784 Y176.174 E4.94697
G1 X140.995 Y175.7 E4.96534
G1 X140.601 Y175.426 E4.97492
G1 X140.214 Y175.143 E4.98448
G1 X138.649 Y173.973 E5.02348
G1 X138.088 Y173.542 E5.0376
G1 X137.383 Y172.95 E5.05597
G1 X136.489 Y172.024 E5.08165
G1 X136.436 Y171.962 E5.08328
G1 X135.868 Y171.237 E5.10166
G1 X135.269 Y170.296 E5.12392
G1 X134.861 Y169.575 E5.14045
G1 X134.007 Y168.013 E5.17598
G1 X133.68 Y167.397 E5.1899
G1 X133.284 Y166.566 E5.20827
G1 X132.962 Y165.704 E5.22663
G1 X132.716 Y164.816 E5.24502
G1 X132.547 Y163.911 E5.26339
G1 X132.485 Y163.37 E5.27426
G1 X132.454 Y163.023 E5.28121
G1 X132.429 Y162.672 E5.28823
G1 X132.408 Y162.23 E5.29706
G1 X132.385 Y161.436 E5.31292
G1 X132.363 Y160.032 E5.34094
G1 X132.339 Y159.429 E5.35298
G1 X132.323 Y158.757 E5.3664
G1 X132.342 Y157.837 E5.38476
G1 X132.399 Y157.222 E5.39708
G1 X132.516 Y156.272 E5.41619
G1 X135.561 Y134.763 E5.8497
G1 X135.669 Y134.07 E5.8637
G1 X135.749 Y133.623 E5.87276
G1 X135.777 Y133.483 E5.87561
G1 X135.996 Y132.589 E5.89398
G1 X136.459 Y131.315 E5.92103
G1 X136.873 Y130.371 E5.9416
G1 X137.203 Y129.653 E5.95737
G1 X137.477 Y129.075 E5.97013
G1 X137.907 Y128.261 E5.9885
G1 X138.406 Y127.488 E6.00687
G1 X138.97 Y126.76 E6.02524
G1 X139.454 Y126.228 E6.0396
G0 F6000 X139.741 Y126.507
G1 F1200 X139.845 Y126.4 E6.04257
G1 X140.502 Y125.781 E6.06059
G1 X141.534 Y125 E6.08642
G1 X142.121 Y124.613 E6.10045
G1 X142.94 Y124.089 E6.11985
G1 X143.488 Y123.748 E6.13273
G1 X144.275 Y123.305 E6.15075
G1 X145.098 Y122.934 E6.16877
G1 X145.984 Y122.627 E6.18748
G1 X146.055 Y122.606 E6.18896
G1 X146.931 Y122.388 E6.20697
G1 X147.824 Y122.249 E6.22501
G1 X148.795 Y122.188 E6.24442
G1 X149.681 Y122.176 E6.26211
G1 X150.353 Y122.176 E6.27552
G1 X151.202 Y122.187 E6.29246
G1 X152.103 Y122.24 E6.31047
G1 X152.997 Y122.372 E6.32851
G1 X153.691 Y122.532 E6.34272
G1 X154.553 Y122.8 E6.36073
G1 X155.388 Y123.144 E6.37876
G1 X156.456 Y123.718 E6.40295
G1 X157.178 Y124.164 E6.41989
G1 X157.857 Y124.599 E6.43598
G1 X158.555 Y125.061 E6.45268
G1 X159.284 Y125.594 E6.47071
G1 X159.963 Y126.189 E6.48872
G1 X160.587 Y126.842 E6.50675
G1 X161.15 Y127.548 E6.52477
G1 X161.649 Y128.301 E6.54279
G1 X162.103 Y129.142 E6.56187
G1 X162.52 Y130.011 E6.5811
G1 X162.804 Y130.628 E6.59466
G1 X163.158 Y131.43 E6.61215
G1 X163.484 Y132.272 E6.63017
G1 X163.781 Y133.342 E6.65233
G1 X163.821 Y133.524 E6.65605
G1 X163.937 Y134.143 E6.66862
G1 X164.064 Y134.964 E6.68519
G1 X167.112 Y156.494 E7.11913
G1 X167.2 Y157.187 E7.13307
G1 X167.274 Y158.087 E7.1511
G1 X167.28 Y158.614 E7.16161
G1 X167.272 Y159.151 E7.17233
G1 X167.198 Y162.133 E7.23186
G1 X167.188 Y162.412 E7.23743
G1 X167.159 Y162.904 E7.24726
G1 X167.129 Y163.26 E7.25439
G1 X167.013 Y164.155 E7.2724
G1 X166.819 Y165.037 E7.29043
G1 X166.547 Y165.898 E7.30845
G1 X166.201 Y166.732 E7.32646
G1 X165.986 Y167.163 E7.33608
G1 X165.451 Y168.174 E7.3589
G1 X164.698 Y169.539 E7.39001
G1 X164.346 Y170.158 E7.40422
G1 X163.865 Y170.923 E7.42226
G1 X163.318 Y171.642 E7.44028
G1 X162.71 Y172.309 E7.4583
G1 X161.701 Y173.199 E7.48515
G1 X160.945 Y173.779 E7.50416
G1 X159.708 Y174.702 E7.53496
G1 X158.98 Y175.229 E7.5529
G1 X158.225 Y175.725 E7.57092
G1 X157.01 Y176.343 E7.59813
G1 X156.165 Y176.662 E7.61615
G1 X155.331 Y176.896 E7.63344
G1 X154.622 Y177.063 E7.64797
G1 X154.314 Y177.131 E7.65427
G1 X153.807 Y177.234 E7.66459
G1 X152.915 Y177.374 E7.68261
G1 X151.787 Y177.438 E7.70516
G1 X150.702 Y177.438 E7.72681
G1 X149.808 Y177.428 E7.74465
G1 X149.241 Y177.435 E7.75597
G1 X148.252 Y177.436 E7.7757
G1 X147.35 Y177.397 E7.79372
G1 X146.236 Y177.237 E7.81618
G1 X145.573 Y177.104 E7.82967
G1 X145.268 Y177.038 E7.8359
G1 X144.765 Y176.921 E7.84621
G1 X143.895 Y176.677 E7.86424
G1 X143.051 Y176.358 E7.88225
G1 X142.205 Y175.948 E7.90101
G1 X141.975 Y175.823 E7.90623
G1 X140.836 Y175.103 E7.93312
G1 X140.453 Y174.822 E7.9426
G1 X138.893 Y173.656 E7.98147
G1 X138.332 Y173.225 E7.99558
G1 X137.641 Y172.643 E8.01361
G1 X136.793 Y171.764 E8.03799
G1 X136.74 Y171.702 E8.03962
G1 X136.184 Y170.99 E8.05764
G1 X135.617 Y170.099 E8.07872
G1 X135.212 Y169.383 E8.09514
G1 X134.361 Y167.826 E8.13055
G1 X134.034 Y167.21 E8.14446
G1 X133.646 Y166.394 E8.16249
G1 X133.332 Y165.547 E8.18052
G1 X133.094 Y164.676 E8.19854
G1 X132.934 Y163.787 E8.21657
G1 X132.883 Y163.335 E8.22564
G1 X132.852 Y162.988 E8.2326
G1 X132.828 Y162.649 E8.23938
G1 X132.807 Y162.218 E8.24799
G1 X132.785 Y161.43 E8.26372
G1 X132.763 Y160.009 E8.29208
G1 X132.739 Y159.413 E8.30398
G1 X132.723 Y158.748 E8.31726
G1 X132.742 Y157.845 E8.33528
G1 X132.796 Y157.271 E8.34679
G1 X132.913 Y156.321 E8.36589
G1 X135.936 Y134.965 E8.79632
G1 X136.065 Y134.131 E8.81316
G1 X136.141 Y133.702 E8.82186
G1 X136.169 Y133.562 E8.82471
G1 X136.385 Y132.685 E8.84273
G1 X136.826 Y131.475 E8.86843
G1 X137.237 Y130.538 E8.88885
G1 X137.564 Y129.825 E8.9045
G1 X137.838 Y129.247 E8.91727
G1 X138.261 Y128.449 E8.93529
G1 X138.752 Y127.691 E8.95332
G1 X139.309 Y126.98 E8.97134
G1 X139.741 Y126.507 E8.98412
G0 F6000 X150 Y136.291
G1 F1200 X150.164 Y136.652 E8.99204
G1 X150.799 Y141.139 E9.08247
G1 X149.201 Y141.138 E9.11436
G1 X149.836 Y136.652 E9.20478
G1 X150 Y136.291 E9.21269
G0 F6000 X150.249 Y135.875
G1 F1200 X150.552 Y136.541 E9.22729
G1 X151.261 Y141.545 E9.32815
G1 X151.186 Y141.539 E9.32965
G1 X148.817 Y141.538 E9.37693
G1 X148.739 Y141.544 E9.37849
G1 X149.448 Y136.541 E9.47933
G1 X149.751 Y135.875 E9.49393
G1 X149.906 Y135.776 E9.4976
G1 X150.094 Y135.776 E9.50135
G1 X150.249 Y135.875 E9.50502
G0 F6000 X150.564 Y135.603
G1 F1200 X150.94 Y136.428 E9.52311
G1 X151.729 Y141.997 E9.63536
G1 X151.582 Y141.965 E9.63836
G1 X151.186 Y141.939 E9.64628
G1 X148.817 Y141.938 E9.69356
G1 X148.329 Y141.978 E9.70333
G1 X148.272 Y141.992 E9.7045
G1 X149.06 Y136.428 E9.81664
G1 X149.436 Y135.603 E9.83473
G1 X149.79 Y135.376 E9.84313
G1 X150.21 Y135.376 E9.85151
G1 X150.564 Y135.603 E9.8599
G0 F6000 X150.879 Y135.33
G1 F1200 X151.328 Y136.314 E9.88148
G1 X152.212 Y142.556 E10.00729
G1 X151.853 Y142.426 E10.01491
G1 X151.186 Y142.339 E10.02834
G1 X148.817 Y142.338 E10.07561
G1 X148.363 Y142.378 E10.08471
G1 X147.923 Y142.496 E10.0938
G1 X147.787 Y142.559 E10.09679
G1 X148.672 Y136.314 E10.22266
G1 X149.121 Y135.33 E10.24424
G1 X149.672 Y134.976 E10.25731
G1 X150.328 Y134.976 E10.27041
G1 X150.879 Y135.33 E10.28348
G0 F6000 X151.194 Y135.056
G1 F1200 X151.716 Y136.2 E10.30857
G1 X152.732 Y143.377 E10.45322
G1 X152.419 Y143.118 E10.46133
G1 X152.051 Y142.917 E10.4697
G1 X151.652 Y142.789 E10.47806
G1 X151.186 Y142.739 E10.48741
G1 X148.817 Y142.738 E10.53469
G1 X148.4 Y142.778 E10.54305
G1 X147.998 Y142.896 E10.55141
G1 X147.625 Y143.088 E10.55978
G1 X147.268 Y143.376 E10.56893
G1 X148.284 Y136.2 E10.71357
G1 X148.806 Y135.056 E10.73866
G1 X149.554 Y134.576 E10.7564
G1 X150.446 Y134.576 E10.7742
G1 X151.194 Y135.056 E10.79194
G0 F6000 X152.104 Y136.087
G1 F1200 X153.311 Y144.615 E10.96382
G1 X153.222 Y144.461 E10.96737
G1 X153.044 Y144.253 E10.97283
G1 X152.459 Y143.667 E10.98935
G1 X152.164 Y143.429 E10.99692
G1 X151.827 Y143.257 E11.00447
G1 X151.46 Y143.16 E11.01204
G1 X151.186 Y143.139 E11.01753
G1 X148.817 Y143.138 E11.0648
G1 X148.44 Y143.178 E11.07237
G1 X148.08 Y143.295 E11.07992
G1 X147.752 Y143.486 E11.0875
G1 X147.543 Y143.665 E11.09299
G1 X146.957 Y144.251 E11.10953
G1 X146.719 Y144.546 E11.11709
G1 X146.69 Y144.603 E11.11837
G1 X147.896 Y136.087 E11.29001
G1 X148.49 Y134.784 E11.31859
G1 X149.438 Y134.176 E11.34106
G1 X150.562 Y134.176 E11.36349
G1 X151.51 Y134.784 E11.38597
G1 X152.104 Y136.087 E11.41454
G0 F6000 X152.492 Y135.973
G1 F1200 X155.467 Y156.985 E11.83804
G1 X154.921 Y156.985 E11.84894
G1 X154.496 Y156.305 E11.86494
G1 X154.27 Y156.029 E11.87206
G1 X154.085 Y155.854 E11.87714
G1 X153.802 Y155.647 E11.88414
G1 X153.17 Y155.297 E11.89856
G1 X153.17 Y145.525 E12.09357
G1 X153.13 Y145.193 E12.10024
G1 X153.013 Y144.881 E12.10689
G1 X152.761 Y144.536 E12.11542
G1 X152.176 Y143.95 E12.13194
G1 X151.913 Y143.743 E12.13862
G1 X151.609 Y143.605 E12.14528
G1 X151.186 Y143.539 E12.15383
G1 X148.817 Y143.538 E12.2011
G1 X148.485 Y143.578 E12.20778
G1 X148.172 Y143.695 E12.21444
G1 X147.826 Y143.948 E12.223
G1 X147.24 Y144.534 E12.23954
G1 X147.034 Y144.797 E12.2462
G1 X146.895 Y145.101 E12.25287
G1 X146.83 Y145.524 E12.26141
G1 X146.83 Y155.297 E12.45644
G1 X146.198 Y155.647 E12.47086
G1 X145.915 Y155.854 E12.47786
G1 X145.73 Y156.029 E12.48294
G1 X145.504 Y156.305 E12.49006
G1 X145.079 Y156.985 E12.50606
G1 X144.533 Y156.985 E12.51696
