;FLAVOR:Marlin
;TIME:24556
;Filament used: 18.6977m
;Layer height: 0.2
;MINX:130.7
;MINY:105.7
;MINZ:0.2
;MAXX:169.3
;MAXY:194.3
;MAXZ:53
;Generated with Cura_SteamEngine 4.9.0
M140 S50
M105
M190 S50
M104 S200
M105
M109 S200
M82 ;absolute extrusion mode
M201 X500.00 Y500.00 Z100.00 E5000.00 ;Setup machine max acceleration
M203 X500.00 Y500.00 Z10.00 E50.00 ;Setup machine max feedrate
M204 P500.00 R1000.00 T500.00 ;Setup Print/Retract/Travel acceleration
M205 X8.00 Y8.00 Z0.40 E5.00 ;Setup Jerk
M220 S100 ;Reset Feedrate
M221 S100 ;Reset Flowrate

G28 ;Home

G92 E0 ;Reset Extruder
G1 Z2.0 F3000 ;Move Z Axis up
G1 X10.1 Y20 Z0.28 F5000.0 ;Move to start position
G1 X10.1 Y200.0 Z0.28 F1500.0 E15 ;Draw the first line
G1 X10.4 Y200.0 Z0.28 F5000.0 ;Move to side a little
G1 X10.4 Y20 Z0.28 F1500.0 E30 ;Draw the second line
G92 E0 ;Reset Extruder
G1 Z2.0 F3000 ;Move Z Axis up

G92 E0
G92 E0
G1 F2700 E-5
;LAYER_COUNT:265
;LAYER:0
M107
G0 F6000 X135.58 Y108.537 Z0.2
;TYPE:SKIRT
G1 F2700 E0
G1 F1200 X136.032 Y108.054 E0.022
G1 X136.15 Y107.938 E0.02751
G1 X136.74 Y107.413 E0.05377
G1 X137.381 Y106.951 E0.08005
G1 X138.065 Y106.556 E0.10632
G1 X138.785 Y106.233 E0.13257
G1 X139.534 Y105.983 E0.15883
G1 X140.305 Y105.811 E0.18511
G1 X141.089 Y105.718 E0.21137
G1 X141.618 Y105.7 E0.22897
G1 X161.383 Y105.7 E0.88636
G1 X162.172 Y105.74 E0.91263
G1 X162.952 Y105.859 E0.93888
G1 X163.717 Y106.057 E0.96516
G1 X164.457 Y106.331 E0.9914
G1 X165.166 Y106.679 E1.01767
G1 X165.837 Y107.097 E1.04397
G1 X166.461 Y107.58 E1.07021
G1 X166.898 Y107.985 E1.09003
G1 X167.015 Y108.102 E1.09553
G1 X167.545 Y108.688 E1.12181
G1 X168.012 Y109.324 E1.14806
G1 X168.413 Y110.004 E1.17431
G1 X168.743 Y110.722 E1.20059
G1 X168.998 Y111.469 E1.22685
G1 X169.177 Y112.238 E1.25311
G1 X169.277 Y113.022 E1.2794
G1 X169.3 Y113.617 E1.2992
G1 X169.3 Y147.354 E2.4213
G1 X169.26 Y148.143 E2.44757
G1 X169.235 Y148.308 E2.45312
G1 X169.3 Y149.192 E2.48261
G1 X169.3 Y150.808 E2.53635
G1 X169.26 Y151.597 E2.56263
G1 X169.234 Y151.769 E2.56842
G1 X169.3 Y152.646 E2.59767
G1 X169.3 Y186.383 E3.71976
G1 X169.26 Y187.172 E3.74604
G1 X169.141 Y187.952 E3.77228
G1 X168.943 Y188.717 E3.79857
G1 X168.669 Y189.457 E3.82481
G1 X168.321 Y190.166 E3.85108
G1 X167.903 Y190.837 E3.87737
G1 X167.42 Y191.461 E3.90362
G1 X167.015 Y191.898 E3.92344
G1 X166.898 Y192.015 E3.92894
G1 X166.312 Y192.545 E3.95522
G1 X165.676 Y193.012 E3.98146
G1 X164.996 Y193.413 E4.00772
G1 X164.278 Y193.743 E4.034
G1 X163.531 Y193.998 E4.06025
G1 X162.762 Y194.177 E4.08652
G1 X161.978 Y194.277 E4.1128
G1 X161.383 Y194.3 E4.13261
G1 X141.617 Y194.3 E4.79003
G1 X140.828 Y194.26 E4.8163
G1 X140.048 Y194.141 E4.84255
G1 X139.283 Y193.943 E4.86883
G1 X138.543 Y193.669 E4.89507
G1 X137.834 Y193.321 E4.92134
G1 X137.163 Y192.903 E4.94764
G1 X136.539 Y192.42 E4.97388
G1 X136.102 Y192.015 E4.9937
G1 X135.985 Y191.898 E4.9992
G1 X135.455 Y191.312 E5.02548
G1 X134.988 Y190.676 E5.05173
G1 X134.587 Y189.996 E5.07798
G1 X134.257 Y189.278 E5.10426
G1 X134.002 Y188.531 E5.13052
G1 X133.823 Y187.762 E5.15678
G1 X133.723 Y186.978 E5.18307
G1 X133.7 Y186.383 E5.20287
G1 X133.7 Y178.338 E5.47045
G1 X133.559 Y177.76 E5.49024
G1 X133.449 Y176.978 E5.5165
G1 X133.42 Y176.189 E5.54276
G1 X133.455 Y175.644 E5.56093
G1 X133.043 Y175.255 E5.57977
G1 X132.919 Y175.128 E5.58567
G1 X132.397 Y174.536 E5.61193
G1 X131.937 Y173.894 E5.63819
G1 X131.544 Y173.209 E5.66446
G1 X131.223 Y172.487 E5.69074
G1 X130.976 Y171.737 E5.717
G1 X130.807 Y170.966 E5.74326
G1 X130.716 Y170.181 E5.76954
G1 X130.7 Y169.679 E5.78625
G1 X130.7 Y153.516 E6.32383
G1 X130.74 Y152.727 E6.35011
G1 X130.859 Y151.947 E6.37635
G1 X131.057 Y151.182 E6.40263
G1 X131.331 Y150.442 E6.42888
G1 X131.546 Y150.003 E6.44513
G1 X131.459 Y149.842 E6.45122
G1 X131.156 Y149.113 E6.47748
G1 X130.928 Y148.357 E6.50374
G1 X130.777 Y147.581 E6.53004
G1 X130.7 Y146.485 E6.56658
G1 X130.7 Y130.31 E7.10456
G1 X130.74 Y129.521 E7.13084
G1 X130.859 Y128.741 E7.15708
G1 X131.057 Y127.976 E7.18336
G1 X131.331 Y127.236 E7.20961
G1 X131.679 Y126.527 E7.23588
G1 X132.097 Y125.856 E7.26217
G1 X132.58 Y125.232 E7.28842
G1 X132.938 Y124.842 E7.30602
G1 X133.054 Y124.724 E7.31153
G1 X133.44 Y124.369 E7.32897
G1 X133.404 Y123.798 E7.348
G1 X133.434 Y123.009 E7.37426
G1 X133.543 Y122.227 E7.40052
G1 X133.699 Y121.63 E7.42104
G1 X133.7 Y113.615 E7.68762
G1 X133.74 Y112.826 E7.7139
G1 X133.86 Y112.046 E7.74015
G1 X134.058 Y111.281 E7.76643
G1 X134.332 Y110.541 E7.79268
G1 X134.679 Y109.832 E7.81893
G1 X135.097 Y109.162 E7.8452
G1 X135.58 Y108.537 E7.87147
G0 F6000 X135.976 Y108.692
G1 F1200 X136.312 Y108.339 E7.88768
G1 X136.43 Y108.223 E7.89318
G1 X137.006 Y107.713 E7.91877
G1 X137.632 Y107.265 E7.94437
G1 X138.3 Y106.885 E7.96993
G1 X139.005 Y106.577 E7.99552
G1 X139.738 Y106.343 E8.02111
G1 X140.491 Y106.186 E8.0467
G1 X141.618 Y106.1 E8.08429
G1 X161.383 Y106.1 E8.74168
G1 X162.151 Y106.14 E8.76726
G1 X162.911 Y106.259 E8.79284
G1 X163.654 Y106.457 E8.81842
G1 X164.373 Y106.731 E8.84401
G1 X165.059 Y107.078 E8.86958
G1 X165.706 Y107.494 E8.89516
G1 X166.306 Y107.975 E8.92074
G1 X166.616 Y108.267 E8.9349
G1 X166.733 Y108.384 E8.94041
G1 X167.247 Y108.956 E8.96598
G1 X167.7 Y109.578 E8.99158
G1 X168.086 Y110.243 E9.01715
G1 X168.401 Y110.945 E9.04274
G1 X168.641 Y111.676 E9.06833
G1 X168.804 Y112.427 E9.09389
G1 X168.888 Y113.192 E9.11949
G1 X168.9 Y113.617 E9.13363
G1 X168.9 Y147.354 E10.25573
G1 X168.86 Y148.122 E10.2813
G1 X168.839 Y148.257 E10.28585
G1 X168.9 Y149.192 E10.31701
G1 X168.9 Y150.808 E10.37076
G1 X168.86 Y151.576 E10.39634
G1 X168.835 Y151.735 E10.40169
G1 X168.87 Y151.976 E10.40979
G1 X168.9 Y152.646 E10.4321
G1 X168.9 Y186.383 E11.5542
G1 X168.86 Y187.151 E11.57978
G1 X168.741 Y187.911 E11.60536
G1 X168.543 Y188.654 E11.63094
G1 X168.269 Y189.373 E11.65653
G1 X167.922 Y190.059 E11.6821
G1 X167.506 Y190.706 E11.70768
G1 X167.025 Y191.306 E11.73326
G1 X166.733 Y191.616 E11.74742
G1 X166.616 Y191.733 E11.75293
G1 X166.044 Y192.247 E11.7785
G1 X165.422 Y192.7 E11.8041
G1 X164.757 Y193.086 E11.82967
G1 X164.055 Y193.401 E11.85526
G1 X163.324 Y193.641 E11.88085
G1 X162.573 Y193.804 E11.90641
G1 X161.808 Y193.888 E11.93201
G1 X161.383 Y193.9 E11.94615
G1 X141.617 Y193.9 E12.60357
G1 X140.849 Y193.86 E12.62915
G1 X140.089 Y193.741 E12.65473
G1 X139.346 Y193.543 E12.68031
G1 X138.627 Y193.269 E12.7059
G1 X137.941 Y192.922 E12.73147
G1 X137.294 Y192.506 E12.75705
G1 X136.694 Y192.025 E12.78263
G1 X136.384 Y191.733 E12.79679
G1 X136.267 Y191.616 E12.8023
G1 X135.753 Y191.044 E12.82787
G1 X135.3 Y190.422 E12.85347
G1 X134.914 Y189.757 E12.87904
G1 X134.599 Y189.055 E12.90463
G1 X134.359 Y188.324 E12.93022
G1 X134.196 Y187.573 E12.95578
G1 X134.112 Y186.808 E12.98138
G1 X134.1 Y186.383 E12.99552
G1 X134.1 Y178.29 E13.2647
G1 X133.948 Y177.665 E13.28609
G1 X133.844 Y176.903 E13.31167
G1 X133.821 Y176.134 E13.33726
G1 X133.87 Y175.465 E13.35957
G1 X133.658 Y175.292 E13.36867
G1 X133.329 Y174.976 E13.38384
G1 X133.205 Y174.849 E13.38974
G1 X132.697 Y174.271 E13.41534
G1 X132.252 Y173.644 E13.44091
G1 X131.874 Y172.974 E13.4665
G1 X131.568 Y172.269 E13.49206
G1 X131.337 Y171.535 E13.51765
G1 X131.183 Y170.781 E13.54325
G1 X131.1 Y169.679 E13.58
G1 X131.1 Y153.516 E14.11759
G1 X131.14 Y152.748 E14.14317
G1 X131.259 Y151.988 E14.16875
G1 X131.457 Y151.245 E14.19433
G1 X131.731 Y150.526 E14.21992
G1 X131.993 Y150.008 E14.23923
G1 X131.666 Y149.323 E14.26447
G1 X131.408 Y148.598 E14.29007
G1 X131.227 Y147.85 E14.31566
G1 X131.125 Y147.088 E14.34123
G1 X131.1 Y146.485 E14.36131
G1 X131.1 Y130.31 E14.89929
G1 X131.14 Y129.542 E14.92487
G1 X131.259 Y128.782 E14.95045
G1 X131.457 Y128.039 E14.97603
G1 X131.731 Y127.32 E15.00162
G1 X132.078 Y126.634 E15.02719
G1 X132.494 Y125.987 E15.05277
G1 X133.223 Y125.122 E15.0904
G1 X133.339 Y125.004 E15.0959
G1 X133.855 Y124.531 E15.11918
G1 X133.836 Y124.401 E15.12355
G1 X133.803 Y123.633 E15.14912
G1 X133.85 Y122.865 E15.17471
G1 X133.976 Y122.107 E15.20027
G1 X134.099 Y121.66 E15.21569
G1 X134.1 Y113.615 E15.48327
G1 X134.14 Y112.847 E15.50884
G1 X134.26 Y112.087 E15.53444
G1 X134.457 Y111.344 E15.56
G1 X134.731 Y110.625 E15.58559
G1 X135.078 Y109.939 E15.61116
G1 X135.495 Y109.292 E15.63676
G1 X135.976 Y108.692 E15.66234
G0 F6000 X135.892 Y109.427
G1 F1200 X136.593 Y108.624 E15.69779
G1 X136.711 Y108.508 E15.7033
G1 X137.271 Y108.013 E15.72816
G1 X137.882 Y107.58 E15.75306
G1 X138.535 Y107.216 E15.77793
G1 X139.223 Y106.922 E15.80281
G1 X139.939 Y106.704 E15.82771
G1 X140.673 Y106.564 E15.85256
G1 X141.618 Y106.5 E15.88406
G1 X161.383 Y106.5 E16.54145
G1 X162.13 Y106.54 E16.56633
G1 X162.868 Y106.659 E16.59119
G1 X163.59 Y106.857 E16.61609
G1 X164.286 Y107.13 E16.64096
G1 X164.949 Y107.477 E16.66585
G1 X165.572 Y107.892 E16.69075
G1 X166.333 Y108.55 E16.72421
G1 X166.45 Y108.667 E16.72971
G1 X166.95 Y109.224 E16.75461
G1 X167.387 Y109.83 E16.77946
G1 X167.758 Y110.48 E16.80435
G1 X168.057 Y111.166 E16.82924
G1 X168.281 Y111.88 E16.85413
G1 X168.428 Y112.613 E16.87899
G1 X168.5 Y113.617 E16.91247
G1 X168.5 Y147.354 E18.03457
G1 X168.46 Y148.101 E18.05945
G1 X168.455 Y148.402 E18.06946
G1 X168.5 Y149.192 E18.09578
G1 X168.5 Y150.808 E18.14953
G1 X168.46 Y151.555 E18.17441
G1 X168.438 Y151.717 E18.17985
G1 X168.5 Y152.646 E18.21081
G1 X168.5 Y186.383 E19.33291
G1 X168.46 Y187.13 E19.35779
G1 X168.341 Y187.868 E19.38266
G1 X168.143 Y188.59 E19.40756
G1 X167.87 Y189.286 E19.43242
G1 X167.523 Y189.949 E19.45731
G1 X167.108 Y190.572 E19.48221
G1 X166.45 Y191.333 E19.51567
G1 X166.333 Y191.45 E19.52117
G1 X165.776 Y191.95 E19.54607
G1 X165.17 Y192.387 E19.57092
G1 X164.52 Y192.758 E19.59581
G1 X163.834 Y193.057 E19.6207
G1 X163.12 Y193.281 E19.64559
G1 X162.387 Y193.428 E19.67045
G1 X161.383 Y193.5 E19.70393
G1 X141.617 Y193.5 E20.36135
G1 X140.87 Y193.46 E20.38623
G1 X140.132 Y193.341 E20.4111
G1 X139.41 Y193.143 E20.436
G1 X138.714 Y192.87 E20.46086
G1 X138.051 Y192.523 E20.48575
G1 X137.428 Y192.108 E20.51065
G1 X136.667 Y191.45 E20.54411
G1 X136.55 Y191.333 E20.54961
G1 X136.05 Y190.776 E20.57451
G1 X135.613 Y190.17 E20.59936
G1 X135.242 Y189.52 E20.62425
G1 X134.943 Y188.834 E20.64914
G1 X134.719 Y188.12 E20.67403
G1 X134.572 Y187.387 E20.69889
G1 X134.5 Y186.383 E20.73237
G1 X134.5 Y178.244 E21.00308
G1 X134.337 Y177.571 E21.02611
G1 X134.24 Y176.829 E21.051
G1 X134.222 Y176.081 E21.07588
G1 X134.284 Y175.336 E21.10075
G1 X134.292 Y175.294 E21.10217
G1 X133.615 Y174.696 E21.13221
G1 X133.491 Y174.569 E21.13812
G1 X132.998 Y174.007 E21.16298
G1 X132.568 Y173.395 E21.18786
G1 X132.205 Y172.741 E21.21274
G1 X131.914 Y172.051 E21.23765
G1 X131.699 Y171.335 E21.26251
G1 X131.561 Y170.6 E21.28738
G1 X131.5 Y169.679 E21.31808
G1 X131.5 Y153.516 E21.85567
G1 X131.54 Y152.769 E21.88055
G1 X131.659 Y152.031 E21.90541
G1 X131.857 Y151.309 E21.93031
G1 X132.13 Y150.613 E21.95518
G1 X132.453 Y149.996 E21.97834
G1 X132.181 Y149.497 E21.99724
G1 X131.896 Y148.805 E22.02213
G1 X131.686 Y148.087 E22.04702
G1 X131.554 Y147.351 E22.07189
G1 X131.5 Y146.485 E22.10074
G1 X131.5 Y130.31 E22.63873
G1 X131.54 Y129.563 E22.66361
G1 X131.659 Y128.825 E22.68847
G1 X131.857 Y128.103 E22.71337
G1 X132.13 Y127.407 E22.73824
G1 X132.477 Y126.744 E22.76313
G1 X132.892 Y126.121 E22.78802
G1 X133.508 Y125.403 E22.81949
G1 X133.624 Y125.285 E22.82499
G1 X134.176 Y124.78 E22.84988
G1 X134.284 Y124.701 E22.85433
G1 X134.222 Y124.22 E22.87046
G1 X134.207 Y123.472 E22.89534
G1 X134.271 Y122.727 E22.92021
G1 X134.414 Y121.993 E22.94508
G1 X134.499 Y121.701 E22.9552
G1 X134.5 Y113.615 E23.22414
G1 X134.54 Y112.868 E23.24902
G1 X134.66 Y112.13 E23.27389
G1 X134.857 Y111.408 E23.29878
G1 X135.131 Y110.712 E23.32366
G1 X135.477 Y110.049 E23.34853
G1 X135.892 Y109.427 E23.3734
G0 F6000 X136.289 Y109.565
G1 F1200 X136.873 Y108.909 E23.40261
G1 X136.991 Y108.793 E23.40812
G1 X137.536 Y108.313 E23.43227
G1 X138.131 Y107.896 E23.45644
G1 X138.768 Y107.547 E23.4806
G1 X139.439 Y107.27 E23.50474
G1 X140.137 Y107.068 E23.52891
G1 X140.853 Y106.945 E23.55307
G1 X141.618 Y106.9 E23.57856
G1 X161.383 Y106.9 E24.23595
G1 X162.108 Y106.94 E24.2601
G1 X162.825 Y107.059 E24.28427
G1 X163.524 Y107.257 E24.30844
G1 X164.197 Y107.53 E24.33259
G1 X164.836 Y107.875 E24.35674
G1 X165.433 Y108.289 E24.38091
G1 X166.05 Y108.833 E24.40827
G1 X166.167 Y108.95 E24.41377
G1 X166.651 Y109.491 E24.43791
G1 X167.074 Y110.082 E24.46209
G1 X167.428 Y110.716 E24.48624
G1 X167.711 Y111.385 E24.5104
G1 X167.919 Y112.081 E24.53456
G1 X168.049 Y112.796 E24.55873
G1 X168.1 Y113.617 E24.58609
G1 X168.1 Y147.354 E25.70819
G1 X168.06 Y148.079 E25.73234
G1 X168.027 Y148.279 E25.73908
G1 X168.071 Y148.573 E25.74897
G1 X168.1 Y149.192 E25.76958
G1 X168.1 Y150.808 E25.82332
G1 X168.06 Y151.533 E25.84747
G1 X168.027 Y151.73 E25.85412
G1 X168.086 Y152.21 E25.8702
G1 X168.1 Y152.646 E25.88471
G1 X168.1 Y186.383 E27.00681
G1 X168.06 Y187.108 E27.03096
G1 X167.941 Y187.825 E27.05513
G1 X167.743 Y188.524 E27.0793
G1 X167.47 Y189.197 E27.10345
G1 X167.125 Y189.836 E27.12761
G1 X166.711 Y190.433 E27.15177
G1 X166.167 Y191.05 E27.17913
G1 X166.05 Y191.167 E27.18463
G1 X165.509 Y191.651 E27.20877
G1 X164.918 Y192.074 E27.23295
G1 X164.284 Y192.428 E27.2571
G1 X163.615 Y192.711 E27.28126
G1 X162.919 Y192.919 E27.30542
G1 X162.204 Y193.049 E27.32959
G1 X161.383 Y193.1 E27.35695
G1 X141.617 Y193.1 E28.01437
G1 X140.892 Y193.06 E28.03852
G1 X140.175 Y192.941 E28.06269
G1 X139.476 Y192.743 E28.08686
G1 X138.803 Y192.47 E28.11101
G1 X138.164 Y192.125 E28.13517
G1 X137.567 Y191.711 E28.15933
G1 X136.95 Y191.167 E28.18669
G1 X136.833 Y191.05 E28.19219
G1 X136.349 Y190.509 E28.21633
G1 X135.926 Y189.918 E28.24051
G1 X135.572 Y189.284 E28.26466
G1 X135.289 Y188.615 E28.28882
G1 X135.081 Y187.919 E28.31298
G1 X134.951 Y187.204 E28.33715
G1 X134.9 Y186.383 E28.36451
G1 X134.9 Y178.196 E28.63681
G1 X134.726 Y177.477 E28.66141
G1 X134.635 Y176.756 E28.68559
G1 X134.624 Y176.03 E28.70974
G1 X134.693 Y175.307 E28.73389
G1 X134.731 Y175.124 E28.74011
G1 X134.534 Y174.986 E28.74811
G1 X133.902 Y174.417 E28.77639
G1 X133.778 Y174.29 E28.7823
G1 X133.3 Y173.743 E28.80646
G1 X132.884 Y173.147 E28.83063
G1 X132.537 Y172.509 E28.85479
G1 X132.263 Y171.836 E28.87896
G1 X132.063 Y171.138 E28.9031
G1 X131.942 Y170.422 E28.92726
G1 X131.9 Y169.679 E28.95201
G1 X131.9 Y153.516 E29.48959
G1 X131.94 Y152.791 E29.51374
G1 X132.059 Y152.074 E29.53792
G1 X132.257 Y151.375 E29.56208
G1 X132.53 Y150.702 E29.58624
G1 X132.875 Y150.063 E29.61039
G1 X132.922 Y149.995 E29.61314
G1 X132.7 Y149.634 E29.62723
G1 X132.389 Y148.978 E29.65138
G1 X132.152 Y148.291 E29.67555
G1 X131.992 Y147.583 E29.69969
G1 X131.911 Y146.861 E29.72386
G1 X131.9 Y146.485 E29.73637
G1 X131.9 Y130.31 E30.27435
G1 X131.94 Y129.585 E30.2985
G1 X132.059 Y128.868 E30.32268
G1 X132.257 Y128.169 E30.34684
G1 X132.53 Y127.496 E30.37099
G1 X132.875 Y126.857 E30.39515
G1 X133.289 Y126.26 E30.41931
G1 X133.793 Y125.683 E30.44479
G1 X133.909 Y125.565 E30.4503
G1 X134.446 Y125.076 E30.47445
G1 X134.715 Y124.881 E30.4855
G1 X134.69 Y124.766 E30.48942
G1 X134.612 Y124.043 E30.5136
G1 X134.614 Y123.317 E30.53775
G1 X134.696 Y122.595 E30.56192
G1 X134.899 Y121.782 E30.58979
G1 X134.9 Y113.615 E30.86142
G1 X134.94 Y112.89 E30.88558
G1 X135.06 Y112.174 E30.90972
G1 X135.257 Y111.475 E30.93388
G1 X135.53 Y110.802 E30.95803
G1 X135.876 Y110.163 E30.9822
G1 X136.289 Y109.565 E31.00637
G0 F6000 X136.686 Y109.709
G1 F1200 X137.154 Y109.195 E31.02949
G1 X137.272 Y109.079 E31.035
G1 X137.801 Y108.614 E31.05842
G1 X138.379 Y108.213 E31.08182
G1 X138.999 Y107.88 E31.10523
G1 X139.653 Y107.619 E31.12865
G1 X140.333 Y107.435 E31.15208
G1 X141.029 Y107.328 E31.1755
G1 X141.618 Y107.3 E31.19511
G1 X161.383 Y107.3 E31.8525
G1 X162.086 Y107.34 E31.87592
G1 X162.78 Y107.459 E31.89934
G1 X163.455 Y107.657 E31.92273
G1 X164.104 Y107.929 E31.94614
G1 X164.718 Y108.274 E31.96956
G1 X165.289 Y108.685 E31.99296
G1 X165.767 Y109.116 E32.01437
G1 X165.884 Y109.233 E32.01987
G1 X166.353 Y109.758 E32.04329
G1 X166.759 Y110.333 E32.0667
