;FLAVOR:Marlin
;TIME:10128
;Filament used: 6.69299m
;Layer height: 0.2
;MINX:115.89
;MINY:105.7
;MINZ:0.2
;MAXX:184.11
;MAXY:194.3
;MAXZ:23
;Generated with Cura_SteamEngine 4.9.0
M140 S50
M105
M190 S50
M104 S200
M105
M109 S200
M82 ;absolute extrusion mode
M201 X500.00 Y500.00 Z100.00 E5000.00 ;Setup machine max acceleration
M203 X500.00 Y500.00 Z10.00 E50.00 ;Setup machine max feedrate
M204 P500.00 R1000.00 T500.00 ;Setup Print/Retract/Travel acceleration
M205 X8.00 Y8.00 Z0.40 E5.00 ;Setup Jerk
M220 S100 ;Reset Feedrate
M221 S100 ;Reset Flowrate

G28 ;Home

G92 E0 ;Reset Extruder
G1 Z2.0 F3000 ;Move Z Axis up
G1 X10.1 Y20 Z0.28 F5000.0 ;Move to start position
G1 X10.1 Y200.0 Z0.28 F1500.0 E15 ;Draw the first line
G1 X10.4 Y200.0 Z0.28 F5000.0 ;Move to side a little
G1 X10.4 Y20 Z0.28 F1500.0 E30 ;Draw the second line
G92 E0 ;Reset Extruder
G1 Z2.0 F3000 ;Move Z Axis up

G92 E0
G92 E0
G1 F2700 E-5
;LAYER_COUNT:115
;LAYER:0
M107
G0 F6000 X122.08 Y108.539 Z0.2
;TYPE:SKIRT
G1 F2700 E0
G1 F1200 X122.485 Y108.102 E0.01982
G1 X122.602 Y107.985 E0.02532
G1 X123.188 Y107.455 E0.0516
G1 X123.824 Y106.988 E0.07784
G1 X124.504 Y106.587 E0.1041
G1 X125.222 Y106.257 E0.13038
G1 X125.969 Y106.002 E0.15664
G1 X126.738 Y105.823 E0.1829
G1 X127.522 Y105.723 E0.20918
G1 X128.117 Y105.7 E0.22899
G1 X154.065 Y105.7 E1.09202
G1 X154.854 Y105.74 E1.1183
G1 X155.634 Y105.859 E1.14454
G1 X156.399 Y106.057 E1.17082
G1 X157.139 Y106.331 E1.19707
G1 X157.848 Y106.679 E1.22334
G1 X158.519 Y107.097 E1.24963
G1 X159.143 Y107.58 E1.27588
G1 X159.58 Y107.985 E1.29569
G1 X159.697 Y108.102 E1.3012
G1 X160.227 Y108.688 E1.32748
G1 X160.694 Y109.324 E1.35372
G1 X161.095 Y110.004 E1.37998
G1 X161.425 Y110.722 E1.40626
G1 X161.68 Y111.469 E1.43251
G1 X161.859 Y112.238 E1.45877
G1 X161.959 Y113.022 E1.48506
G1 X161.982 Y113.617 E1.50486
G1 X161.982 Y118.059 E1.65261
G1 X165.001 Y119.204 E1.76
G1 X165.968 Y119.648 E1.79539
G1 X166.135 Y119.739 E1.80171
G1 X166.834 Y120.169 E1.82901
G1 X171.924 Y123.682 E2.03471
G1 X172.614 Y124.218 E2.06377
G1 X172.753 Y124.339 E2.0699
G1 X173.47 Y125.05 E2.10348
G1 X177.572 Y129.68 E2.30922
G1 X178.039 Y130.259 E2.33396
G1 X178.149 Y130.41 E2.34018
G1 X178.75 Y131.378 E2.37807
G1 X181.623 Y136.851 E2.58366
G1 X181.843 Y137.304 E2.60041
G1 X181.92 Y137.477 E2.60671
G1 X182.204 Y138.214 E2.63298
G1 X182.368 Y138.784 E2.65271
G1 X183.842 Y144.77 E2.85775
G1 X183.917 Y145.105 E2.86917
G1 X183.958 Y145.31 E2.87612
G1 X184.073 Y146.091 E2.90238
G1 X184.109 Y146.839 E2.92729
G1 X184.11 Y153.156 E3.13739
G1 X184.07 Y153.944 E3.16363
G1 X183.961 Y154.672 E3.18812
G1 X183.92 Y154.879 E3.19513
G1 X183.843 Y155.229 E3.20705
G1 X182.369 Y161.214 E3.41206
G1 X182.141 Y161.97 E3.43833
G1 X181.915 Y162.535 E3.45857
G1 X181.834 Y162.716 E3.46516
G1 X181.621 Y163.154 E3.48136
G1 X178.747 Y168.631 E3.68708
G1 X178.345 Y169.311 E3.71336
G1 X178.049 Y169.728 E3.73037
G1 X177.938 Y169.874 E3.73647
G1 X177.567 Y170.326 E3.75592
G1 X173.463 Y174.958 E3.96175
G1 X172.701 Y175.707 E3.99729
G1 X172.561 Y175.827 E4.00342
G1 X171.913 Y176.326 E4.03062
G1 X166.821 Y179.837 E4.23634
G1 X166.108 Y180.274 E4.26415
G1 X165.94 Y180.365 E4.27051
G1 X164.988 Y180.801 E4.30533
G1 X161.982 Y181.94 E4.41225
G1 X161.982 Y186.383 E4.56002
G1 X161.942 Y187.172 E4.5863
G1 X161.823 Y187.952 E4.61254
G1 X161.625 Y188.717 E4.63883
G1 X161.351 Y189.457 E4.66507
G1 X161.003 Y190.166 E4.69134
G1 X160.585 Y190.837 E4.71763
G1 X160.102 Y191.461 E4.74388
G1 X159.697 Y191.898 E4.7637
G1 X159.58 Y192.015 E4.7692
G1 X158.994 Y192.545 E4.79548
G1 X158.358 Y193.012 E4.82172
G1 X157.678 Y193.413 E4.84798
G1 X156.96 Y193.743 E4.87426
G1 X156.213 Y193.998 E4.90051
G1 X155.444 Y194.177 E4.92678
G1 X154.66 Y194.277 E4.95306
G1 X154.065 Y194.3 E4.97287
G1 X128.117 Y194.3 E5.8359
G1 X127.328 Y194.26 E5.86218
G1 X126.548 Y194.141 E5.88842
G1 X125.783 Y193.943 E5.9147
G1 X125.043 Y193.669 E5.94095
G1 X124.334 Y193.321 E5.96722
G1 X123.663 Y192.903 E5.99351
G1 X123.039 Y192.42 E6.01976
G1 X122.602 Y192.015 E6.03957
G1 X122.485 Y191.898 E6.04508
G1 X121.955 Y191.312 E6.07136
G1 X121.488 Y190.676 E6.0976
G1 X121.087 Y189.996 E6.12386
G1 X120.757 Y189.278 E6.15014
G1 X120.502 Y188.531 E6.17639
G1 X120.323 Y187.762 E6.20265
G1 X120.223 Y186.978 E6.22894
G1 X120.2 Y186.383 E6.24874
G1 X120.2 Y181.617 E6.40726
G1 X120.24 Y180.828 E6.43354
G1 X120.359 Y180.048 E6.45978
G1 X120.557 Y179.283 E6.48606
G1 X120.831 Y178.543 E6.51231
G1 X121.179 Y177.834 E6.53858
G1 X121.597 Y177.163 E6.56487
G1 X122.08 Y176.539 E6.59112
G1 X122.485 Y176.102 E6.61093
G1 X122.602 Y175.985 E6.61644
G1 X123.188 Y175.455 E6.64272
G1 X123.824 Y174.988 E6.66896
G1 X124.504 Y174.587 E6.69522
G1 X125.222 Y174.257 E6.7215
G1 X125.754 Y174.075 E6.7402
G1 X122.409 Y170.299 E6.90798
G1 X121.856 Y169.597 E6.9377
G1 X121.756 Y169.454 E6.94351
G1 X121.242 Y168.61 E6.97638
G1 X118.377 Y163.154 E7.18134
G1 X118.106 Y162.582 E7.20239
G1 X118.026 Y162.394 E7.20919
G1 X117.754 Y161.653 E7.23544
G1 X117.629 Y161.206 E7.25088
G1 X116.155 Y155.223 E7.45583
G1 X116.073 Y154.849 E7.46856
G1 X116.035 Y154.654 E7.47517
G1 X115.923 Y153.872 E7.50144
G1 X115.891 Y153.163 E7.52505
G1 X115.89 Y146.845 E7.73519
G1 X115.927 Y146.083 E7.76056
G1 X116.057 Y145.228 E7.78932
G1 X116.099 Y145.027 E7.79615
G1 X116.161 Y144.754 E7.80546
G1 X117.636 Y138.773 E8.01035
G1 X117.864 Y138.017 E8.03662
G1 X118.139 Y137.347 E8.06071
G1 X118.228 Y137.156 E8.06771
G1 X118.391 Y136.825 E8.07999
G1 X121.258 Y131.362 E8.28519
G1 X121.66 Y130.683 E8.31143
G1 X122.049 Y130.146 E8.33349
G1 X122.178 Y129.983 E8.3404
G1 X122.457 Y129.65 E8.35485
G1 X125.753 Y125.932 E8.52011
G1 X125.043 Y125.669 E8.54529
G1 X124.334 Y125.321 E8.57156
G1 X123.663 Y124.903 E8.59785
G1 X123.039 Y124.42 E8.6241
G1 X122.602 Y124.015 E8.64391
G1 X122.485 Y123.898 E8.64942
G1 X121.955 Y123.312 E8.6757
G1 X121.488 Y122.676 E8.70194
G1 X121.087 Y121.996 E8.7282
G1 X120.757 Y121.278 E8.75448
G1 X120.502 Y120.531 E8.78073
G1 X120.323 Y119.762 E8.80699
G1 X120.223 Y118.978 E8.83328
G1 X120.2 Y118.383 E8.85309
G1 X120.2 Y113.617 E9.0116
G1 X120.24 Y112.828 E9.03788
G1 X120.359 Y112.048 E9.06412
G1 X120.557 Y111.283 E9.0904
G1 X120.831 Y110.543 E9.11665
G1 X121.179 Y109.834 E9.14292
G1 X121.597 Y109.163 E9.16921
G1 X122.08 Y108.539 E9.19546
G0 F6000 X122.475 Y108.694
G1 F1200 X122.767 Y108.384 E9.20962
G1 X122.884 Y108.267 E9.21513
G1 X123.456 Y107.753 E9.2407
G1 X124.078 Y107.3 E9.2663
G1 X124.743 Y106.914 E9.29187
G1 X125.445 Y106.599 E9.31746
G1 X126.176 Y106.359 E9.34305
G1 X126.927 Y106.196 E9.36861
G1 X127.692 Y106.112 E9.39421
G1 X128.117 Y106.1 E9.40835
G1 X154.065 Y106.1 E10.27138
G1 X154.833 Y106.14 E10.29696
G1 X155.593 Y106.259 E10.32255
G1 X156.336 Y106.457 E10.34812
G1 X157.055 Y106.731 E10.37371
G1 X157.741 Y107.078 E10.39928
G1 X158.388 Y107.494 E10.42487
G1 X158.988 Y107.975 E10.45044
G1 X159.298 Y108.267 E10.46461
G1 X159.415 Y108.384 E10.47011
G1 X159.929 Y108.956 E10.49569
G1 X160.382 Y109.578 E10.52128
G1 X160.768 Y110.243 E10.54686
G1 X161.083 Y110.945 E10.57245
G1 X161.323 Y111.676 E10.59804
G1 X161.486 Y112.427 E10.6236
G1 X161.57 Y113.192 E10.64919
G1 X161.582 Y113.617 E10.66334
G1 X161.582 Y118.336 E10.82029
G1 X164.859 Y119.578 E10.93685
G1 X165.777 Y119.999 E10.97044
G1 X165.944 Y120.09 E10.97677
G1 X166.606 Y120.498 E11.00263
G1 X171.696 Y124.011 E11.20833
G1 X172.352 Y124.52 E11.23595
G1 X172.491 Y124.641 E11.24208
G1 X173.171 Y125.315 E11.27392
G1 X177.273 Y129.945 E11.47966
G1 X177.715 Y130.495 E11.50313
G1 X177.825 Y130.646 E11.50934
G1 X178.396 Y131.564 E11.5453
G1 X181.269 Y137.037 E11.75089
G1 X181.478 Y137.467 E11.76679
G1 X181.555 Y137.64 E11.77309
G1 X181.83 Y138.358 E11.79866
G1 X181.979 Y138.88 E11.81671
G1 X183.453 Y144.866 E12.02176
G1 X183.524 Y145.184 E12.03259
G1 X183.565 Y145.389 E12.03955
G1 X183.677 Y146.15 E12.06513
G1 X183.709 Y146.839 E12.08807
G1 X183.71 Y153.156 E12.29818
G1 X183.67 Y153.924 E12.32375
G1 X183.569 Y154.595 E12.34632
G1 X183.528 Y154.802 E12.35334
G1 X183.454 Y155.134 E12.36466
G1 X181.98 Y161.119 E12.56967
G1 X181.758 Y161.855 E12.59523
G1 X181.549 Y162.372 E12.61378
G1 X181.468 Y162.553 E12.62038
G1 X181.267 Y162.968 E12.63571
G1 X178.393 Y168.445 E12.84144
G1 X178 Y169.107 E12.86704
G1 X177.731 Y169.486 E12.8825
G1 X177.62 Y169.632 E12.8886
G1 X177.268 Y170.06 E12.90703
G1 X173.164 Y174.692 E13.11286
G1 X172.441 Y175.403 E13.14659
G1 X172.301 Y175.523 E13.15272
G1 X171.686 Y175.997 E13.17855
G1 X166.594 Y179.508 E13.38427
G1 X165.917 Y179.923 E13.41068
G1 X165.749 Y180.014 E13.41703
G1 X164.846 Y180.427 E13.45006
G1 X161.582 Y181.663 E13.56614
G1 X161.582 Y186.383 E13.72313
G1 X161.542 Y187.151 E13.74871
G1 X161.423 Y187.911 E13.77429
G1 X161.225 Y188.654 E13.79987
G1 X160.951 Y189.373 E13.82546
G1 X160.604 Y190.059 E13.85103
G1 X160.188 Y190.706 E13.87661
G1 X159.707 Y191.306 E13.90219
G1 X159.415 Y191.616 E13.91635
G1 X159.298 Y191.733 E13.92186
G1 X158.726 Y192.247 E13.94744
G1 X158.104 Y192.7 E13.97303
G1 X157.439 Y193.086 E13.9986
G1 X156.737 Y193.401 E14.02419
G1 X156.006 Y193.641 E14.04978
G1 X155.255 Y193.804 E14.07534
G1 X154.49 Y193.888 E14.10094
G1 X154.065 Y193.9 E14.11508
G1 X128.117 Y193.9 E14.97812
G1 X127.349 Y193.86 E15.00369
G1 X126.589 Y193.741 E15.02928
G1 X125.846 Y193.543 E15.05485
G1 X125.127 Y193.269 E15.08045
G1 X124.441 Y192.922 E15.10602
G1 X123.794 Y192.506 E15.1316
G1 X123.194 Y192.025 E15.15718
G1 X122.884 Y191.733 E15.17134
G1 X122.767 Y191.616 E15.17684
G1 X122.253 Y191.044 E15.20242
G1 X121.8 Y190.422 E15.22801
G1 X121.414 Y189.757 E15.25359
G1 X121.099 Y189.055 E15.27918
G1 X120.859 Y188.324 E15.30477
G1 X120.696 Y187.573 E15.33033
G1 X120.612 Y186.808 E15.35593
G1 X120.6 Y186.383 E15.37007
G1 X120.6 Y181.617 E15.52859
G1 X120.64 Y180.849 E15.55416
G1 X120.759 Y180.089 E15.57975
G1 X120.957 Y179.346 E15.60532
G1 X121.231 Y178.627 E15.63092
G1 X121.578 Y177.941 E15.65649
G1 X121.994 Y177.294 E15.68207
G1 X122.475 Y176.694 E15.70765
G1 X122.767 Y176.384 E15.72181
G1 X122.884 Y176.267 E15.72731
G1 X123.456 Y175.753 E15.75289
G1 X124.078 Y175.3 E15.77848
G1 X124.743 Y174.914 E15.80406
G1 X125.445 Y174.599 E15.82965
G1 X126.176 Y174.359 E15.85524
G1 X126.481 Y174.293 E15.86562
G1 X122.709 Y170.034 E16.05484
G1 X122.184 Y169.368 E16.08305
G1 X122.084 Y169.225 E16.08885
G1 X121.596 Y168.424 E16.12005
G1 X118.731 Y162.968 E16.32501
G1 X118.474 Y162.426 E16.34496
G1 X118.394 Y162.238 E16.35176
G1 X118.13 Y161.515 E16.37736
G1 X118.018 Y161.11 E16.39134
G1 X116.544 Y155.127 E16.59628
G1 X116.466 Y154.772 E16.60837
G1 X116.428 Y154.577 E16.61498
G1 X116.32 Y153.816 E16.64054
G1 X116.291 Y153.163 E16.66228
G1 X116.29 Y146.845 E16.87242
G1 X116.325 Y146.121 E16.89653
G1 X116.448 Y145.309 E16.92384
G1 X116.49 Y145.108 E16.93067
G1 X116.549 Y144.85 E16.93948
G1 X118.024 Y138.869 E17.14437
G1 X118.247 Y138.133 E17.16994
G1 X118.501 Y137.515 E17.19217
G1 X118.59 Y137.324 E17.19918
G1 X118.746 Y137.011 E17.21081
G1 X121.613 Y131.548 E17.41601
G1 X122.005 Y130.887 E17.44157
G1 X122.362 Y130.395 E17.46179
G1 X122.491 Y130.232 E17.4687
G1 X122.756 Y129.915 E17.48244
G1 X126.481 Y125.712 E17.66924
G1 X125.846 Y125.543 E17.69109
G1 X125.127 Y125.269 E17.71668
G1 X124.441 Y124.922 E17.74225
G1 X123.794 Y124.506 E17.76784
G1 X123.194 Y124.025 E17.79341
G1 X122.884 Y123.733 E17.80758
G1 X122.767 Y123.616 E17.81308
G1 X122.253 Y123.044 E17.83866
G1 X121.8 Y122.422 E17.86425
G1 X121.414 Y121.757 E17.88983
G1 X121.099 Y121.055 E17.91542
G1 X120.859 Y120.324 E17.94101
G1 X120.696 Y119.573 E17.96657
G1 X120.612 Y118.808 E17.99216
G1 X120.6 Y118.383 E18.00631
G1 X120.6 Y113.617 E18.16482
G1 X120.64 Y112.849 E18.1904
G1 X120.759 Y112.089 E18.21599
G1 X120.957 Y111.346 E18.24156
G1 X121.231 Y110.627 E18.26715
G1 X121.578 Y109.941 E18.29272
G1 X121.994 Y109.294 E18.31831
G1 X122.475 Y108.694 E18.34388
G0 F6000 X122.392 Y109.428
G1 F1200 X123.05 Y108.667 E18.37734
G1 X123.167 Y108.55 E18.38285
G1 X123.724 Y108.05 E18.40774
G1 X124.33 Y107.613 E18.43259
G1 X124.98 Y107.242 E18.45749
G1 X125.666 Y106.943 E18.48238
G1 X126.38 Y106.719 E18.50726
G1 X127.113 Y106.572 E18.53213
G1 X128.117 Y106.5 E18.56561
G1 X154.065 Y106.5 E19.42864
G1 X154.812 Y106.54 E19.45352
G1 X155.55 Y106.659 E19.47839
G1 X156.272 Y106.857 E19.50329
G1 X156.968 Y107.13 E19.52815
G1 X157.631 Y107.477 E19.55304
G1 X158.254 Y107.892 E19.57794
G1 X159.015 Y108.55 E19.6114
G1 X159.132 Y108.667 E19.6169
G1 X159.632 Y109.224 E19.6418
G1 X160.069 Y109.83 E19.66665
G1 X160.44 Y110.48 E19.69154
G1 X160.739 Y111.166 E19.71643
G1 X160.963 Y111.88 E19.74132
G1 X161.11 Y112.613 E19.76618
G1 X161.182 Y113.617 E19.79966
G1 X161.182 Y118.612 E19.9658
G1 X164.717 Y119.952 E20.09154
G1 X165.585 Y120.35 E20.1233
G1 X165.752 Y120.441 E20.12962
G1 X166.379 Y120.827 E20.15411
G1 X171.469 Y124.34 E20.35981
G1 X172.089 Y124.821 E20.38591
G1 X172.228 Y124.942 E20.39204
G1 X172.871 Y125.58 E20.42217
G1 X176.973 Y130.21 E20.62791
G1 X177.392 Y130.73 E20.65012
G1 X177.502 Y130.881 E20.65633
G1 X178.042 Y131.749 E20.69033
G1 X180.915 Y137.222 E20.89592
G1 X181.112 Y137.63 E20.91099
G1 X181.189 Y137.803 E20.91729
G1 X181.456 Y138.501 E20.94214
G1 X181.591 Y138.975 E20.95854
G1 X183.065 Y144.961 E21.16358
G1 X183.132 Y145.262 E21.17383
G1 X183.173 Y145.467 E21.18079
G1 X183.28 Y146.208 E21.20569
G1 X183.309 Y146.839 E21.2267
G1 X183.31 Y153.156 E21.4368
G1 X183.27 Y153.903 E21.46168
G1 X183.177 Y154.517 E21.48234
G1 X183.136 Y154.724 E21.48936
G1 X183.066 Y155.038 E21.50006
G1 X181.592 Y161.023 E21.70507
G1 X181.374 Y161.739 E21.72996
G1 X181.184 Y162.208 E21.74679
G1 X181.103 Y162.389 E21.75339
G1 X180.912 Y162.783 E21.76795
G1 X178.038 Y168.26 E21.97367
G1 X177.656 Y168.902 E21.99852
G1 X177.412 Y169.244 E22.01249
G1 X177.301 Y169.39 E22.01859
G1 X176.968 Y169.795 E22.03603
G1 X172.864 Y174.427 E22.24186
G1 X172.181 Y175.1 E22.27376
G1 X172.041 Y175.22 E22.27989
G1 X171.459 Y175.668 E22.30432
G1 X166.367 Y179.179 E22.51003
G1 X165.727 Y179.571 E22.535
G1 X165.559 Y179.662 E22.54135
G1 X164.704 Y180.053 E22.57262
G1 X161.182 Y181.387 E22.69788
G1 X161.182 Y186.383 E22.86405
G1 X161.142 Y187.13 E22.88893
G1 X161.023 Y187.868 E22.9138
G1 X160.825 Y188.59 E22.9387
G1 X160.552 Y189.286 E22.96356
G1 X160.205 Y189.949 E22.98845
G1 X159.79 Y190.572 E23.01335
G1 X159.132 Y191.333 E23.04681
G1 X159.015 Y191.45 E23.05231
G1 X158.458 Y191.95 E23.07721
G1 X157.852 Y192.387 E23.10206
G1 X157.202 Y192.758 E23.12695
G1 X156.516 Y193.057 E23.15184
G1 X155.802 Y193.281 E23.17673
G1 X155.069 Y193.428 E23.20159
G1 X154.065 Y193.5 E23.23507
G1 X128.117 Y193.5 E24.09811
G1 X127.37 Y193.46 E24.12299
G1 X126.632 Y193.341 E24.14785
G1 X125.91 Y193.143 E24.17275
G1 X125.214 Y192.87 E24.19762
G1 X124.551 Y192.523 E24.22251
G1 X123.928 Y192.108 E24.2474
G1 X123.167 Y191.45 E24.28087
G1 X123.05 Y191.333 E24.28637
G1 X122.55 Y190.776 E24.31126
G1 X122.113 Y190.17 E24.33611
G1 X121.742 Y189.52 E24.36101
G1 X121.443 Y188.834 E24.3859
G1 X121.219 Y188.12 E24.41078
G1 X121.072 Y187.387 E24.43565
G1 X121 Y186.383 E24.46913
G1 X121 Y181.617 E24.62765
G1 X121.04 Y180.87 E24.65253
G1 X121.159 Y180.132 E24.67739
G1 X121.357 Y179.41 E24.70229
G1 X121.63 Y178.714 E24.72716
G1 X121.977 Y178.051 E24.75205
G1 X122.392 Y177.428 E24.77694
G1 X123.05 Y176.667 E24.8104
G1 X123.167 Y176.55 E24.81591
G1 X123.724 Y176.05 E24.8408
G1 X124.33 Y175.613 E24.86565
G1 X124.98 Y175.242 E24.89054
G1 X125.666 Y174.943 E24.91543
G1 X126.38 Y174.719 E24.94032
G1 X127.113 Y174.572 E24.96519
G1 X127.269 Y174.561 E24.97039
G1 X127.111 Y174.4 E24.97789
G1 X123.008 Y169.768 E25.1837
G1 X122.511 Y169.139 E25.21037
G1 X122.411 Y168.996 E25.21617
G1 X121.95 Y168.238 E25.24568
G1 X119.085 Y162.782 E25.45064
G1 X118.842 Y162.269 E25.46952
G1 X118.762 Y162.081 E25.47632
G1 X118.506 Y161.378 E25.5012
G1 X118.406 Y161.014 E25.51376
G1 X116.932 Y155.031 E25.7187
G1 X116.858 Y154.696 E25.73011
G1 X116.82 Y154.501 E25.73672
G1 X116.717 Y153.76 E25.7616
G1 X116.691 Y153.163 E25.78148
G1 X116.69 Y146.845 E25.99162
G1 X116.724 Y146.159 E26.01446
