;FLAVOR:Marlin
;TIME:23560
;Filament used: 17.0729m
;Layer height: 0.2
;MINX:98.2
;MINY:73.2
;MINZ:0.2
;MAXX:136.8
;MAXY:161.8
;MAXZ:53
;Generated with Cura_SteamEngine 4.9.0
M140 S50
M105
M190 S50
M104 S200
M105
M109 S200
M82 ;absolute extrusion mode
; Ender 3 Custom Start G-code
G92 E0 ; Reset Extruder
G28 ; Home all axes
G1 Z2.0 F3000 ; Move Z Axis up little to prevent scratching of Heat Bed
G1 X0.1 Y20 Z0.3 F5000.0 ; Move to start position
G1 X0.1 Y200.0 Z0.3 F1500.0 E15 ; Draw the first line
G1 X0.4 Y200.0 Z0.3 F5000.0 ; Move to side a little
G1 X0.4 Y20 Z0.3 F1500.0 E30 ; Draw the second line
G92 E0 ; Reset Extruder
G1 Z2.0 F3000 ; Move Z Axis up little to prevent scratching of Heat Bed
G1 X5 Y20 Z0.3 F5000.0 ; Move over to prevent blob squish
G92 E0
G92 E0
G1 F2700 E-5
;LAYER_COUNT:265
;LAYER:0
M107
G0 F6000 X102.597 Y76.662 Z0.2
;TYPE:SKIRT
G1 F2700 E0
G1 F1200 X103.08 Y76.037 E0.02627
G1 X103.532 Y75.554 E0.04827
G1 X103.65 Y75.438 E0.05378
G1 X104.24 Y74.913 E0.08004
G1 X104.881 Y74.451 E0.10632
G1 X105.565 Y74.056 E0.1326
G1 X106.285 Y73.733 E0.15884
G1 X107.034 Y73.483 E0.18511
G1 X107.805 Y73.311 E0.21138
G1 X108.589 Y73.218 E0.23764
G1 X109.118 Y73.2 E0.25524
G1 X128.883 Y73.2 E0.91263
G1 X129.672 Y73.24 E0.93891
G1 X130.452 Y73.359 E0.96515
G1 X131.217 Y73.557 E0.99143
G1 X131.957 Y73.831 E1.01768
G1 X132.666 Y74.179 E1.04395
G1 X133.337 Y74.597 E1.07024
G1 X133.961 Y75.08 E1.09648
G1 X134.398 Y75.485 E1.1163
G1 X134.515 Y75.602 E1.1218
G1 X135.045 Y76.188 E1.14808
G1 X135.512 Y76.824 E1.17433
G1 X135.913 Y77.504 E1.20058
G1 X136.243 Y78.222 E1.22687
G1 X136.498 Y78.969 E1.25312
G1 X136.677 Y79.738 E1.27938
G1 X136.777 Y80.522 E1.30567
G1 X136.8 Y81.117 E1.32547
G1 X136.8 Y114.854 E2.44757
G1 X136.76 Y115.643 E2.47385
G1 X136.735 Y115.808 E2.4794
G1 X136.8 Y116.692 E2.50888
G1 X136.8 Y118.308 E2.56263
G1 X136.76 Y119.097 E2.5889
G1 X136.734 Y119.269 E2.59469
G1 X136.8 Y120.146 E2.62394
G1 X136.8 Y153.883 E3.74604
G1 X136.76 Y154.672 E3.77231
G1 X136.641 Y155.452 E3.79855
G1 X136.443 Y156.217 E3.82484
G1 X136.169 Y156.957 E3.85108
G1 X135.821 Y157.666 E3.87735
G1 X135.403 Y158.337 E3.90365
G1 X134.92 Y158.961 E3.92989
G1 X134.515 Y159.398 E3.94971
G1 X134.398 Y159.515 E3.95521
G1 X133.812 Y160.045 E3.98149
G1 X133.176 Y160.512 E4.00773
G1 X132.496 Y160.913 E4.03399
G1 X131.778 Y161.243 E4.06027
G1 X131.031 Y161.498 E4.08653
G1 X130.262 Y161.677 E4.11279
G1 X129.478 Y161.777 E4.13907
G1 X128.883 Y161.8 E4.15888
G1 X109.117 Y161.8 E4.8163
G1 X108.328 Y161.76 E4.84257
G1 X107.548 Y161.641 E4.86882
G1 X106.783 Y161.443 E4.8951
G1 X106.043 Y161.169 E4.92135
G1 X105.334 Y160.821 E4.94761
G1 X104.663 Y160.403 E4.97391
G1 X104.039 Y159.92 E5.00015
G1 X103.602 Y159.515 E5.01997
G1 X103.485 Y159.398 E5.02547
G1 X102.955 Y158.812 E5.05175
G1 X102.488 Y158.176 E5.078
G1 X102.087 Y157.496 E5.10425
G1 X101.757 Y156.778 E5.13054
G1 X101.502 Y156.031 E5.15679
G1 X101.323 Y155.262 E5.18305
G1 X101.223 Y154.478 E5.20934
G1 X101.2 Y153.883 E5.22914
G1 X101.2 Y145.838 E5.49672
G1 X101.059 Y145.26 E5.51651
G1 X100.949 Y144.478 E5.54277
G1 X100.92 Y143.689 E5.56903
G1 X100.955 Y143.144 E5.5872
G1 X100.543 Y142.755 E5.60604
G1 X100.419 Y142.628 E5.61195
G1 X99.897 Y142.036 E5.6382
G1 X99.437 Y141.394 E5.66447
G1 X99.044 Y140.709 E5.69073
G1 X98.723 Y139.987 E5.71701
G1 X98.476 Y139.237 E5.74328
G1 X98.307 Y138.466 E5.76953
G1 X98.216 Y137.681 E5.79581
G1 X98.2 Y137.179 E5.81252
G1 X98.2 Y121.016 E6.3501
G1 X98.24 Y120.227 E6.37638
G1 X98.359 Y119.447 E6.40262
G1 X98.557 Y118.682 E6.4289
G1 X98.831 Y117.942 E6.45515
G1 X99.046 Y117.503 E6.47141
G1 X98.959 Y117.342 E6.47749
G1 X98.656 Y116.613 E6.50375
G1 X98.428 Y115.857 E6.53001
G1 X98.277 Y115.081 E6.55631
G1 X98.2 Y113.985 E6.59285
G1 X98.2 Y97.81 E7.13083
G1 X98.24 Y97.021 E7.15711
G1 X98.359 Y96.241 E7.18335
G1 X98.557 Y95.476 E7.20963
G1 X98.831 Y94.736 E7.23588
G1 X99.179 Y94.027 E7.26215
G1 X99.597 Y93.356 E7.28844
G1 X100.08 Y92.732 E7.31469
G1 X100.438 Y92.342 E7.3323
G1 X100.554 Y92.224 E7.3378
G1 X100.94 Y91.869 E7.35524
G1 X100.904 Y91.298 E7.37427
G1 X100.934 Y90.509 E7.40053
G1 X101.043 Y89.727 E7.42679
G1 X101.199 Y89.13 E7.44732
G1 X101.2 Y81.115 E7.7139
G1 X101.24 Y80.326 E7.74017
G1 X101.36 Y79.546 E7.76642
G1 X101.558 Y78.781 E7.7927
G1 X101.832 Y78.041 E7.81895
G1 X102.179 Y77.332 E7.8452
G1 X102.597 Y76.662 E7.87147
G0 F6000 X102.995 Y76.792
G1 F1200 X103.476 Y76.192 E7.89705
G1 X103.812 Y75.839 E7.91325
G1 X103.93 Y75.723 E7.91876
G1 X104.506 Y75.213 E7.94435
G1 X105.132 Y74.765 E7.96995
G1 X105.8 Y74.385 E7.99551
G1 X106.505 Y74.077 E8.0211
G1 X107.238 Y73.843 E8.04669
G1 X107.991 Y73.686 E8.07227
G1 X109.118 Y73.6 E8.10987
G1 X128.883 Y73.6 E8.76725
G1 X129.651 Y73.64 E8.79283
G1 X130.411 Y73.759 E8.81842
G1 X131.154 Y73.957 E8.84399
G1 X131.873 Y74.231 E8.86958
G1 X132.559 Y74.578 E8.89515
G1 X133.206 Y74.994 E8.92074
G1 X133.806 Y75.475 E8.94631
G1 X134.116 Y75.767 E8.96048
G1 X134.233 Y75.884 E8.96598
G1 X134.747 Y76.456 E8.99156
G1 X135.2 Y77.078 E9.01715
G1 X135.586 Y77.743 E9.04273
G1 X135.901 Y78.445 E9.06832
G1 X136.141 Y79.176 E9.09391
G1 X136.304 Y79.927 E9.11947
G1 X136.388 Y80.692 E9.14507
G1 X136.4 Y81.117 E9.15921
G1 X136.4 Y114.854 E10.2813
G1 X136.36 Y115.622 E10.30688
G1 X136.339 Y115.757 E10.31143
G1 X136.4 Y116.692 E10.34259
G1 X136.4 Y118.308 E10.39634
G1 X136.36 Y119.076 E10.42192
G1 X136.335 Y119.235 E10.42727
G1 X136.37 Y119.476 E10.43537
G1 X136.4 Y120.146 E10.45768
G1 X136.4 Y153.883 E11.57977
G1 X136.36 Y154.651 E11.60535
G1 X136.241 Y155.411 E11.63094
G1 X136.043 Y156.154 E11.65651
G1 X135.769 Y156.873 E11.6821
G1 X135.422 Y157.559 E11.70767
G1 X135.006 Y158.206 E11.73326
G1 X134.525 Y158.806 E11.75883
G1 X134.233 Y159.116 E11.773
G1 X134.116 Y159.233 E11.7785
G1 X133.544 Y159.747 E11.80408
G1 X132.922 Y160.2 E11.82967
G1 X132.257 Y160.586 E11.85525
G1 X131.555 Y160.901 E11.88084
G1 X130.824 Y161.141 E11.90643
G1 X130.073 Y161.304 E11.93199
G1 X129.308 Y161.388 E11.95758
G1 X128.883 Y161.4 E11.97173
G1 X109.117 Y161.4 E12.62915
G1 X108.349 Y161.36 E12.65472
G1 X107.589 Y161.241 E12.68031
G1 X106.846 Y161.043 E12.70588
G1 X106.127 Y160.769 E12.73148
G1 X105.441 Y160.422 E12.75705
G1 X104.794 Y160.006 E12.78263
G1 X104.194 Y159.525 E12.80821
G1 X103.884 Y159.233 E12.82237
G1 X103.767 Y159.116 E12.82787
G1 X103.253 Y158.544 E12.85345
G1 X102.8 Y157.922 E12.87904
G1 X102.414 Y157.257 E12.90462
G1 X102.099 Y156.555 E12.93021
G1 X101.859 Y155.824 E12.9558
G1 X101.696 Y155.073 E12.98136
G1 X101.612 Y154.308 E13.00696
G1 X101.6 Y153.883 E13.0211
G1 X101.6 Y145.79 E13.29027
G1 X101.448 Y145.165 E13.31167
G1 X101.344 Y144.403 E13.33724
G1 X101.321 Y143.634 E13.36283
G1 X101.37 Y142.965 E13.38514
G1 X101.158 Y142.792 E13.39425
G1 X100.829 Y142.476 E13.40942
G1 X100.705 Y142.349 E13.41532
G1 X100.197 Y141.771 E13.44092
G1 X99.752 Y141.144 E13.46649
G1 X99.374 Y140.474 E13.49207
G1 X99.068 Y139.769 E13.51764
G1 X98.837 Y139.035 E13.54323
G1 X98.683 Y138.281 E13.56883
G1 X98.6 Y137.179 E13.60558
G1 X98.6 Y121.016 E14.14317
G1 X98.64 Y120.248 E14.16874
G1 X98.759 Y119.488 E14.19433
G1 X98.957 Y118.745 E14.2199
G1 X99.231 Y118.026 E14.2455
G1 X99.493 Y117.508 E14.2648
G1 X99.166 Y116.823 E14.29005
G1 X98.908 Y116.098 E14.31564
G1 X98.727 Y115.35 E14.34124
G1 X98.625 Y114.588 E14.36681
G1 X98.6 Y113.985 E14.38688
G1 X98.6 Y97.81 E14.92487
G1 X98.64 Y97.042 E14.95044
G1 X98.759 Y96.282 E14.97603
G1 X98.957 Y95.539 E15.00161
G1 X99.231 Y94.82 E15.0272
G1 X99.578 Y94.134 E15.05277
G1 X99.994 Y93.487 E15.07835
G1 X100.723 Y92.622 E15.11597
G1 X100.839 Y92.504 E15.12148
G1 X101.355 Y92.031 E15.14476
G1 X101.336 Y91.901 E15.14913
G1 X101.303 Y91.133 E15.1747
G1 X101.35 Y90.365 E15.20029
G1 X101.476 Y89.607 E15.22585
G1 X101.599 Y89.16 E15.24127
G1 X101.6 Y81.115 E15.50884
G1 X101.64 Y80.347 E15.53442
G1 X101.76 Y79.587 E15.56001
G1 X101.957 Y78.844 E15.58558
G1 X102.231 Y78.125 E15.61117
G1 X102.578 Y77.439 E15.63674
G1 X102.995 Y76.792 E15.66234
G0 F6000 X103.392 Y76.927
G1 F1200 X104.093 Y76.124 E15.69779
G1 X104.211 Y76.008 E15.7033
G1 X104.771 Y75.513 E15.72816
G1 X105.382 Y75.08 E15.75306
G1 X106.035 Y74.716 E15.77793
G1 X106.723 Y74.422 E15.80281
G1 X107.439 Y74.204 E15.82771
G1 X108.173 Y74.064 E15.85256
G1 X109.118 Y74 E15.88406
G1 X128.883 Y74 E16.54145
G1 X129.63 Y74.04 E16.56633
G1 X130.368 Y74.159 E16.59119
G1 X131.09 Y74.357 E16.61609
G1 X131.786 Y74.63 E16.64096
G1 X132.449 Y74.977 E16.66585
G1 X133.072 Y75.392 E16.69075
G1 X133.833 Y76.05 E16.72421
G1 X133.95 Y76.167 E16.72971
G1 X134.45 Y76.724 E16.75461
G1 X134.887 Y77.33 E16.77946
G1 X135.258 Y77.98 E16.80435
G1 X135.557 Y78.666 E16.82924
G1 X135.781 Y79.38 E16.85413
G1 X135.928 Y80.113 E16.87899
G1 X136 Y81.117 E16.91247
G1 X136 Y114.854 E18.03457
G1 X135.96 Y115.601 E18.05945
G1 X135.955 Y115.902 E18.06946
G1 X136 Y116.692 E18.09578
G1 X136 Y118.308 E18.14953
G1 X135.96 Y119.055 E18.17441
G1 X135.938 Y119.217 E18.17985
G1 X136 Y120.146 E18.21081
G1 X136 Y153.883 E19.33291
G1 X135.96 Y154.63 E19.35779
G1 X135.841 Y155.368 E19.38266
G1 X135.643 Y156.09 E19.40756
G1 X135.37 Y156.786 E19.43242
G1 X135.023 Y157.449 E19.45731
G1 X134.608 Y158.072 E19.48221
G1 X133.95 Y158.833 E19.51567
G1 X133.833 Y158.95 E19.52117
G1 X133.276 Y159.45 E19.54607
G1 X132.67 Y159.887 E19.57092
G1 X132.02 Y160.258 E19.59581
G1 X131.334 Y160.557 E19.6207
G1 X130.62 Y160.781 E19.64559
G1 X129.887 Y160.928 E19.67045
G1 X128.883 Y161 E19.70393
G1 X109.117 Y161 E20.36135
G1 X108.37 Y160.96 E20.38623
G1 X107.632 Y160.841 E20.4111
G1 X106.91 Y160.643 E20.436
G1 X106.214 Y160.37 E20.46086
G1 X105.551 Y160.023 E20.48575
G1 X104.928 Y159.608 E20.51065
G1 X104.167 Y158.95 E20.54411
G1 X104.05 Y158.833 E20.54961
G1 X103.55 Y158.276 E20.57451
G1 X103.113 Y157.67 E20.59936
G1 X102.742 Y157.02 E20.62425
G1 X102.443 Y156.334 E20.64914
G1 X102.219 Y155.62 E20.67403
G1 X102.072 Y154.887 E20.69889
G1 X102 Y153.883 E20.73237
G1 X102 Y145.744 E21.00308
G1 X101.837 Y145.071 E21.02611
G1 X101.74 Y144.329 E21.051
G1 X101.722 Y143.581 E21.07588
G1 X101.784 Y142.836 E21.10075
G1 X101.792 Y142.794 E21.10217
G1 X101.115 Y142.196 E21.13221
G1 X100.991 Y142.069 E21.13812
G1 X100.498 Y141.507 E21.16298
G1 X100.068 Y140.895 E21.18786
G1 X99.705 Y140.241 E21.21274
G1 X99.414 Y139.551 E21.23765
G1 X99.199 Y138.835 E21.26251
G1 X99.061 Y138.1 E21.28738
G1 X99 Y137.179 E21.31808
G1 X99 Y121.016 E21.85567
G1 X99.04 Y120.269 E21.88055
G1 X99.159 Y119.531 E21.90541
G1 X99.357 Y118.809 E21.93031
G1 X99.63 Y118.113 E21.95518
G1 X99.953 Y117.496 E21.97834
G1 X99.681 Y116.997 E21.99724
G1 X99.396 Y116.305 E22.02213
G1 X99.186 Y115.587 E22.04702
G1 X99.054 Y114.851 E22.07189
G1 X99 Y113.985 E22.10074
G1 X99 Y97.81 E22.63873
G1 X99.04 Y97.063 E22.66361
G1 X99.159 Y96.325 E22.68847
G1 X99.357 Y95.603 E22.71337
G1 X99.63 Y94.907 E22.73824
G1 X99.977 Y94.244 E22.76313
G1 X100.392 Y93.621 E22.78802
G1 X101.008 Y92.903 E22.81949
G1 X101.124 Y92.785 E22.82499
G1 X101.676 Y92.28 E22.84988
G1 X101.784 Y92.201 E22.85433
G1 X101.722 Y91.72 E22.87046
G1 X101.707 Y90.972 E22.89534
G1 X101.771 Y90.227 E22.92021
G1 X101.914 Y89.493 E22.94508
G1 X101.999 Y89.201 E22.9552
G1 X102 Y81.115 E23.22414
G1 X102.04 Y80.368 E23.24902
G1 X102.16 Y79.63 E23.27389
G1 X102.357 Y78.908 E23.29878
G1 X102.631 Y78.212 E23.32366
G1 X102.977 Y77.549 E23.34853
G1 X103.392 Y76.927 E23.3734
G0 F6000 X103.789 Y77.065
G1 F1200 X104.373 Y76.409 E23.40261
G1 X104.491 Y76.293 E23.40812
G1 X105.036 Y75.813 E23.43227
G1 X105.631 Y75.396 E23.45644
G1 X106.268 Y75.047 E23.4806
G1 X106.939 Y74.77 E23.50474
G1 X107.637 Y74.568 E23.52891
G1 X108.353 Y74.445 E23.55307
G1 X109.118 Y74.4 E23.57856
G1 X128.883 Y74.4 E24.23595
G1 X129.608 Y74.44 E24.2601
G1 X130.325 Y74.559 E24.28427
G1 X131.024 Y74.757 E24.30844
G1 X131.697 Y75.03 E24.33259
G1 X132.336 Y75.375 E24.35674
G1 X132.933 Y75.789 E24.38091
G1 X133.55 Y76.333 E24.40827
G1 X133.667 Y76.45 E24.41377
G1 X134.151 Y76.991 E24.43791
G1 X134.574 Y77.582 E24.46209
G1 X134.928 Y78.216 E24.48624
G1 X135.211 Y78.885 E24.5104
G1 X135.419 Y79.581 E24.53456
G1 X135.549 Y80.296 E24.55873
G1 X135.6 Y81.117 E24.58609
G1 X135.6 Y114.854 E25.70819
G1 X135.56 Y115.579 E25.73234
G1 X135.527 Y115.779 E25.73908
G1 X135.571 Y116.073 E25.74897
G1 X135.6 Y116.692 E25.76958
G1 X135.6 Y118.308 E25.82332
G1 X135.56 Y119.033 E25.84747
G1 X135.527 Y119.23 E25.85412
G1 X135.586 Y119.71 E25.8702
G1 X135.6 Y120.146 E25.88471
G1 X135.6 Y153.883 E27.00681
G1 X135.56 Y154.608 E27.03096
G1 X135.441 Y155.325 E27.05513
G1 X135.243 Y156.024 E27.0793
G1 X134.97 Y156.697 E27.10345
G1 X134.625 Y157.336 E27.12761
G1 X134.211 Y157.933 E27.15177
G1 X133.667 Y158.55 E27.17913
G1 X133.55 Y158.667 E27.18463
G1 X133.009 Y159.151 E27.20877
G1 X132.418 Y159.574 E27.23295
G1 X131.784 Y159.928 E27.2571
G1 X131.115 Y160.211 E27.28126
G1 X130.419 Y160.419 E27.30542
G1 X129.704 Y160.549 E27.32959
G1 X128.883 Y160.6 E27.35695
G1 X109.117 Y160.6 E28.01437
G1 X108.392 Y160.56 E28.03852
G1 X107.675 Y160.441 E28.06269
G1 X106.976 Y160.243 E28.08686
G1 X106.303 Y159.97 E28.11101
G1 X105.664 Y159.625 E28.13517
G1 X105.067 Y159.211 E28.15933
G1 X104.45 Y158.667 E28.18669
G1 X104.333 Y158.55 E28.19219
G1 X103.849 Y158.009 E28.21633
G1 X103.426 Y157.418 E28.24051
G1 X103.072 Y156.784 E28.26466
G1 X102.789 Y156.115 E28.28882
G1 X102.581 Y155.419 E28.31298
G1 X102.451 Y154.704 E28.33715
G1 X102.4 Y153.883 E28.36451
G1 X102.4 Y145.696 E28.63681
G1 X102.226 Y144.977 E28.66141
G1 X102.135 Y144.256 E28.68559
G1 X102.124 Y143.53 E28.70974
G1 X102.193 Y142.807 E28.73389
G1 X102.231 Y142.624 E28.74011
G1 X102.034 Y142.486 E28.74811
G1 X101.402 Y141.917 E28.77639
G1 X101.278 Y141.79 E28.7823
G1 X100.8 Y141.243 E28.80646
G1 X100.384 Y140.647 E28.83063
G1 X100.037 Y140.009 E28.85479
G1 X99.763 Y139.336 E28.87896
G1 X99.563 Y138.638 E28.9031
G1 X99.442 Y137.922 E28.92726
G1 X99.4 Y137.179 E28.95201
G1 X99.4 Y121.016 E29.48959
G1 X99.44 Y120.291 E29.51374
G1 X99.559 Y119.574 E29.53792
G1 X99.757 Y118.875 E29.56208
G1 X100.03 Y118.202 E29.58624
G1 X100.375 Y117.563 E29.61039
G1 X100.422 Y117.495 E29.61314
G1 X100.2 Y117.134 E29.62723
G1 X99.889 Y116.478 E29.65138
G1 X99.652 Y115.791 E29.67555
G1 X99.492 Y115.083 E29.69969
G1 X99.411 Y114.361 E29.72386
G1 X99.4 Y113.985 E29.73637
G1 X99.4 Y97.81 E30.27435
G1 X99.44 Y97.085 E30.2985
G1 X99.559 Y96.368 E30.32268
G1 X99.757 Y95.669 E30.34684
G1 X100.03 Y94.996 E30.37099
G1 X100.375 Y94.357 E30.39515
G1 X100.789 Y93.76 E30.41931
G1 X101.293 Y93.183 E30.44479
G1 X101.409 Y93.065 E30.4503
G1 X101.946 Y92.576 E30.47445
G1 X102.215 Y92.381 E30.4855
G1 X102.19 Y92.266 E30.48942
G1 X102.112 Y91.543 E30.5136
G1 X102.114 Y90.817 E30.53775
G1 X102.196 Y90.095 E30.56192
G1 X102.399 Y89.282 E30.58979
G1 X102.4 Y81.115 E30.86142
G1 X102.44 Y80.39 E30.88558
G1 X102.56 Y79.674 E30.90972
G1 X102.757 Y78.975 E30.93388
G1 X103.03 Y78.302 E30.95803
G1 X103.376 Y77.663 E30.9822
G1 X103.789 Y77.065 E31.00637
G0 F6000 X103.774 Y77.78
G1 F1200 X104.186 Y77.209 E31.02979
G1 X104.654 Y76.695 E31.05291
G1 X104.772 Y76.579 E31.05842
G1 X105.301 Y76.114 E31.08184
G1 X105.879 Y75.713 E31.10524
G1 X106.499 Y75.38 E31.12865
G1 X107.153 Y75.119 E31.15207
G1 X107.833 Y74.935 E31.1755
G1 X108.529 Y74.828 E31.19892
G1 X109.118 Y74.8 E31.21853
G1 X128.883 Y74.8 E31.87592
G1 X129.586 Y74.84 E31.89934
G1 X130.28 Y74.959 E31.92276
G1 X130.955 Y75.157 E31.94615
G1 X131.604 Y75.429 E31.96956
G1 X132.218 Y75.774 E31.99298
G1 X132.789 Y76.185 E32.01638
G1 X133.267 Y76.616 E32.03779
G1 X133.384 Y76.733 E32.04329
G1 X133.853 Y77.258 E32.06671
G1 X134.259 Y77.833 E32.09012
G1 X134.597 Y78.451 E32.11355
G1 X134.864 Y79.102 E32.13695
G1 X135.054 Y79.78 E32.16037
G1 X135.167 Y80.475 E32.18379
G1 X135.2 Y81.117 E32.20517
G1 X135.2 Y114.854 E33.32727
G1 X135.16 Y115.557 E33.35069
G1 X135.123 Y115.775 E33.35804
G1 X135.184 Y116.24 E33.37364
G1 X135.2 Y116.692 E33.38868
G1 X135.2 Y118.308 E33.44243
G1 X135.16 Y119.011 E33.46585
G1 X135.123 Y119.229 E33.4732
G1 X135.165 Y119.488 E33.48193
