;FLAVOR:Marlin
;TIME:14077
;Filament used: 8.18359m
;Layer height: 0.2
;MINX:113.41
;MINY:77.429
;MINZ:0.2
;MAXX:181.936
;MAXY:197.029
;MAXZ:26
;Generated with Cura_SteamEngine 4.9.0
M140 S50
M105
M190 S50
M104 S200
M105
M109 S200
M82 ;absolute extrusion mode
M201 X500.00 Y500.00 Z100.00 E5000.00 ;Setup machine max acceleration
M203 X500.00 Y500.00 Z10.00 E50.00 ;Setup machine max feedrate
M204 P500.00 R1000.00 T500.00 ;Setup Print/Retract/Travel acceleration
M205 X8.00 Y8.00 Z0.40 E5.00 ;Setup Jerk
M220 S100 ;Reset Feedrate
M221 S100 ;Reset Flowrate

G28 ;Home

G92 E0 ;Reset Extruder
G1 Z2.0 F3000 ;Move Z Axis up
G1 X10.1 Y20 Z0.28 F5000.0 ;Move to start position
G1 X10.1 Y200.0 Z0.28 F1500.0 E15 ;Draw the first line
G1 X10.4 Y200.0 Z0.28 F5000.0 ;Move to side a little
G1 X10.4 Y20 Z0.28 F1500.0 E30 ;Draw the second line
G92 E0 ;Reset Extruder
G1 Z2.0 F3000 ;Move Z Axis up

G92 E0
G92 E0
G1 F2700 E-5
;LAYER_COUNT:130
;LAYER:0
M107
G0 F6000 X137.386 Y81.563 Z0.2
;TYPE:SKIRT
G1 F2700 E0
G1 F1200 X137.804 Y80.892 E0.02629
G1 X138.287 Y80.268 E0.05254
G1 X138.692 Y79.831 E0.07236
G1 X138.809 Y79.714 E0.07786
G1 X139.395 Y79.184 E0.10414
G1 X140.031 Y78.717 E0.13038
G1 X140.711 Y78.316 E0.15664
G1 X141.429 Y77.986 E0.18292
G1 X142.176 Y77.731 E0.20917
G1 X142.945 Y77.552 E0.23544
G1 X143.729 Y77.452 E0.26172
G1 X144.324 Y77.429 E0.28153
G1 X151.09 Y77.429 E0.50656
G1 X151.879 Y77.469 E0.53284
G1 X152.659 Y77.588 E0.55908
G1 X153.424 Y77.786 E0.58537
G1 X154.164 Y78.06 E0.61161
G1 X154.873 Y78.408 E0.63788
G1 X155.544 Y78.826 E0.66417
G1 X156.168 Y79.309 E0.69042
G1 X156.605 Y79.714 E0.71024
G1 X156.722 Y79.831 E0.71574
G1 X157.252 Y80.417 E0.74202
G1 X157.719 Y81.053 E0.76826
G1 X158.12 Y81.733 E0.79452
G1 X158.45 Y82.451 E0.8208
G1 X158.705 Y83.198 E0.84706
G1 X158.884 Y83.967 E0.87332
G1 X158.984 Y84.751 E0.8996
G1 X159.007 Y85.346 E0.91941
G1 X159.007 Y105.02 E1.57377
G1 X161.816 Y106.009 E1.67282
G1 X162.547 Y106.308 E1.69909
G1 X162.908 Y106.49 E1.71253
G1 X163.035 Y106.558 E1.71732
G1 X163.529 Y106.846 E1.73634
G1 X168.48 Y109.984 E1.9313
G1 X169.124 Y110.44 E1.95755
G1 X169.779 Y111.017 E1.98658
G1 X170.056 Y111.29 E1.99952
G1 X170.59 Y111.872 E2.02579
G1 X170.65 Y111.953 E2.02914
G1 X171.206 Y112.445 E2.05383
G1 X172.619 Y113.884 E2.12091
G1 X173.676 Y114.954 E2.17094
G1 X174.158 Y115.449 E2.19392
G1 X174.68 Y116.042 E2.22019
G1 X175.139 Y116.685 E2.24647
G1 X175.181 Y116.756 E2.24921
G1 X175.419 Y117.13 E2.26396
G1 X175.557 Y117.361 E2.27291
G1 X175.781 Y117.704 E2.28653
G1 X175.911 Y117.91 E2.29463
G1 X177.984 Y121.312 E2.42714
G1 X178.216 Y121.682 E2.44166
G1 X178.388 Y121.969 E2.45279
G1 X178.759 Y122.666 E2.47905
G1 X179.027 Y123.311 E2.50228
G1 X179.383 Y124.289 E2.5369
G1 X179.458 Y124.505 E2.5445
G1 X179.801 Y125.542 E2.58083
G1 X179.928 Y125.918 E2.59403
G1 X180.785 Y128.398 E2.6813
G1 X180.939 Y128.864 E2.69763
G1 X181.149 Y129.625 E2.72388
G1 X181.282 Y130.423 E2.75079
G1 X181.86 Y135.465 E2.91959
G1 X181.881 Y135.672 E2.92651
G1 X181.905 Y135.946 E2.93566
G1 X181.935 Y136.636 E2.95863
G1 X181.934 Y137.534 E2.98849
G1 X181.936 Y137.839 E2.99864
G1 X181.881 Y138.804 E3.03079
G1 X181.588 Y141.265 E3.11322
G1 X181.571 Y141.56 E3.12305
G1 X181.272 Y144.077 E3.20735
G1 X181.139 Y144.856 E3.23364
G1 X180.937 Y145.59 E3.25896
G1 X180.72 Y146.251 E3.2821
G1 X180.659 Y146.428 E3.28832
G1 X180.314 Y147.4 E3.32263
G1 X180.196 Y147.74 E3.3346
G1 X179.398 Y150.135 E3.41856
G1 X179.281 Y150.462 E3.43011
G1 X179.138 Y150.834 E3.44337
G1 X178.861 Y151.573 E3.46962
G1 X178.31 Y152.62 E3.50897
G1 X178.11 Y152.938 E3.52146
G1 X177.818 Y153.427 E3.54041
G1 X177.739 Y153.549 E3.54524
G1 X176.946 Y154.836 E3.59552
G1 X176.544 Y155.509 E3.62159
G1 X176.436 Y155.685 E3.62846
G1 X176.06 Y156.278 E3.65181
G1 X175.524 Y157.175 E3.68657
G1 X175.283 Y157.554 E3.70151
G1 X175.044 Y157.906 E3.71566
G1 X174.795 Y158.268 E3.73027
G1 X174.169 Y158.998 E3.76226
G1 X173.592 Y159.591 E3.78978
G1 X172.742 Y160.44 E3.82973
G1 X172.414 Y160.779 E3.84542
G1 X171.849 Y161.348 E3.87209
G1 X171.206 Y162.002 E3.9026
G1 X170.621 Y162.54 E3.92903
G1 X170.566 Y162.613 E3.93207
G1 X170.164 Y163.058 E3.95202
G1 X169.958 Y163.269 E3.96183
G1 X169.567 Y163.643 E3.97982
G1 X169.475 Y163.725 E3.98392
G1 X168.86 Y164.22 E4.01018
G1 X168.458 Y164.492 E4.02632
G1 X163.531 Y167.612 E4.22029
G1 X163.056 Y167.89 E4.23859
G1 X162.926 Y167.96 E4.2435
G1 X162.213 Y168.298 E4.26975
G1 X161.816 Y168.45 E4.28389
G1 X159.007 Y169.438 E4.38293
G1 X159.007 Y189.112 E5.03729
G1 X158.967 Y189.901 E5.06356
G1 X158.848 Y190.681 E5.0898
G1 X158.65 Y191.446 E5.11609
G1 X158.376 Y192.186 E5.14233
G1 X158.028 Y192.895 E5.1686
G1 X157.61 Y193.566 E5.1949
G1 X157.127 Y194.19 E5.22114
G1 X156.722 Y194.627 E5.24096
G1 X156.605 Y194.744 E5.24646
G1 X156.019 Y195.274 E5.27274
G1 X155.383 Y195.741 E5.29898
G1 X154.703 Y196.142 E5.32524
G1 X153.985 Y196.472 E5.35152
G1 X153.238 Y196.727 E5.37778
G1 X152.469 Y196.906 E5.40404
G1 X151.685 Y197.006 E5.43032
G1 X151.09 Y197.029 E5.45013
G1 X144.324 Y197.029 E5.67517
G1 X143.535 Y196.989 E5.70144
G1 X142.755 Y196.87 E5.72769
G1 X141.99 Y196.672 E5.75397
G1 X141.25 Y196.398 E5.78021
G1 X140.541 Y196.05 E5.80648
G1 X139.87 Y195.632 E5.83278
G1 X139.246 Y195.149 E5.85902
G1 X138.809 Y194.744 E5.87884
G1 X138.692 Y194.627 E5.88434
G1 X138.162 Y194.041 E5.91062
G1 X137.695 Y193.405 E5.93686
G1 X137.294 Y192.725 E5.96312
G1 X136.964 Y192.007 E5.9894
G1 X136.709 Y191.26 E6.01566
G1 X136.53 Y190.491 E6.04192
G1 X136.43 Y189.707 E6.0682
G1 X136.407 Y189.112 E6.08801
G1 X136.407 Y169.531 E6.73928
G1 X136.263 Y169.468 E6.7445
G1 X135.579 Y169.127 E6.76992
G1 X135.358 Y169.063 E6.77758
G1 X134.839 Y168.861 E6.7961
G1 X132.33 Y167.78 E6.88697
G1 X131.446 Y167.394 E6.91905
G1 X130.739 Y167.042 E6.94532
G1 X130.076 Y166.623 E6.9714
G1 X128.516 Y165.525 E7.03485
G1 X127.811 Y165.023 E7.06364
G1 X127.474 Y164.793 E7.07721
G1 X125.908 Y163.686 E7.14099
G1 X125.287 Y163.198 E7.16726
G1 X124.757 Y162.691 E7.19166
G1 X123.828 Y161.714 E7.2365
G1 X121.36 Y159.149 E7.35489
G1 X120.842 Y158.553 E7.38115
G1 X120.565 Y158.177 E7.39668
G1 X120.346 Y157.857 E7.40958
G1 X119.988 Y157.316 E7.43116
G1 X119.94 Y157.235 E7.43429
G1 X117.902 Y154.154 E7.55715
G1 X117.5 Y153.474 E7.58343
G1 X117.254 Y152.96 E7.60238
G1 X115.788 Y149.589 E7.72464
G1 X115.461 Y148.827 E7.75222
G1 X115.307 Y148.441 E7.76605
G1 X115.217 Y148.196 E7.77473
G1 X114.96 Y147.35 E7.80413
G1 X114.614 Y145.928 E7.85281
G1 X114.5 Y145.49 E7.86786
G1 X113.999 Y143.449 E7.93776
G1 X113.854 Y142.706 E7.96294
G1 X113.83 Y142.54 E7.96852
G1 X113.775 Y142.051 E7.98489
G1 X113.433 Y137.808 E8.12647
G1 X113.41 Y137.018 E8.15275
G1 X113.435 Y136.531 E8.16897
G1 X113.795 Y132.228 E8.31259
G1 X113.901 Y131.445 E8.33887
G1 X113.99 Y131.03 E8.35299
G1 X114.463 Y129.09 E8.4194
G1 X114.516 Y128.887 E8.42638
G1 X114.626 Y128.483 E8.44031
G1 X114.965 Y127.089 E8.48802
G1 X115.22 Y126.249 E8.51722
G1 X115.294 Y126.047 E8.52438
G1 X115.46 Y125.631 E8.53927
G1 X117.239 Y121.522 E8.6882
G1 X117.589 Y120.814 E8.71447
G1 X117.913 Y120.285 E8.7351
G1 X118.858 Y118.872 E8.79164
G1 X118.93 Y118.746 E8.79646
G1 X119.945 Y117.222 E8.85736
G1 X119.997 Y117.132 E8.86082
G1 X120.486 Y116.398 E8.89016
G1 X120.956 Y115.764 E8.91641
G1 X121.393 Y115.277 E8.93817
G1 X121.866 Y114.792 E8.9607
G1 X124.793 Y111.737 E9.10142
G1 X125.367 Y111.195 E9.12768
G1 X126.002 Y110.708 E9.15429
G1 X126.659 Y110.256 E9.18082
G1 X126.996 Y110.01 E9.1947
G1 X130.146 Y107.8 E9.32268
G1 X130.815 Y107.38 E9.34895
G1 X131.585 Y107.002 E9.37748
G1 X132.303 Y106.698 E9.40341
G1 X133.666 Y106.111 E9.45277
G1 X134.799 Y105.616 E9.4939
G1 X135.537 Y105.336 E9.52015
G1 X135.686 Y105.296 E9.52528
G1 X136.222 Y105.01 E9.54549
G1 X136.407 Y104.928 E9.55222
G1 X136.407 Y85.346 E10.20352
G1 X136.447 Y84.557 E10.22979
G1 X136.566 Y83.777 E10.25604
G1 X136.764 Y83.012 E10.28232
G1 X137.038 Y82.272 E10.30856
G1 X137.386 Y81.563 E10.33483
G0 F6000 X137.785 Y81.67
G1 F1200 X138.201 Y81.023 E10.36042
G1 X138.682 Y80.423 E10.38599
G1 X138.974 Y80.113 E10.40016
G1 X139.091 Y79.996 E10.40566
G1 X139.663 Y79.482 E10.43124
G1 X140.285 Y79.029 E10.45683
G1 X140.95 Y78.643 E10.48241
G1 X141.652 Y78.328 E10.508
G1 X142.383 Y78.088 E10.53359
G1 X143.134 Y77.925 E10.55915
G1 X143.899 Y77.841 E10.58474
G1 X144.324 Y77.829 E10.59889
G1 X151.09 Y77.829 E10.82392
G1 X151.858 Y77.869 E10.8495
G1 X152.618 Y77.988 E10.87509
G1 X153.361 Y78.186 E10.90066
G1 X154.08 Y78.46 E10.92625
G1 X154.766 Y78.807 E10.95182
G1 X155.413 Y79.223 E10.97741
G1 X156.013 Y79.704 E11.00298
G1 X156.323 Y79.996 E11.01715
G1 X156.44 Y80.113 E11.02265
G1 X156.954 Y80.685 E11.04823
G1 X157.407 Y81.307 E11.07382
G1 X157.793 Y81.972 E11.0994
G1 X158.108 Y82.674 E11.12499
G1 X158.348 Y83.405 E11.15058
G1 X158.511 Y84.156 E11.17614
G1 X158.595 Y84.921 E11.20173
G1 X158.607 Y85.346 E11.21588
G1 X158.607 Y105.303 E11.87965
G1 X161.683 Y106.386 E11.98811
G1 X162.719 Y106.842 E12.02576
G1 X162.846 Y106.91 E12.03055
G1 X163.315 Y107.184 E12.04862
G1 X168.266 Y110.322 E12.24358
G1 X168.893 Y110.767 E12.26915
G1 X169.498 Y111.301 E12.29599
G1 X169.775 Y111.574 E12.30893
G1 X170.294 Y112.142 E12.33452
G1 X170.513 Y112.34 E12.34434
G1 X170.921 Y112.725 E12.36299
G1 X172.335 Y114.165 E12.43012
G1 X173.39 Y115.233 E12.48005
G1 X173.872 Y115.728 E12.50303
G1 X174.379 Y116.307 E12.52863
G1 X174.823 Y116.934 E12.55418
G1 X174.85 Y116.98 E12.55595
G1 X175.076 Y117.335 E12.56995
G1 X175.225 Y117.585 E12.57963
G1 X175.446 Y117.923 E12.59306
G1 X175.57 Y118.118 E12.60075
G1 X177.635 Y121.507 E12.73274
G1 X177.872 Y121.888 E12.74767
G1 X178.044 Y122.175 E12.7588
G1 X178.405 Y122.854 E12.78437
G1 X178.651 Y123.448 E12.80576
G1 X179.007 Y124.426 E12.84037
G1 X179.078 Y124.631 E12.84759
G1 X179.534 Y126.003 E12.89568
G1 X180.405 Y128.523 E12.98436
G1 X180.559 Y128.989 E13.00068
G1 X180.762 Y129.731 E13.02627
G1 X180.885 Y130.468 E13.05112
G1 X181.463 Y135.51 E13.21991
G1 X181.483 Y135.707 E13.2265
G1 X181.507 Y135.981 E13.23565
G1 X181.535 Y136.635 E13.25742
G1 X181.534 Y137.533 E13.28729
G1 X181.536 Y137.842 E13.29757
G1 X181.484 Y138.757 E13.32805
G1 X181.19 Y141.231 E13.41091
G1 X181.173 Y141.513 E13.42031
G1 X180.874 Y144.03 E13.50461
G1 X180.744 Y144.788 E13.53019
G1 X180.557 Y145.465 E13.55355
G1 X180.34 Y146.126 E13.57669
G1 X179.831 Y147.571 E13.62765
G1 X179.019 Y150.008 E13.71308
G1 X178.907 Y150.319 E13.72408
G1 X178.486 Y151.432 E13.76366
G1 X177.971 Y152.407 E13.80033
G1 X177.767 Y152.732 E13.81309
G1 X177.474 Y153.222 E13.83208
G1 X177.399 Y153.34 E13.83673
G1 X176.575 Y154.677 E13.88897
G1 X176.201 Y155.304 E13.91325
G1 X176.099 Y155.471 E13.91976
G1 X175.712 Y156.082 E13.94381
G1 X175.181 Y156.97 E13.97823
G1 X174.952 Y157.329 E13.99239
G1 X174.713 Y157.681 E14.00654
G1 X174.451 Y158.058 E14.02181
G1 X173.882 Y158.719 E14.05082
G1 X173.31 Y159.308 E14.07813
G1 X172.463 Y160.154 E14.11794
G1 X172.13 Y160.497 E14.13384
G1 X171.565 Y161.066 E14.16051
G1 X170.921 Y161.722 E14.19109
G1 X170.354 Y162.242 E14.21668
G1 X170.234 Y162.387 E14.22294
G1 X169.878 Y162.778 E14.24052
G1 X169.672 Y162.989 E14.25033
G1 X169.301 Y163.344 E14.26741
G1 X169.209 Y163.426 E14.27151
G1 X168.609 Y163.907 E14.29709
G1 X168.244 Y164.154 E14.31175
G1 X163.317 Y167.274 E14.50571
G1 X162.866 Y167.537 E14.52308
G1 X162.736 Y167.607 E14.52799
G1 X161.683 Y168.073 E14.56629
G1 X158.607 Y169.155 E14.67474
G1 X158.607 Y189.112 E15.33851
G1 X158.567 Y189.88 E15.36409
G1 X158.448 Y190.64 E15.38968
G1 X158.25 Y191.383 E15.41525
G1 X157.976 Y192.102 E15.44084
G1 X157.629 Y192.788 E15.46641
G1 X157.213 Y193.435 E15.492
G1 X156.732 Y194.035 E15.51757
G1 X156.44 Y194.345 E15.53174
G1 X156.323 Y194.462 E15.53724
G1 X155.751 Y194.976 E15.56282
G1 X155.129 Y195.429 E15.58841
G1 X154.464 Y195.815 E15.61398
G1 X153.762 Y196.13 E15.63958
G1 X153.031 Y196.37 E15.66517
G1 X152.28 Y196.533 E15.69073
G1 X151.515 Y196.617 E15.71632
G1 X151.09 Y196.629 E15.73046
G1 X144.324 Y196.629 E15.9555
G1 X143.556 Y196.589 E15.98108
G1 X142.796 Y196.47 E16.00667
G1 X142.053 Y196.272 E16.03224
G1 X141.334 Y195.998 E16.05783
G1 X140.648 Y195.651 E16.0834
G1 X140.001 Y195.235 E16.10899
G1 X139.401 Y194.754 E16.13456
G1 X139.091 Y194.462 E16.14873
G1 X138.974 Y194.345 E16.15423
G1 X138.46 Y193.773 E16.17981
G1 X138.007 Y193.151 E16.2054
G1 X137.621 Y192.486 E16.23097
G1 X137.306 Y191.784 E16.25657
G1 X137.066 Y191.053 E16.28216
G1 X136.903 Y190.302 E16.30772
G1 X136.819 Y189.537 E16.33331
G1 X136.807 Y189.112 E16.34745
G1 X136.807 Y169.268 E17.00747
G1 X136.423 Y169.101 E17.0214
G1 X135.769 Y168.775 E17.0457
G1 X135.745 Y168.769 E17.04652
G1 X134.997 Y168.494 E17.07303
G1 X132.49 Y167.414 E17.16382
G1 X131.606 Y167.028 E17.1959
G1 X130.918 Y166.684 E17.22149
G1 X130.306 Y166.296 E17.24559
G1 X128.748 Y165.199 E17.30897
G1 X128.055 Y164.706 E17.33725
G1 X127.704 Y164.467 E17.35138
G1 X126.138 Y163.36 E17.41516
G1 X125.534 Y162.884 E17.44074
G1 X125.046 Y162.415 E17.46325
G1 X124.085 Y161.404 E17.50964
G1 X121.649 Y158.872 E17.6265
G1 X121.145 Y158.291 E17.65209
G1 X120.894 Y157.95 E17.66617
G1 X120.68 Y157.637 E17.67878
G1 X120.322 Y157.096 E17.70036
G1 X120.277 Y157.019 E17.70332
G1 X118.235 Y153.933 E17.8264
G1 X117.845 Y153.27 E17.85198
G1 X117.621 Y152.801 E17.86927
G1 X116.156 Y149.431 E17.99149
G1 X115.829 Y148.669 E18.01907
G1 X115.683 Y148.303 E18.03218
G1 X115.593 Y148.058 E18.04086
G1 X115.349 Y147.255 E18.06877
G1 X115.005 Y145.841 E18.11717
G1 X114.888 Y145.395 E18.13251
G1 X114.387 Y143.354 E18.20241
G1 X114.25 Y142.649 E18.22629
G1 X114.226 Y142.483 E18.23187
G1 X114.174 Y142.019 E18.2474
G1 X113.832 Y137.776 E18.38898
G1 X113.81 Y137.007 E18.41457
G1 X113.834 Y136.564 E18.42933
G1 X114.194 Y132.261 E18.57294
G1 X114.379 Y131.125 E18.61123
G1 X114.852 Y129.185 E18.67764
G1 X114.901 Y128.992 E18.68426
G1 X115.016 Y128.568 E18.69887
G1 X115.353 Y127.184 E18.74625
G1 X115.596 Y126.387 E18.77397
G1 X115.67 Y126.185 E18.78112
G1 X115.827 Y125.79 E18.79526
G1 X117.606 Y121.681 E18.94418
G1 X117.948 Y120.992 E18.96977
G1 X118.246 Y120.508 E18.98867
G1 X119.187 Y119.1 E19.045
G1 X119.263 Y118.968 E19.05006
G1 X120.276 Y117.447 E19.11084
G1 X120.33 Y117.354 E19.11442
G1 X120.819 Y116.62 E19.14376
G1 X121.278 Y116.003 E19.16933
G1 X121.679 Y115.556 E19.18931
G1 X122.152 Y115.071 E19.21184
G1 X125.082 Y112.013 E19.3527
G1 X125.642 Y111.486 E19.37828
G1 X126.229 Y111.038 E19.40284
G1 X126.873 Y110.595 E19.42883
G1 X127.226 Y110.337 E19.44338
G1 X130.376 Y108.127 E19.57136
G1 X131.028 Y107.719 E19.59694
G1 X131.741 Y107.371 E19.62333
G1 X132.459 Y107.067 E19.64926
G1 X133.786 Y106.495 E19.69732
G1 X134.959 Y105.982 E19.73991
G1 X135.679 Y105.711 E19.76549
G1 X135.828 Y105.672 E19.77062
G1 X136.384 Y105.376 E19.79157
G1 X136.807 Y105.189 E19.80695
G1 X136.807 Y85.346 E20.46693
G1 X136.847 Y84.578 E20.49251
G1 X136.966 Y83.818 E20.51809
G1 X137.164 Y83.075 E20.54367
G1 X137.438 Y82.356 E20.56926
G1 X137.785 Y81.67 E20.59483
G0 F6000 X138.184 Y81.78
G1 F1200 X138.599 Y81.157 E20.61973
G1 X139.257 Y80.396 E20.65319
G1 X139.374 Y80.279 E20.65869
G1 X139.931 Y79.779 E20.68359
G1 X140.537 Y79.342 E20.70844
G1 X141.187 Y78.971 E20.73333
G1 X141.873 Y78.672 E20.75822
G1 X142.587 Y78.448 E20.78311
G1 X143.32 Y78.301 E20.80797
G1 X144.324 Y78.229 E20.84145
G1 X151.09 Y78.229 E21.06649
G1 X151.837 Y78.269 E21.09137
G1 X152.575 Y78.388 E21.11623
G1 X153.297 Y78.586 E21.14113
G1 X153.993 Y78.859 E21.166
G1 X154.656 Y79.206 E21.19089
G1 X155.279 Y79.621 E21.21579
G1 X156.04 Y80.279 E21.24925
G1 X156.157 Y80.396 E21.25475
G1 X156.657 Y80.953 E21.27965
G1 X157.094 Y81.559 E21.30449
G1 X157.465 Y82.209 E21.32939
G1 X157.764 Y82.895 E21.35428
G1 X157.988 Y83.609 E21.37917
G1 X158.135 Y84.342 E21.40403
G1 X158.207 Y85.346 E21.43751
G1 X158.207 Y105.586 E22.1107
G1 X161.551 Y106.763 E22.22861
G1 X162.53 Y107.195 E22.2642
G1 X162.657 Y107.263 E22.26899
G1 X163.1 Y107.522 E22.28606
G1 X168.051 Y110.66 E22.48102
G1 X168.661 Y111.093 E22.5059
G1 X169.218 Y111.586 E22.53064
