;FLAVOR:Marlin
;TIME:13641
;Filament used: 9.46761m
;Layer height: 0.2
;MINX:130.2
;MINY:101.644
;MINZ:0.2
;MAXX:169.8
;MAXY:198.356
;MAXZ:41
;Generated with Cura_SteamEngine 4.9.0
M140 S50
M105
M190 S50
M104 S200
M105
M109 S200
M82 ;absolute extrusion mode
M201 X500.00 Y500.00 Z100.00 E5000.00 ;Setup machine max acceleration
M203 X500.00 Y500.00 Z10.00 E50.00 ;Setup machine max feedrate
M204 P500.00 R1000.00 T500.00 ;Setup Print/Retract/Travel acceleration
M205 X8.00 Y8.00 Z0.40 E5.00 ;Setup Jerk
M220 S100 ;Reset Feedrate
M221 S100 ;Reset Flowrate

G28 ;Home

G92 E0 ;Reset Extruder
G1 Z2.0 F3000 ;Move Z Axis up
G1 X10.1 Y20 Z0.28 F5000.0 ;Move to start position
G1 X10.1 Y200.0 Z0.28 F1500.0 E15 ;Draw the first line
G1 X10.4 Y200.0 Z0.28 F5000.0 ;Move to side a little
G1 X10.4 Y20 Z0.28 F1500.0 E30 ;Draw the second line
G92 E0 ;Reset Extruder
G1 Z2.0 F3000 ;Move Z Axis up

G92 E0
G92 E0
G1 F2700 E-5
;LAYER_COUNT:205
;LAYER:0
M107
G0 F6000 X132.08 Y104.483 Z0.2
;TYPE:SKIRT
G1 F2700 E0
G1 F1200 X132.485 Y104.046 E0.01982
G1 X132.602 Y103.929 E0.02532
G1 X133.188 Y103.399 E0.0516
G1 X133.824 Y102.932 E0.07784
G1 X134.504 Y102.531 E0.1041
G1 X135.222 Y102.201 E0.13038
G1 X135.969 Y101.946 E0.15664
G1 X136.738 Y101.767 E0.1829
G1 X137.522 Y101.667 E0.20918
G1 X138.117 Y101.644 E0.22899
G1 X161.883 Y101.644 E1.01945
G1 X162.672 Y101.684 E1.04572
G1 X163.452 Y101.803 E1.07197
G1 X164.217 Y102.001 E1.09825
G1 X164.957 Y102.275 E1.1245
G1 X165.666 Y102.623 E1.15076
G1 X166.337 Y103.041 E1.17706
G1 X166.961 Y103.524 E1.2033
G1 X167.398 Y103.929 E1.22312
G1 X167.515 Y104.046 E1.22862
G1 X168.045 Y104.632 E1.2549
G1 X168.512 Y105.268 E1.28115
G1 X168.913 Y105.948 E1.3074
G1 X169.243 Y106.666 E1.33369
G1 X169.498 Y107.413 E1.35994
G1 X169.677 Y108.182 E1.3862
G1 X169.777 Y108.966 E1.41249
G1 X169.8 Y109.561 E1.43229
G1 X169.8 Y128.241 E2.05359
G1 X169.76 Y129.03 E2.07987
G1 X169.687 Y129.508 E2.09595
G1 X169.777 Y130.213 E2.11959
G1 X169.8 Y130.808 E2.13939
G1 X169.8 Y132.708 E2.20259
G1 X169.78 Y133.105 E2.21581
G1 X169.8 Y133.625 E2.23312
G1 X169.8 Y166.375 E3.32239
G1 X169.779 Y166.785 E3.33604
G1 X169.79 Y166.89 E3.33955
G1 X169.8 Y167.292 E3.35293
G1 X169.8 Y169.192 E3.41612
G1 X169.76 Y169.981 E3.4424
G1 X169.686 Y170.469 E3.45881
G1 X169.769 Y171.062 E3.47873
G1 X169.8 Y171.759 E3.50193
G1 X169.8 Y190.439 E4.12323
G1 X169.76 Y191.228 E4.14951
G1 X169.641 Y192.008 E4.17575
G1 X169.443 Y192.773 E4.20203
G1 X169.169 Y193.513 E4.22828
G1 X168.821 Y194.222 E4.25455
G1 X168.403 Y194.893 E4.28084
G1 X167.92 Y195.517 E4.30709
G1 X167.515 Y195.954 E4.3269
G1 X167.398 Y196.071 E4.33241
G1 X166.812 Y196.601 E4.35869
G1 X166.176 Y197.068 E4.38493
G1 X165.496 Y197.469 E4.41119
G1 X164.778 Y197.799 E4.43747
G1 X164.031 Y198.054 E4.46372
G1 X163.262 Y198.233 E4.48998
G1 X162.478 Y198.333 E4.51627
G1 X161.883 Y198.356 E4.53608
G1 X138.117 Y198.356 E5.32654
G1 X137.328 Y198.316 E5.35281
G1 X136.548 Y198.197 E5.37905
G1 X135.783 Y197.999 E5.40534
G1 X135.043 Y197.725 E5.43158
G1 X134.334 Y197.377 E5.45785
G1 X133.663 Y196.959 E5.48415
G1 X133.039 Y196.476 E5.51039
G1 X132.602 Y196.071 E5.53021
G1 X132.485 Y195.954 E5.53571
G1 X131.955 Y195.368 E5.56199
G1 X131.488 Y194.732 E5.58823
G1 X131.087 Y194.052 E5.61449
G1 X130.757 Y193.334 E5.64077
G1 X130.502 Y192.587 E5.66703
G1 X130.323 Y191.818 E5.69329
G1 X130.223 Y191.034 E5.71957
G1 X130.2 Y190.439 E5.73938
G1 X130.2 Y156.697 E6.86164
G1 X130.24 Y155.908 E6.88792
G1 X130.359 Y155.128 E6.91416
G1 X130.557 Y154.363 E6.94044
G1 X130.708 Y153.955 E6.95491
G1 X130.709 Y146.067 E7.21727
G1 X130.687 Y146.017 E7.21909
G1 X130.45 Y145.264 E7.24534
G1 X130.291 Y144.49 E7.27162
G1 X130.21 Y143.705 E7.29787
G1 X130.2 Y143.303 E7.31125
G1 X130.2 Y109.561 E8.43351
G1 X130.24 Y108.772 E8.45978
G1 X130.359 Y107.992 E8.48603
G1 X130.557 Y107.227 E8.51231
G1 X130.831 Y106.487 E8.53856
G1 X131.179 Y105.778 E8.56482
G1 X131.597 Y105.107 E8.59112
G1 X132.08 Y104.483 E8.61736
G0 F6000 X132.475 Y104.638
G1 F1200 X132.767 Y104.328 E8.63153
G1 X132.884 Y104.211 E8.63703
G1 X133.456 Y103.697 E8.66261
G1 X134.078 Y103.244 E8.6882
G1 X134.743 Y102.858 E8.71378
G1 X135.445 Y102.543 E8.73937
G1 X136.176 Y102.303 E8.76496
G1 X136.927 Y102.14 E8.79052
G1 X137.692 Y102.056 E8.81611
G1 X138.117 Y102.044 E8.83026
G1 X161.883 Y102.044 E9.62072
G1 X162.651 Y102.084 E9.64629
G1 X163.411 Y102.203 E9.67188
G1 X164.154 Y102.401 E9.69745
G1 X164.873 Y102.675 E9.72305
G1 X165.559 Y103.022 E9.74862
G1 X166.206 Y103.438 E9.7742
G1 X166.806 Y103.919 E9.79978
G1 X167.116 Y104.211 E9.81394
G1 X167.233 Y104.328 E9.81944
G1 X167.747 Y104.9 E9.84502
G1 X168.2 Y105.522 E9.87061
G1 X168.586 Y106.187 E9.89619
G1 X168.901 Y106.889 E9.92178
G1 X169.141 Y107.62 E9.94737
G1 X169.304 Y108.371 E9.97293
G1 X169.388 Y109.136 E9.99853
G1 X169.4 Y109.561 E10.01267
G1 X169.4 Y128.241 E10.63397
G1 X169.36 Y129.009 E10.65955
G1 X169.281 Y129.513 E10.67651
G1 X169.304 Y129.618 E10.68009
G1 X169.388 Y130.383 E10.70569
G1 X169.4 Y130.808 E10.71983
G1 X169.4 Y132.708 E10.78302
G1 X169.379 Y133.116 E10.79661
G1 X169.388 Y133.2 E10.79942
G1 X169.4 Y133.625 E10.81356
G1 X169.4 Y166.375 E11.90283
G1 X169.375 Y166.857 E11.91888
G1 X169.4 Y167.292 E11.93337
G1 X169.4 Y169.192 E11.99657
G1 X169.36 Y169.96 E12.02215
G1 X169.282 Y170.46 E12.03898
G1 X169.376 Y171.158 E12.0624
G1 X169.4 Y171.759 E12.08241
G1 X169.4 Y190.439 E12.70371
G1 X169.36 Y191.207 E12.72929
G1 X169.241 Y191.967 E12.75487
G1 X169.043 Y192.71 E12.78045
G1 X168.769 Y193.429 E12.80604
G1 X168.422 Y194.115 E12.83161
G1 X168.006 Y194.762 E12.85719
G1 X167.525 Y195.362 E12.88277
G1 X167.233 Y195.672 E12.89693
G1 X167.116 Y195.789 E12.90244
G1 X166.544 Y196.303 E12.92801
G1 X165.922 Y196.756 E12.95361
G1 X165.257 Y197.142 E12.97918
G1 X164.555 Y197.457 E13.00477
G1 X163.824 Y197.697 E13.03036
G1 X163.073 Y197.86 E13.05592
G1 X162.308 Y197.944 E13.08152
G1 X161.883 Y197.956 E13.09566
G1 X138.117 Y197.956 E13.88612
G1 X137.349 Y197.916 E13.9117
G1 X136.589 Y197.797 E13.93728
G1 X135.846 Y197.599 E13.96286
G1 X135.127 Y197.325 E13.98845
G1 X134.441 Y196.978 E14.01402
G1 X133.794 Y196.562 E14.0396
G1 X133.194 Y196.081 E14.06518
G1 X132.884 Y195.789 E14.07935
G1 X132.767 Y195.672 E14.08485
G1 X132.253 Y195.1 E14.11043
G1 X131.8 Y194.478 E14.13602
G1 X131.414 Y193.813 E14.16159
G1 X131.099 Y193.111 E14.18718
G1 X130.859 Y192.38 E14.21277
G1 X130.696 Y191.629 E14.23833
G1 X130.612 Y190.864 E14.26393
G1 X130.6 Y190.439 E14.27807
G1 X130.6 Y156.697 E15.40034
G1 X130.64 Y155.929 E15.42591
G1 X130.759 Y155.169 E15.4515
G1 X130.957 Y154.426 E15.47707
G1 X131.108 Y154.029 E15.4912
G1 X131.109 Y145.972 E15.75918
G1 X130.983 Y145.652 E15.77062
G1 X130.777 Y144.91 E15.79623
G1 X130.649 Y144.152 E15.8218
G1 X130.6 Y143.303 E15.85008
G1 X130.6 Y109.561 E16.97235
G1 X130.64 Y108.793 E16.99792
G1 X130.759 Y108.033 E17.02351
G1 X130.957 Y107.29 E17.04909
G1 X131.231 Y106.571 E17.07468
G1 X131.578 Y105.885 E17.10025
G1 X131.994 Y105.238 E17.12583
G1 X132.475 Y104.638 E17.15141
G0 F6000 X132.392 Y105.372
G1 F1200 X133.05 Y104.611 E17.18487
G1 X133.167 Y104.494 E17.19037
G1 X133.724 Y103.994 E17.21527
G1 X134.33 Y103.557 E17.24012
G1 X134.98 Y103.186 E17.26501
G1 X135.666 Y102.887 E17.2899
G1 X136.38 Y102.663 E17.31479
G1 X137.113 Y102.516 E17.33965
G1 X138.117 Y102.444 E17.37313
G1 X161.883 Y102.444 E18.16359
G1 X162.63 Y102.484 E18.18847
G1 X163.368 Y102.603 E18.21334
G1 X164.09 Y102.801 E18.23824
G1 X164.786 Y103.074 E18.2631
G1 X165.449 Y103.421 E18.28799
G1 X166.072 Y103.836 E18.31289
G1 X166.833 Y104.494 E18.34635
G1 X166.95 Y104.611 E18.35185
G1 X167.45 Y105.168 E18.37675
G1 X167.887 Y105.774 E18.4016
G1 X168.258 Y106.424 E18.42649
G1 X168.557 Y107.11 E18.45138
G1 X168.781 Y107.824 E18.47627
G1 X168.928 Y108.557 E18.50113
G1 X169 Y109.561 E18.53461
G1 X169 Y128.241 E19.15591
G1 X168.96 Y128.988 E19.18079
G1 X168.873 Y129.529 E19.19902
G1 X168.928 Y129.804 E19.20835
G1 X169 Y130.808 E19.24182
G1 X169 Y132.708 E19.30502
G1 X168.972 Y133.233 E19.3225
G1 X169 Y133.625 E19.33558
G1 X169 Y166.375 E20.42485
G1 X168.979 Y166.762 E20.43774
G1 X168.981 Y166.775 E20.43817
G1 X169 Y167.292 E20.45538
G1 X169 Y169.192 E20.51857
G1 X168.96 Y169.939 E20.54346
G1 X168.876 Y170.459 E20.56098
G1 X168.888 Y170.509 E20.56269
G1 X168.982 Y171.251 E20.58756
G1 X169 Y171.759 E20.60447
G1 X169 Y190.439 E21.22577
G1 X168.96 Y191.186 E21.25065
G1 X168.841 Y191.924 E21.27551
G1 X168.643 Y192.646 E21.30041
G1 X168.37 Y193.342 E21.32528
G1 X168.023 Y194.005 E21.35017
G1 X167.608 Y194.628 E21.37506
G1 X166.95 Y195.389 E21.40853
G1 X166.833 Y195.506 E21.41403
G1 X166.276 Y196.006 E21.43892
G1 X165.67 Y196.443 E21.46377
G1 X165.02 Y196.814 E21.48867
G1 X164.334 Y197.113 E21.51356
G1 X163.62 Y197.337 E21.53844
G1 X162.887 Y197.484 E21.56331
G1 X161.883 Y197.556 E21.59679
G1 X138.117 Y197.556 E22.38725
G1 X137.37 Y197.516 E22.41213
G1 X136.632 Y197.397 E22.43699
G1 X135.91 Y197.199 E22.46189
G1 X135.214 Y196.926 E22.48676
G1 X134.551 Y196.579 E22.51165
G1 X133.928 Y196.164 E22.53655
G1 X133.167 Y195.506 E22.57001
G1 X133.05 Y195.389 E22.57551
G1 X132.55 Y194.832 E22.60041
G1 X132.113 Y194.226 E22.62526
G1 X131.742 Y193.576 E22.65015
G1 X131.443 Y192.89 E22.67504
G1 X131.219 Y192.176 E22.69993
G1 X131.072 Y191.443 E22.72479
G1 X131 Y190.439 E22.75827
G1 X131 Y156.697 E23.88053
G1 X131.04 Y155.95 E23.90541
G1 X131.159 Y155.212 E23.93028
G1 X131.357 Y154.49 E23.95518
G1 X131.508 Y154.105 E23.96893
G1 X131.509 Y145.913 E24.2414
G1 X131.288 Y145.29 E24.26339
G1 X131.114 Y144.562 E24.28828
G1 X131.019 Y143.82 E24.31316
G1 X131 Y143.303 E24.33037
G1 X131 Y109.561 E25.45263
G1 X131.04 Y108.814 E25.47751
G1 X131.159 Y108.076 E25.50238
G1 X131.357 Y107.354 E25.52728
G1 X131.63 Y106.658 E25.55214
G1 X131.977 Y105.995 E25.57703
G1 X132.392 Y105.372 E25.60193
G0 F6000 X132.789 Y105.511
G1 F1200 X133.333 Y104.894 E25.62929
G1 X133.45 Y104.777 E25.63479
G1 X133.991 Y104.293 E25.65894
G1 X134.582 Y103.87 E25.68311
G1 X135.216 Y103.516 E25.70726
G1 X135.885 Y103.233 E25.73142
G1 X136.581 Y103.025 E25.75558
G1 X137.296 Y102.895 E25.77975
G1 X138.117 Y102.844 E25.80711
G1 X161.883 Y102.844 E26.59757
G1 X162.608 Y102.884 E26.62172
G1 X163.325 Y103.003 E26.64589
G1 X164.024 Y103.201 E26.67006
G1 X164.697 Y103.474 E26.69421
G1 X165.336 Y103.819 E26.71837
G1 X165.933 Y104.233 E26.74253
G1 X166.55 Y104.777 E26.76989
G1 X166.667 Y104.894 E26.77539
G1 X167.151 Y105.435 E26.79954
G1 X167.574 Y106.026 E26.82371
G1 X167.928 Y106.66 E26.84786
G1 X168.211 Y107.329 E26.87202
G1 X168.419 Y108.025 E26.89618
G1 X168.549 Y108.74 E26.92035
G1 X168.6 Y109.561 E26.94771
G1 X168.6 Y128.241 E27.56901
G1 X168.56 Y128.966 E27.59316
G1 X168.466 Y129.531 E27.61221
G1 X168.549 Y129.987 E27.62763
G1 X168.6 Y130.808 E27.65499
G1 X168.6 Y132.708 E27.71818
G1 X168.573 Y133.194 E27.73437
G1 X168.6 Y133.625 E27.74873
G1 X168.6 Y166.375 E28.838
G1 X168.572 Y166.887 E28.85506
G1 X168.6 Y167.292 E28.86856
G1 X168.6 Y169.192 E28.93175
G1 X168.56 Y169.917 E28.9559
G1 X168.467 Y170.476 E28.97475
G1 X168.501 Y170.622 E28.97974
G1 X168.587 Y171.344 E29.00392
G1 X168.6 Y171.759 E29.01773
G1 X168.6 Y190.439 E29.63903
G1 X168.56 Y191.164 E29.66318
G1 X168.441 Y191.881 E29.68735
G1 X168.243 Y192.58 E29.71152
G1 X167.97 Y193.253 E29.73567
G1 X167.625 Y193.892 E29.75983
G1 X167.211 Y194.489 E29.78399
G1 X166.667 Y195.106 E29.81135
G1 X166.55 Y195.223 E29.81685
G1 X166.009 Y195.707 E29.841
G1 X165.418 Y196.13 E29.86517
G1 X164.784 Y196.484 E29.88932
G1 X164.115 Y196.767 E29.91348
G1 X163.419 Y196.975 E29.93764
G1 X162.704 Y197.105 E29.96181
G1 X161.883 Y197.156 E29.98917
G1 X138.117 Y197.156 E30.77963
G1 X137.392 Y197.116 E30.80378
G1 X136.675 Y196.997 E30.82796
G1 X135.976 Y196.799 E30.85212
G1 X135.303 Y196.526 E30.87627
G1 X134.664 Y196.181 E30.90043
G1 X134.067 Y195.767 E30.92459
G1 X133.45 Y195.223 E30.95195
G1 X133.333 Y195.106 E30.95745
G1 X132.849 Y194.565 E30.9816
G1 X132.426 Y193.974 E31.00577
G1 X132.072 Y193.34 E31.02992
G1 X131.789 Y192.671 E31.05408
G1 X131.581 Y191.975 E31.07824
G1 X131.451 Y191.26 E31.10241
G1 X131.4 Y190.439 E31.12977
G1 X131.4 Y156.697 E32.25204
G1 X131.44 Y155.972 E32.27619
G1 X131.559 Y155.255 E32.30036
G1 X131.757 Y154.556 E32.32452
G1 X131.908 Y154.183 E32.33791
G1 X131.909 Y145.822 E32.616
G1 X131.822 Y145.625 E32.62316
G1 X131.604 Y144.932 E32.64732
G1 X131.464 Y144.22 E32.67146
G1 X131.4 Y143.303 E32.70203
G1 X131.4 Y109.561 E33.82429
G1 X131.44 Y108.836 E33.84844
G1 X131.559 Y108.119 E33.87262
G1 X131.757 Y107.42 E33.89678
G1 X132.03 Y106.747 E33.92094
G1 X132.375 Y106.108 E33.94509
G1 X132.789 Y105.511 E33.96925
G0 F6000 X133.185 Y105.655
G1 F1200 X133.616 Y105.177 E33.99066
G1 X133.733 Y105.06 E33.99616
G1 X134.258 Y104.591 E34.01958
G1 X134.833 Y104.185 E34.04299
G1 X135.451 Y103.847 E34.06642
G1 X136.102 Y103.58 E34.08982
G1 X136.78 Y103.39 E34.11324
G1 X137.475 Y103.277 E34.13666
G1 X138.117 Y103.244 E34.15804
G1 X161.883 Y103.244 E34.9485
G1 X162.586 Y103.284 E34.97192
G1 X163.28 Y103.403 E34.99534
G1 X163.955 Y103.601 E35.01874
G1 X164.604 Y103.873 E35.04214
G1 X165.218 Y104.218 E35.06556
G1 X165.789 Y104.629 E35.08896
G1 X166.267 Y105.06 E35.11037
G1 X166.384 Y105.177 E35.11587
G1 X166.853 Y105.702 E35.13929
G1 X167.259 Y106.277 E35.1627
G1 X167.597 Y106.895 E35.18613
G1 X167.864 Y107.546 E35.20953
G1 X168.054 Y108.224 E35.23295
G1 X168.167 Y108.919 E35.25637
G1 X168.2 Y109.561 E35.27775
G1 X168.2 Y128.241 E35.89905
G1 X168.16 Y128.944 E35.92247
G1 X168.062 Y129.518 E35.94184
G1 X168.167 Y130.166 E35.96367
G1 X168.2 Y130.808 E35.98505
G1 X168.2 Y132.708 E36.04825
G1 X168.175 Y133.143 E36.06274
G1 X168.2 Y133.625 E36.07879
G1 X168.2 Y166.375 E37.16806
G1 X168.177 Y166.787 E37.18179
G1 X168.2 Y167.292 E37.1986
G1 X168.2 Y169.192 E37.26179
G1 X168.16 Y169.895 E37.28521
G1 X168.059 Y170.486 E37.30516
G1 X168.115 Y170.734 E37.31361
G1 X168.2 Y171.759 E37.34782
G1 X168.2 Y190.439 E37.96912
G1 X168.16 Y191.142 E37.99254
G1 X168.041 Y191.836 E38.01596
G1 X167.843 Y192.511 E38.03935
G1 X167.571 Y193.16 E38.06276
G1 X167.226 Y193.774 E38.08618
G1 X166.815 Y194.345 E38.10958
G1 X166.384 Y194.823 E38.13099
G1 X166.267 Y194.94 E38.13649
G1 X165.742 Y195.409 E38.15991
G1 X165.167 Y195.815 E38.18332
G1 X164.549 Y196.153 E38.20675
G1 X163.898 Y196.42 E38.23015
G1 X163.22 Y196.61 E38.25357
G1 X162.525 Y196.723 E38.27699
G1 X161.883 Y196.756 E38.29837
G1 X138.117 Y196.756 E39.08883
G1 X137.414 Y196.716 E39.11225
G1 X136.72 Y196.597 E39.13567
G1 X136.045 Y196.399 E39.15907
G1 X135.396 Y196.127 E39.18247
G1 X134.782 Y195.782 E39.2059
G1 X134.211 Y195.371 E39.2293
G1 X133.733 Y194.94 E39.2507
G1 X133.616 Y194.823 E39.25621
G1 X133.147 Y194.298 E39.27962
G1 X132.741 Y193.723 E39.30303
G1 X132.403 Y193.105 E39.32646
G1 X132.136 Y192.454 E39.34986
G1 X131.946 Y191.776 E39.37328
G1 X131.833 Y191.081 E39.3967
G1 X131.8 Y190.439 E39.41808
G1 X131.8 Y156.697 E40.54035
G1 X131.84 Y155.994 E40.56377
G1 X131.959 Y155.3 E40.58719
G1 X132.157 Y154.625 E40.61058
G1 X132.308 Y154.264 E40.6236
G1 X132.309 Y145.743 E40.90701
G1 X132.117 Y145.26 E40.92429
G1 X131.933 Y144.58 E40.94772
G1 X131.827 Y143.884 E40.97114
G1 X131.8 Y143.303 E40.99049
G1 X131.8 Y109.561 E42.11275
G1 X131.84 Y108.858 E42.13617
G1 X131.959 Y108.164 E42.15959
G1 X132.157 Y107.489 E42.18298
G1 X132.429 Y106.84 E42.20639
G1 X132.774 Y106.226 E42.22981
G1 X133.185 Y105.655 E42.25321
G0 F6000 X133.582 Y105.803
G1 F1200 X133.899 Y105.46 E42.26875
G1 X134.016 Y105.343 E42.27425
G1 X134.525 Y104.89 E42.29691
G1 X135.083 Y104.501 E42.31954
G1 X135.683 Y104.179 E42.34219
G1 X136.317 Y103.93 E42.36484
G1 X136.976 Y103.757 E42.3875
G1 X137.65 Y103.663 E42.41014
G1 X138.117 Y103.644 E42.42568
G1 X161.883 Y103.644 E43.21614
G1 X162.563 Y103.684 E43.2388
G1 X163.233 Y103.803 E43.26143
G1 X163.885 Y104 E43.28409
G1 X164.509 Y104.272 E43.30673
G1 X165.097 Y104.616 E43.32938
G1 X165.641 Y105.026 E43.35204
G1 X165.984 Y105.343 E43.36757
G1 X166.101 Y105.46 E43.37308
G1 X166.554 Y105.969 E43.39574
G1 X166.943 Y106.527 E43.41836
