;FLAVOR:Marlin
;TIME:13873
;Filament used: 9.47228m
;Layer height: 0.2
;MINX:69.144
;MINY:97.752
;MINZ:0.2
;MAXX:165.856
;MAXY:137.352
;MAXZ:41
;Generated with Cura_SteamEngine 4.9.0
M140 S50
M105
M190 S50
M104 S200
M105
M109 S200
M82 ;absolute extrusion mode
; Ender 3 Custom Start G-code
G92 E0 ; Reset Extruder
G28 ; Home all axes
G1 Z2.0 F3000 ; Move Z Axis up little to prevent scratching of Heat Bed
G1 X0.1 Y20 Z0.3 F5000.0 ; Move to start position
G1 X0.1 Y200.0 Z0.3 F1500.0 E15 ; Draw the first line
G1 X0.4 Y200.0 Z0.3 F5000.0 ; Move to side a little
G1 X0.4 Y20 Z0.3 F1500.0 E30 ; Draw the second line
G92 E0 ; Reset Extruder
G1 Z2.0 F3000 ; Move Z Axis up little to prevent scratching of Heat Bed
G1 X5 Y20 Z0.3 F5000.0 ; Move over to prevent blob squish
G92 E0
G92 E0
G1 F2700 E-5
;LAYER_COUNT:205
;LAYER:0
M107
G0 F6000 X72.768 Y99.04 Z0.2
;TYPE:SKIRT
G1 F2700 E0
G1 F1200 X73.448 Y98.639 E0.02626
G1 X74.166 Y98.309 E0.05254
G1 X74.913 Y98.054 E0.07879
G1 X75.682 Y97.875 E0.10505
G1 X76.466 Y97.775 E0.13134
G1 X77.061 Y97.752 E0.15114
G1 X110.803 Y97.752 E1.27341
G1 X111.592 Y97.792 E1.29968
G1 X112.372 Y97.911 E1.32593
G1 X113.137 Y98.109 E1.35221
G1 X113.545 Y98.26 E1.36668
G1 X121.432 Y98.261 E1.629
G1 X121.483 Y98.239 E1.63085
G1 X122.236 Y98.002 E1.65711
G1 X123.01 Y97.843 E1.68339
G1 X123.795 Y97.762 E1.70963
G1 X124.197 Y97.752 E1.72301
G1 X157.939 Y97.752 E2.84527
G1 X158.728 Y97.792 E2.87155
G1 X159.508 Y97.911 E2.89779
G1 X160.273 Y98.109 E2.92407
G1 X161.013 Y98.383 E2.95032
G1 X161.722 Y98.731 E2.97659
G1 X162.393 Y99.149 E3.00288
G1 X163.017 Y99.632 E3.02913
G1 X163.454 Y100.037 E3.04894
G1 X163.571 Y100.154 E3.05445
G1 X164.101 Y100.74 E3.08073
G1 X164.568 Y101.376 E3.10697
G1 X164.969 Y102.056 E3.13323
G1 X165.299 Y102.774 E3.15951
G1 X165.554 Y103.521 E3.18576
G1 X165.733 Y104.29 E3.21202
G1 X165.833 Y105.074 E3.23831
G1 X165.856 Y105.669 E3.25812
G1 X165.856 Y129.435 E4.04858
G1 X165.816 Y130.224 E4.07485
G1 X165.697 Y131.004 E4.10109
G1 X165.499 Y131.769 E4.12738
G1 X165.225 Y132.509 E4.15362
G1 X164.877 Y133.218 E4.17989
G1 X164.459 Y133.889 E4.20618
G1 X163.976 Y134.513 E4.23243
G1 X163.571 Y134.95 E4.25225
G1 X163.454 Y135.067 E4.25775
G1 X162.868 Y135.597 E4.28403
G1 X162.232 Y136.064 E4.31027
G1 X161.552 Y136.465 E4.33653
G1 X160.834 Y136.795 E4.36281
G1 X160.087 Y137.05 E4.38907
G1 X159.318 Y137.229 E4.41533
G1 X158.534 Y137.329 E4.44161
G1 X157.939 Y137.352 E4.46142
G1 X139.259 Y137.352 E5.08272
G1 X138.47 Y137.312 E5.10899
G1 X137.992 Y137.239 E5.12508
G1 X137.287 Y137.329 E5.14871
G1 X136.692 Y137.352 E5.16852
G1 X134.792 Y137.352 E5.23171
G1 X134.395 Y137.332 E5.24493
G1 X133.875 Y137.352 E5.26224
G1 X101.125 Y137.352 E6.35151
G1 X100.715 Y137.331 E6.36517
G1 X100.61 Y137.342 E6.36868
G1 X100.208 Y137.352 E6.38205
G1 X98.308 Y137.352 E6.44525
G1 X97.519 Y137.312 E6.47152
G1 X97.031 Y137.238 E6.48794
G1 X96.438 Y137.321 E6.50786
G1 X95.741 Y137.352 E6.53106
G1 X77.061 Y137.352 E7.15236
G1 X76.272 Y137.312 E7.17864
G1 X75.492 Y137.193 E7.20488
G1 X74.727 Y136.995 E7.23116
G1 X73.987 Y136.721 E7.25741
G1 X73.278 Y136.373 E7.28368
G1 X72.607 Y135.955 E7.30997
G1 X71.983 Y135.472 E7.33621
G1 X71.546 Y135.067 E7.35603
G1 X71.429 Y134.95 E7.36153
G1 X70.899 Y134.364 E7.38781
G1 X70.432 Y133.728 E7.41406
G1 X70.031 Y133.048 E7.44031
G1 X69.701 Y132.33 E7.4666
G1 X69.446 Y131.583 E7.49285
G1 X69.267 Y130.814 E7.51911
G1 X69.167 Y130.03 E7.5454
G1 X69.144 Y129.435 E7.5652
G1 X69.144 Y105.669 E8.35566
G1 X69.184 Y104.88 E8.38194
G1 X69.303 Y104.1 E8.40818
G1 X69.501 Y103.335 E8.43446
G1 X69.775 Y102.595 E8.46071
G1 X70.123 Y101.886 E8.48698
G1 X70.541 Y101.215 E8.51327
G1 X71.024 Y100.591 E8.53952
G1 X71.429 Y100.154 E8.55933
G1 X71.546 Y100.037 E8.56484
G1 X72.132 Y99.507 E8.59112
G1 X72.768 Y99.04 E8.61736
G0 F6000 X73.022 Y99.352
G1 F1200 X73.687 Y98.966 E8.64293
G1 X74.389 Y98.651 E8.66853
G1 X75.12 Y98.411 E8.69412
G1 X75.871 Y98.248 E8.71968
G1 X76.636 Y98.164 E8.74527
G1 X77.061 Y98.152 E8.75941
G1 X110.803 Y98.152 E9.88168
G1 X111.571 Y98.192 E9.90726
G1 X112.331 Y98.311 E9.93284
G1 X113.074 Y98.509 E9.95842
G1 X113.471 Y98.66 E9.97254
G1 X121.528 Y98.661 E10.24052
G1 X121.848 Y98.535 E10.25196
G1 X122.59 Y98.329 E10.27757
G1 X123.348 Y98.201 E10.30314
G1 X124.197 Y98.152 E10.33142
G1 X157.939 Y98.152 E11.45369
G1 X158.707 Y98.192 E11.47927
G1 X159.467 Y98.311 E11.50485
G1 X160.21 Y98.509 E11.53043
G1 X160.929 Y98.783 E11.55602
G1 X161.615 Y99.13 E11.58159
G1 X162.262 Y99.546 E11.60717
G1 X162.862 Y100.027 E11.63275
G1 X163.172 Y100.319 E11.64691
G1 X163.289 Y100.436 E11.65242
G1 X163.803 Y101.008 E11.67799
G1 X164.256 Y101.63 E11.70359
G1 X164.642 Y102.295 E11.72916
G1 X164.957 Y102.997 E11.75475
G1 X165.197 Y103.728 E11.78034
G1 X165.36 Y104.479 E11.8059
G1 X165.444 Y105.244 E11.8315
G1 X165.456 Y105.669 E11.84564
G1 X165.456 Y129.435 E12.6361
G1 X165.416 Y130.203 E12.66168
G1 X165.297 Y130.963 E12.68726
G1 X165.099 Y131.706 E12.71284
G1 X164.825 Y132.425 E12.73843
G1 X164.478 Y133.111 E12.764
G1 X164.062 Y133.758 E12.78958
G1 X163.581 Y134.358 E12.81516
G1 X163.289 Y134.668 E12.82933
G1 X163.172 Y134.785 E12.83483
G1 X162.6 Y135.299 E12.86041
G1 X161.978 Y135.752 E12.886
G1 X161.313 Y136.138 E12.91157
G1 X160.611 Y136.453 E12.93716
G1 X159.88 Y136.693 E12.96275
G1 X159.129 Y136.856 E12.98831
G1 X158.364 Y136.94 E13.01391
G1 X157.939 Y136.952 E13.02805
G1 X139.259 Y136.952 E13.64935
G1 X138.491 Y136.912 E13.67493
G1 X137.987 Y136.833 E13.6919
G1 X137.882 Y136.856 E13.69547
G1 X137.117 Y136.94 E13.72107
G1 X136.692 Y136.952 E13.73521
G1 X134.792 Y136.952 E13.79841
G1 X134.384 Y136.931 E13.81199
G1 X134.3 Y136.94 E13.8148
G1 X133.875 Y136.952 E13.82895
G1 X101.125 Y136.952 E14.91821
G1 X100.643 Y136.927 E14.93427
G1 X100.208 Y136.952 E14.94876
G1 X98.308 Y136.952 E15.01195
G1 X97.54 Y136.912 E15.03753
G1 X97.04 Y136.834 E15.05436
G1 X96.342 Y136.928 E15.07779
G1 X95.741 Y136.952 E15.09779
G1 X77.061 Y136.952 E15.71909
G1 X76.293 Y136.912 E15.74467
G1 X75.533 Y136.793 E15.77026
G1 X74.79 Y136.595 E15.79583
G1 X74.071 Y136.321 E15.82142
G1 X73.385 Y135.974 E15.84699
G1 X72.738 Y135.558 E15.87258
G1 X72.138 Y135.077 E15.89815
G1 X71.828 Y134.785 E15.91232
G1 X71.711 Y134.668 E15.91782
G1 X71.197 Y134.096 E15.9434
G1 X70.744 Y133.474 E15.96899
G1 X70.358 Y132.809 E15.99457
G1 X70.043 Y132.107 E16.02016
G1 X69.803 Y131.376 E16.04575
G1 X69.64 Y130.625 E16.07131
G1 X69.556 Y129.86 E16.0969
G1 X69.544 Y129.435 E16.11105
G1 X69.544 Y105.669 E16.90151
G1 X69.584 Y104.901 E16.92708
G1 X69.703 Y104.141 E16.95267
G1 X69.901 Y103.398 E16.97824
G1 X70.175 Y102.679 E17.00384
G1 X70.522 Y101.993 E17.02941
G1 X70.938 Y101.346 E17.05499
G1 X71.419 Y100.746 E17.08057
G1 X71.711 Y100.436 E17.09473
G1 X71.828 Y100.319 E17.10023
G1 X72.4 Y99.805 E17.12581
G1 X73.022 Y99.352 E17.1514
G0 F6000 X73.274 Y99.665
G1 F1200 X73.924 Y99.294 E17.1763
G1 X74.61 Y98.995 E17.20119
G1 X75.324 Y98.771 E17.22608
G1 X76.057 Y98.624 E17.25094
G1 X77.061 Y98.552 E17.28442
G1 X110.803 Y98.552 E18.40668
G1 X111.55 Y98.592 E18.43156
G1 X112.288 Y98.711 E18.45643
G1 X113.01 Y98.909 E18.48133
G1 X113.395 Y99.06 E18.49508
G1 X121.587 Y99.061 E18.76755
G1 X122.21 Y98.84 E18.78954
G1 X122.938 Y98.666 E18.81443
G1 X123.68 Y98.571 E18.83931
G1 X124.197 Y98.552 E18.85652
G1 X157.939 Y98.552 E19.97878
G1 X158.686 Y98.592 E20.00366
G1 X159.424 Y98.711 E20.02853
G1 X160.146 Y98.909 E20.05343
G1 X160.842 Y99.182 E20.07829
G1 X161.505 Y99.529 E20.10318
G1 X162.128 Y99.944 E20.12808
G1 X162.889 Y100.602 E20.16154
G1 X163.006 Y100.719 E20.16704
G1 X163.506 Y101.276 E20.19194
G1 X163.943 Y101.882 E20.21679
G1 X164.314 Y102.532 E20.24168
G1 X164.613 Y103.218 E20.26657
G1 X164.837 Y103.932 E20.29146
G1 X164.984 Y104.665 E20.31632
G1 X165.056 Y105.669 E20.3498
G1 X165.056 Y129.435 E21.14026
G1 X165.016 Y130.182 E21.16514
G1 X164.897 Y130.92 E21.19001
G1 X164.699 Y131.642 E21.21491
G1 X164.426 Y132.338 E21.23977
G1 X164.079 Y133.001 E21.26466
G1 X163.664 Y133.624 E21.28956
G1 X163.006 Y134.385 E21.32302
G1 X162.889 Y134.502 E21.32852
G1 X162.332 Y135.002 E21.35342
G1 X161.726 Y135.439 E21.37827
G1 X161.076 Y135.81 E21.40316
G1 X160.39 Y136.109 E21.42805
G1 X159.676 Y136.333 E21.45294
G1 X158.943 Y136.48 E21.47781
G1 X157.939 Y136.552 E21.51128
G1 X139.259 Y136.552 E22.13258
G1 X138.512 Y136.512 E22.15746
G1 X137.971 Y136.425 E22.17569
G1 X137.696 Y136.48 E22.18502
G1 X136.692 Y136.552 E22.2185
G1 X134.792 Y136.552 E22.28169
G1 X134.267 Y136.524 E22.29918
G1 X133.875 Y136.552 E22.31225
G1 X101.125 Y136.552 E23.40152
G1 X100.738 Y136.531 E23.41441
G1 X100.725 Y136.533 E23.41485
G1 X100.208 Y136.552 E23.43205
G1 X98.308 Y136.552 E23.49525
G1 X97.561 Y136.512 E23.52013
G1 X97.041 Y136.428 E23.53765
G1 X96.991 Y136.44 E23.53936
G1 X96.249 Y136.534 E23.56423
G1 X95.741 Y136.552 E23.58114
G1 X77.061 Y136.552 E24.20244
G1 X76.314 Y136.512 E24.22732
G1 X75.576 Y136.393 E24.25218
G1 X74.854 Y136.195 E24.27708
G1 X74.158 Y135.922 E24.30195
G1 X73.495 Y135.575 E24.32684
G1 X72.872 Y135.16 E24.35174
G1 X72.111 Y134.502 E24.3852
G1 X71.994 Y134.385 E24.3907
G1 X71.494 Y133.828 E24.4156
G1 X71.057 Y133.222 E24.44045
G1 X70.686 Y132.572 E24.46534
G1 X70.387 Y131.886 E24.49023
G1 X70.163 Y131.172 E24.51512
G1 X70.016 Y130.439 E24.53998
G1 X69.944 Y129.435 E24.57346
G1 X69.944 Y105.669 E25.36392
G1 X69.984 Y104.922 E25.3888
G1 X70.103 Y104.184 E25.41367
G1 X70.301 Y103.462 E25.43857
G1 X70.574 Y102.766 E25.46343
G1 X70.921 Y102.103 E25.48832
G1 X71.336 Y101.48 E25.51322
G1 X71.994 Y100.719 E25.54668
G1 X72.111 Y100.602 E25.55218
G1 X72.668 Y100.102 E25.57708
G1 X73.274 Y99.665 E25.60193
G0 F6000 X73.526 Y99.978
G1 F1200 X74.16 Y99.624 E25.62608
G1 X74.829 Y99.341 E25.65024
G1 X75.525 Y99.133 E25.6744
G1 X76.24 Y99.003 E25.69857
G1 X77.061 Y98.952 E25.72593
G1 X110.803 Y98.952 E26.84819
G1 X111.528 Y98.992 E26.87234
G1 X112.245 Y99.111 E26.89652
G1 X112.944 Y99.309 E26.92068
G1 X113.317 Y99.46 E26.93406
G1 X121.678 Y99.461 E27.21215
G1 X121.875 Y99.374 E27.21931
G1 X122.568 Y99.156 E27.24348
G1 X123.28 Y99.016 E27.26761
G1 X124.197 Y98.952 E27.29819
G1 X157.939 Y98.952 E28.42045
G1 X158.664 Y98.992 E28.4446
G1 X159.381 Y99.111 E28.46877
G1 X160.08 Y99.309 E28.49294
G1 X160.753 Y99.582 E28.51709
G1 X161.392 Y99.927 E28.54125
G1 X161.989 Y100.341 E28.56541
G1 X162.606 Y100.885 E28.59277
G1 X162.723 Y101.002 E28.59827
G1 X163.207 Y101.543 E28.62242
G1 X163.63 Y102.134 E28.64659
G1 X163.984 Y102.768 E28.67074
G1 X164.267 Y103.437 E28.6949
G1 X164.475 Y104.133 E28.71906
G1 X164.605 Y104.848 E28.74323
G1 X164.656 Y105.669 E28.77059
G1 X164.656 Y129.435 E29.56105
G1 X164.616 Y130.16 E29.5852
G1 X164.497 Y130.877 E29.60937
G1 X164.299 Y131.576 E29.63354
G1 X164.026 Y132.249 E29.65769
G1 X163.681 Y132.888 E29.68185
G1 X163.267 Y133.485 E29.70601
G1 X162.723 Y134.102 E29.73337
G1 X162.606 Y134.219 E29.73887
G1 X162.065 Y134.703 E29.76302
G1 X161.474 Y135.126 E29.78719
G1 X160.84 Y135.48 E29.81134
G1 X160.171 Y135.763 E29.8355
G1 X159.475 Y135.971 E29.85966
G1 X158.76 Y136.101 E29.88383
G1 X157.939 Y136.152 E29.91119
G1 X139.259 Y136.152 E30.53249
G1 X138.534 Y136.112 E30.55664
G1 X137.969 Y136.018 E30.57569
G1 X137.513 Y136.101 E30.59111
G1 X136.692 Y136.152 E30.61847
G1 X134.792 Y136.152 E30.68166
G1 X134.306 Y136.125 E30.69785
G1 X133.875 Y136.152 E30.71221
G1 X101.125 Y136.152 E31.80148
G1 X100.613 Y136.124 E31.81854
G1 X100.208 Y136.152 E31.83204
G1 X98.308 Y136.152 E31.89523
G1 X97.583 Y136.112 E31.91938
G1 X97.024 Y136.019 E31.93823
G1 X96.878 Y136.053 E31.94322
G1 X96.156 Y136.139 E31.9674
G1 X95.741 Y136.152 E31.98121
G1 X77.061 Y136.152 E32.60251
G1 X76.336 Y136.112 E32.62666
G1 X75.619 Y135.993 E32.65083
G1 X74.92 Y135.795 E32.675
G1 X74.247 Y135.522 E32.69915
G1 X73.608 Y135.177 E32.72331
G1 X73.011 Y134.763 E32.74747
G1 X72.394 Y134.219 E32.77483
G1 X72.277 Y134.102 E32.78033
G1 X71.793 Y133.561 E32.80448
G1 X71.37 Y132.97 E32.82865
G1 X71.016 Y132.336 E32.8528
G1 X70.733 Y131.667 E32.87696
G1 X70.525 Y130.971 E32.90112
G1 X70.395 Y130.256 E32.92529
G1 X70.344 Y129.435 E32.95265
G1 X70.344 Y105.669 E33.74311
G1 X70.384 Y104.944 E33.76726
G1 X70.503 Y104.227 E33.79144
G1 X70.701 Y103.528 E33.8156
G1 X70.974 Y102.855 E33.83975
G1 X71.319 Y102.216 E33.86391
G1 X71.733 Y101.619 E33.88807
G1 X72.277 Y101.002 E33.91543
G1 X72.394 Y100.885 E33.92093
G1 X72.935 Y100.401 E33.94508
G1 X73.526 Y99.978 E33.96925
G0 F6000 X73.777 Y100.293
G1 F1200 X74.395 Y99.955 E33.99268
G1 X75.046 Y99.688 E34.01608
G1 X75.724 Y99.498 E34.0395
G1 X76.419 Y99.385 E34.06292
G1 X77.061 Y99.352 E34.0843
G1 X110.803 Y99.352 E35.20656
G1 X111.506 Y99.392 E35.22998
G1 X112.2 Y99.511 E35.2534
G1 X112.875 Y99.709 E35.2768
G1 X113.236 Y99.86 E35.28981
G1 X121.757 Y99.861 E35.57322
G1 X122.24 Y99.669 E35.59051
G1 X122.92 Y99.485 E35.61394
G1 X123.616 Y99.379 E35.63736
G1 X124.197 Y99.352 E35.6567
G1 X157.939 Y99.352 E36.77897
G1 X158.642 Y99.392 E36.80239
G1 X159.336 Y99.511 E36.82581
G1 X160.011 Y99.709 E36.8492
G1 X160.66 Y99.981 E36.87261
G1 X161.274 Y100.326 E36.89603
G1 X161.845 Y100.737 E36.91943
G1 X162.323 Y101.168 E36.94084
G1 X162.44 Y101.285 E36.94634
G1 X162.909 Y101.81 E36.96976
G1 X163.315 Y102.385 E36.99317
G1 X163.653 Y103.003 E37.0166
G1 X163.92 Y103.654 E37.04
G1 X164.11 Y104.332 E37.06342
G1 X164.223 Y105.027 E37.08684
G1 X164.256 Y105.669 E37.10822
G1 X164.256 Y129.435 E37.89868
G1 X164.216 Y130.138 E37.9221
G1 X164.097 Y130.832 E37.94552
G1 X163.899 Y131.507 E37.96891
G1 X163.627 Y132.156 E37.99232
G1 X163.282 Y132.77 E38.01574
G1 X162.871 Y133.341 E38.03914
G1 X162.44 Y133.819 E38.06055
G1 X162.323 Y133.936 E38.06605
G1 X161.798 Y134.405 E38.08947
G1 X161.223 Y134.811 E38.11288
G1 X160.605 Y135.149 E38.13631
G1 X159.954 Y135.416 E38.15971
G1 X159.276 Y135.606 E38.18313
G1 X158.581 Y135.719 E38.20655
G1 X157.939 Y135.752 E38.22793
G1 X139.259 Y135.752 E38.84923
G1 X138.556 Y135.712 E38.87265
G1 X137.982 Y135.614 E38.89202
G1 X137.334 Y135.719 E38.91385
G1 X136.692 Y135.752 E38.93523
G1 X134.792 Y135.752 E38.99843
G1 X134.357 Y135.727 E39.01292
G1 X133.875 Y135.752 E39.02897
G1 X101.125 Y135.752 E40.11824
G1 X100.713 Y135.729 E40.13196
G1 X100.208 Y135.752 E40.14878
G1 X98.308 Y135.752 E40.21197
G1 X97.605 Y135.712 E40.23539
G1 X97.014 Y135.611 E40.25533
G1 X96.766 Y135.667 E40.26379
G1 X95.741 Y135.752 E40.298
G1 X77.061 Y135.752 E40.9193
G1 X76.358 Y135.712 E40.94272
G1 X75.664 Y135.593 E40.96614
G1 X74.989 Y135.395 E40.98953
G1 X74.34 Y135.123 E41.01294
G1 X73.726 Y134.778 E41.03636
G1 X73.155 Y134.367 E41.05976
G1 X72.677 Y133.936 E41.08117
G1 X72.56 Y133.819 E41.08667
G1 X72.091 Y133.294 E41.11009
G1 X71.685 Y132.719 E41.1335
G1 X71.347 Y132.101 E41.15693
G1 X71.08 Y131.45 E41.18033
G1 X70.89 Y130.772 E41.20375
G1 X70.777 Y130.077 E41.22717
G1 X70.744 Y129.435 E41.24855
G1 X70.744 Y105.669 E42.03901
G1 X70.784 Y104.966 E42.06243
G1 X70.903 Y104.272 E42.08585
G1 X71.101 Y103.597 E42.10925
G1 X71.373 Y102.948 E42.13265
G1 X71.718 Y102.334 E42.15608
G1 X72.129 Y101.763 E42.17947
G1 X72.56 Y101.285 E42.20088
G1 X72.677 Y101.168 E42.20638
G1 X73.202 Y100.699 E42.2298
G1 X73.777 Y100.293 E42.25321
G0 F6000 X74.027 Y100.609
G1 F1200 X74.627 Y100.287 E42.27586
G1 X75.261 Y100.038 E42.29851
G1 X75.92 Y99.865 E42.32118
G1 X76.594 Y99.771 E42.34381
G1 X77.061 Y99.752 E42.35935
G1 X110.803 Y99.752 E43.48162
G1 X111.483 Y99.792 E43.50427
G1 X112.153 Y99.911 E43.52691
G1 X112.805 Y100.108 E43.54956
G1 X113.154 Y100.26 E43.56222
G1 X121.837 Y100.261 E43.85102
G1 X121.959 Y100.201 E43.85554
G1 X122.601 Y99.976 E43.87817
G1 X123.266 Y99.827 E43.90083
G1 X124.197 Y99.752 E43.9319
G1 X157.939 Y99.752 E45.05416
G1 X158.619 Y99.792 E45.07682
G1 X159.289 Y99.911 E45.09945
G1 X159.941 Y100.108 E45.12211
G1 X160.565 Y100.38 E45.14475
G1 X161.153 Y100.724 E45.1674
G1 X161.697 Y101.134 E45.19006
G1 X162.04 Y101.451 E45.2056
G1 X162.157 Y101.568 E45.2111
G1 X162.61 Y102.077 E45.23376
G1 X162.999 Y102.635 E45.25639
G1 X163.321 Y103.235 E45.27903
G1 X163.57 Y103.869 E45.30169
