;FLAVOR:Marlin
;TIME:13595
;Filament used: 9.28496m
;Layer height: 0.2
;MINX:97.7
;MINY:69.144
;MINZ:0.2
;MAXX:137.3
;MAXY:165.856
;MAXZ:41
;Generated with Cura_SteamEngine 4.9.0
M140 S50
M105
M190 S50
M104 S200
M105
M109 S200
M82 ;absolute extrusion mode
; Ender 3 Custom Start G-code
G92 E0 ; Reset Extruder
G28 ; Home all axes
G1 Z2.0 F3000 ; Move Z Axis up little to prevent scratching of Heat Bed
G1 X0.1 Y20 Z0.3 F5000.0 ; Move to start position
G1 X0.1 Y200.0 Z0.3 F1500.0 E15 ; Draw the first line
G1 X0.4 Y200.0 Z0.3 F5000.0 ; Move to side a little
G1 X0.4 Y20 Z0.3 F1500.0 E30 ; Draw the second line
G92 E0 ; Reset Extruder
G1 Z2.0 F3000 ; Move Z Axis up little to prevent scratching of Heat Bed
G1 X5 Y20 Z0.3 F5000.0 ; Move over to prevent blob squish
G92 E0
G92 E0
G1 F2700 E-5
;LAYER_COUNT:205
;LAYER:0
M107
G0 F6000 X99.097 Y72.607 Z0.2
;TYPE:SKIRT
G1 F2700 E0
G1 F1200 X99.58 Y71.983 E0.02625
G1 X99.985 Y71.546 E0.04606
G1 X100.102 Y71.429 E0.05157
G1 X100.688 Y70.899 E0.07785
G1 X101.324 Y70.432 E0.10409
G1 X102.004 Y70.031 E0.13035
G1 X102.722 Y69.701 E0.15663
G1 X103.469 Y69.446 E0.18288
G1 X104.238 Y69.267 E0.20914
G1 X105.022 Y69.167 E0.23543
G1 X105.617 Y69.144 E0.25523
G1 X129.383 Y69.144 E1.04569
G1 X130.172 Y69.184 E1.07197
G1 X130.952 Y69.303 E1.09821
G1 X131.717 Y69.501 E1.1245
G1 X132.457 Y69.775 E1.15074
G1 X133.166 Y70.123 E1.17701
G1 X133.837 Y70.541 E1.2033
G1 X134.461 Y71.024 E1.22955
G1 X134.898 Y71.429 E1.24937
G1 X135.015 Y71.546 E1.25487
G1 X135.545 Y72.132 E1.28115
G1 X136.012 Y72.768 E1.30739
G1 X136.413 Y73.448 E1.33365
G1 X136.743 Y74.166 E1.35993
G1 X136.998 Y74.913 E1.38618
G1 X137.177 Y75.682 E1.41244
G1 X137.277 Y76.466 E1.43873
G1 X137.3 Y77.061 E1.45854
G1 X137.3 Y95.741 E2.07984
G1 X137.26 Y96.53 E2.10611
G1 X137.187 Y97.008 E2.12219
G1 X137.277 Y97.713 E2.14583
G1 X137.3 Y98.308 E2.16564
G1 X137.3 Y100.208 E2.22883
G1 X137.28 Y100.605 E2.24205
G1 X137.3 Y101.125 E2.25936
G1 X137.3 Y133.875 E3.34863
G1 X137.279 Y134.285 E3.36228
G1 X137.29 Y134.39 E3.3658
G1 X137.3 Y134.792 E3.37917
G1 X137.3 Y136.692 E3.44237
G1 X137.26 Y137.481 E3.46864
G1 X137.186 Y137.969 E3.48506
G1 X137.269 Y138.562 E3.50497
G1 X137.3 Y139.259 E3.52818
G1 X137.3 Y157.939 E4.14948
G1 X137.26 Y158.728 E4.17575
G1 X137.141 Y159.508 E4.202
G1 X136.943 Y160.273 E4.22828
G1 X136.669 Y161.013 E4.25452
G1 X136.321 Y161.722 E4.28079
G1 X135.903 Y162.393 E4.30709
G1 X135.42 Y163.017 E4.33333
G1 X135.015 Y163.454 E4.35315
G1 X134.898 Y163.571 E4.35865
G1 X134.312 Y164.101 E4.38493
G1 X133.676 Y164.568 E4.41118
G1 X132.996 Y164.969 E4.43743
G1 X132.278 Y165.299 E4.46371
G1 X131.531 Y165.554 E4.48997
G1 X130.762 Y165.733 E4.51623
G1 X129.978 Y165.833 E4.54252
G1 X129.383 Y165.856 E4.56232
G1 X105.617 Y165.856 E5.35278
G1 X104.828 Y165.816 E5.37906
G1 X104.048 Y165.697 E5.4053
G1 X103.283 Y165.499 E5.43158
G1 X102.543 Y165.225 E5.45783
G1 X101.834 Y164.877 E5.4841
G1 X101.163 Y164.459 E5.51039
G1 X100.539 Y163.976 E5.53664
G1 X100.102 Y163.571 E5.55645
G1 X99.985 Y163.454 E5.56196
G1 X99.455 Y162.868 E5.58824
G1 X98.988 Y162.232 E5.61448
G1 X98.587 Y161.552 E5.64074
G1 X98.257 Y160.834 E5.66702
G1 X98.002 Y160.087 E5.69327
G1 X97.823 Y159.318 E5.71953
G1 X97.723 Y158.534 E5.74582
G1 X97.7 Y157.939 E5.76562
G1 X97.7 Y124.197 E6.88789
G1 X97.74 Y123.408 E6.91416
G1 X97.859 Y122.628 E6.94041
G1 X98.057 Y121.863 E6.96669
G1 X98.208 Y121.455 E6.98116
G1 X98.209 Y113.567 E7.24351
G1 X98.187 Y113.517 E7.24533
G1 X97.95 Y112.764 E7.27159
G1 X97.791 Y111.99 E7.29787
G1 X97.71 Y111.205 E7.32412
G1 X97.7 Y110.803 E7.33749
G1 X97.7 Y77.061 E8.45975
G1 X97.74 Y76.272 E8.48603
G1 X97.859 Y75.492 E8.51227
G1 X98.057 Y74.727 E8.53856
G1 X98.331 Y73.987 E8.5648
G1 X98.679 Y73.278 E8.59107
G1 X99.097 Y72.607 E8.61736
G0 F6000 X99.494 Y72.738
G1 F1200 X99.975 Y72.138 E8.64294
G1 X100.267 Y71.828 E8.65711
G1 X100.384 Y71.711 E8.66261
G1 X100.956 Y71.197 E8.68819
G1 X101.578 Y70.744 E8.71378
G1 X102.243 Y70.358 E8.73935
G1 X102.945 Y70.043 E8.76494
G1 X103.676 Y69.803 E8.79053
G1 X104.427 Y69.64 E8.81609
G1 X105.192 Y69.556 E8.84169
G1 X105.617 Y69.544 E8.85583
G1 X129.383 Y69.544 E9.64629
G1 X130.151 Y69.584 E9.67187
G1 X130.911 Y69.703 E9.69746
G1 X131.654 Y69.901 E9.72303
G1 X132.373 Y70.175 E9.74862
G1 X133.059 Y70.522 E9.77419
G1 X133.706 Y70.938 E9.79978
G1 X134.306 Y71.419 E9.82535
G1 X134.616 Y71.711 E9.83952
G1 X134.733 Y71.828 E9.84502
G1 X135.247 Y72.4 E9.8706
G1 X135.7 Y73.022 E9.89619
G1 X136.086 Y73.687 E9.92177
G1 X136.401 Y74.389 E9.94736
G1 X136.641 Y75.12 E9.97295
G1 X136.804 Y75.871 E9.99851
G1 X136.888 Y76.636 E10.0241
G1 X136.9 Y77.061 E10.03824
G1 X136.9 Y95.741 E10.65954
G1 X136.86 Y96.509 E10.68512
G1 X136.781 Y97.013 E10.70209
G1 X136.804 Y97.118 E10.70567
G1 X136.888 Y97.883 E10.73126
G1 X136.9 Y98.308 E10.7454
G1 X136.9 Y100.208 E10.8086
G1 X136.879 Y100.616 E10.82219
G1 X136.888 Y100.7 E10.825
G1 X136.9 Y101.125 E10.83914
G1 X136.9 Y133.875 E11.92841
G1 X136.875 Y134.357 E11.94446
G1 X136.9 Y134.792 E11.95895
G1 X136.9 Y136.692 E12.02215
G1 X136.86 Y137.46 E12.04772
G1 X136.782 Y137.96 E12.06456
G1 X136.876 Y138.658 E12.08798
G1 X136.9 Y139.259 E12.10799
G1 X136.9 Y157.939 E12.72929
G1 X136.86 Y158.707 E12.75486
G1 X136.741 Y159.467 E12.78045
G1 X136.543 Y160.21 E12.80602
G1 X136.269 Y160.929 E12.83162
G1 X135.922 Y161.615 E12.85718
G1 X135.506 Y162.262 E12.88277
G1 X135.025 Y162.862 E12.90835
G1 X134.733 Y163.172 E12.92251
G1 X134.616 Y163.289 E12.92801
G1 X134.044 Y163.803 E12.95359
G1 X133.422 Y164.256 E12.97918
G1 X132.757 Y164.642 E13.00476
G1 X132.055 Y164.957 E13.03035
G1 X131.324 Y165.197 E13.05594
G1 X130.573 Y165.36 E13.0815
G1 X129.808 Y165.444 E13.1071
G1 X129.383 Y165.456 E13.12124
G1 X105.617 Y165.456 E13.9117
G1 X104.849 Y165.416 E13.93728
G1 X104.089 Y165.297 E13.96286
G1 X103.346 Y165.099 E13.98844
G1 X102.627 Y164.825 E14.01403
G1 X101.941 Y164.478 E14.0396
G1 X101.294 Y164.062 E14.06518
G1 X100.694 Y163.581 E14.09076
G1 X100.384 Y163.289 E14.10492
G1 X100.267 Y163.172 E14.11043
G1 X99.753 Y162.6 E14.136
G1 X99.3 Y161.978 E14.1616
G1 X98.914 Y161.313 E14.18717
G1 X98.599 Y160.611 E14.21276
G1 X98.359 Y159.88 E14.23835
G1 X98.196 Y159.129 E14.26391
G1 X98.112 Y158.364 E14.28951
G1 X98.1 Y157.939 E14.30365
G1 X98.1 Y124.197 E15.42591
G1 X98.14 Y123.429 E15.45149
G1 X98.259 Y122.669 E15.47708
G1 X98.457 Y121.926 E15.50265
G1 X98.608 Y121.529 E15.51678
G1 X98.609 Y113.472 E15.78476
G1 X98.483 Y113.152 E15.79619
G1 X98.277 Y112.41 E15.82181
G1 X98.149 Y111.652 E15.84738
G1 X98.1 Y110.803 E15.87566
G1 X98.1 Y77.061 E16.99792
G1 X98.14 Y76.293 E17.0235
G1 X98.259 Y75.533 E17.04909
G1 X98.457 Y74.79 E17.07466
G1 X98.731 Y74.071 E17.10025
G1 X99.078 Y73.385 E17.12582
G1 X99.494 Y72.738 E17.15141
G0 F6000 X99.892 Y72.872
G1 F1200 X100.55 Y72.111 E17.18487
G1 X100.667 Y71.994 E17.19037
G1 X101.224 Y71.494 E17.21527
G1 X101.83 Y71.057 E17.24012
G1 X102.48 Y70.686 E17.26501
G1 X103.166 Y70.387 E17.2899
G1 X103.88 Y70.163 E17.31479
G1 X104.613 Y70.016 E17.33965
G1 X105.617 Y69.944 E17.37313
G1 X129.383 Y69.944 E18.16359
G1 X130.13 Y69.984 E18.18847
G1 X130.868 Y70.103 E18.21334
G1 X131.59 Y70.301 E18.23824
G1 X132.286 Y70.574 E18.2631
G1 X132.949 Y70.921 E18.28799
G1 X133.572 Y71.336 E18.31289
G1 X134.333 Y71.994 E18.34635
G1 X134.45 Y72.111 E18.35185
G1 X134.95 Y72.668 E18.37675
G1 X135.387 Y73.274 E18.4016
G1 X135.758 Y73.924 E18.42649
G1 X136.057 Y74.61 E18.45138
G1 X136.281 Y75.324 E18.47627
G1 X136.428 Y76.057 E18.50113
G1 X136.5 Y77.061 E18.53461
G1 X136.5 Y95.741 E19.15591
G1 X136.46 Y96.488 E19.18079
G1 X136.373 Y97.029 E19.19902
G1 X136.428 Y97.304 E19.20835
G1 X136.5 Y98.308 E19.24182
G1 X136.5 Y100.208 E19.30502
G1 X136.472 Y100.733 E19.3225
G1 X136.5 Y101.125 E19.33558
G1 X136.5 Y133.875 E20.42485
G1 X136.479 Y134.262 E20.43774
G1 X136.481 Y134.275 E20.43817
G1 X136.5 Y134.792 E20.45538
G1 X136.5 Y136.692 E20.51857
G1 X136.46 Y137.439 E20.54346
G1 X136.376 Y137.959 E20.56098
G1 X136.388 Y138.009 E20.56269
G1 X136.482 Y138.751 E20.58756
G1 X136.5 Y139.259 E20.60447
G1 X136.5 Y157.939 E21.22577
G1 X136.46 Y158.686 E21.25065
G1 X136.341 Y159.424 E21.27551
G1 X136.143 Y160.146 E21.30041
G1 X135.87 Y160.842 E21.32528
G1 X135.523 Y161.505 E21.35017
G1 X135.108 Y162.128 E21.37506
G1 X134.45 Y162.889 E21.40853
G1 X134.333 Y163.006 E21.41403
G1 X133.776 Y163.506 E21.43892
G1 X133.17 Y163.943 E21.46377
G1 X132.52 Y164.314 E21.48867
G1 X131.834 Y164.613 E21.51356
G1 X131.12 Y164.837 E21.53844
G1 X130.387 Y164.984 E21.56331
G1 X129.383 Y165.056 E21.59679
G1 X105.617 Y165.056 E22.38725
G1 X104.87 Y165.016 E22.41213
G1 X104.132 Y164.897 E22.43699
G1 X103.41 Y164.699 E22.46189
G1 X102.714 Y164.426 E22.48676
G1 X102.051 Y164.079 E22.51165
G1 X101.428 Y163.664 E22.53655
G1 X100.667 Y163.006 E22.57001
G1 X100.55 Y162.889 E22.57551
G1 X100.05 Y162.332 E22.60041
G1 X99.613 Y161.726 E22.62526
G1 X99.242 Y161.076 E22.65015
G1 X98.943 Y160.39 E22.67504
G1 X98.719 Y159.676 E22.69993
G1 X98.572 Y158.943 E22.72479
G1 X98.5 Y157.939 E22.75827
G1 X98.5 Y124.197 E23.88053
G1 X98.54 Y123.45 E23.90541
G1 X98.659 Y122.712 E23.93028
G1 X98.857 Y121.99 E23.95518
G1 X99.008 Y121.605 E23.96893
G1 X99.009 Y113.413 E24.2414
G1 X98.788 Y112.79 E24.26339
G1 X98.614 Y112.062 E24.28828
G1 X98.519 Y111.32 E24.31316
G1 X98.5 Y110.803 E24.33037
G1 X98.5 Y77.061 E25.45263
G1 X98.54 Y76.314 E25.47751
G1 X98.659 Y75.576 E25.50238
G1 X98.857 Y74.854 E25.52728
G1 X99.13 Y74.158 E25.55214
G1 X99.477 Y73.495 E25.57703
G1 X99.892 Y72.872 E25.60193
G0 F6000 X100.289 Y73.011
G1 F1200 X100.833 Y72.394 E25.62929
G1 X100.95 Y72.277 E25.63479
G1 X101.491 Y71.793 E25.65894
G1 X102.082 Y71.37 E25.68311
G1 X102.716 Y71.016 E25.70726
G1 X103.385 Y70.733 E25.73142
G1 X104.081 Y70.525 E25.75558
G1 X104.796 Y70.395 E25.77975
G1 X105.617 Y70.344 E25.80711
G1 X129.383 Y70.344 E26.59757
G1 X130.108 Y70.384 E26.62172
G1 X130.825 Y70.503 E26.64589
G1 X131.524 Y70.701 E26.67006
G1 X132.197 Y70.974 E26.69421
G1 X132.836 Y71.319 E26.71837
G1 X133.433 Y71.733 E26.74253
G1 X134.05 Y72.277 E26.76989
G1 X134.167 Y72.394 E26.77539
G1 X134.651 Y72.935 E26.79954
G1 X135.074 Y73.526 E26.82371
G1 X135.428 Y74.16 E26.84786
G1 X135.711 Y74.829 E26.87202
G1 X135.919 Y75.525 E26.89618
G1 X136.049 Y76.24 E26.92035
G1 X136.1 Y77.061 E26.94771
G1 X136.1 Y95.741 E27.56901
G1 X136.06 Y96.466 E27.59316
G1 X135.966 Y97.031 E27.61221
G1 X136.049 Y97.487 E27.62763
G1 X136.1 Y98.308 E27.65499
G1 X136.1 Y100.208 E27.71818
G1 X136.073 Y100.694 E27.73437
G1 X136.1 Y101.125 E27.74873
G1 X136.1 Y133.875 E28.838
G1 X136.072 Y134.387 E28.85506
G1 X136.1 Y134.792 E28.86856
G1 X136.1 Y136.692 E28.93175
G1 X136.06 Y137.417 E28.9559
G1 X135.967 Y137.976 E28.97475
G1 X136.001 Y138.122 E28.97974
G1 X136.087 Y138.844 E29.00392
G1 X136.1 Y139.259 E29.01773
G1 X136.1 Y157.939 E29.63903
G1 X136.06 Y158.664 E29.66318
G1 X135.941 Y159.381 E29.68735
G1 X135.743 Y160.08 E29.71152
G1 X135.47 Y160.753 E29.73567
G1 X135.125 Y161.392 E29.75983
G1 X134.711 Y161.989 E29.78399
G1 X134.167 Y162.606 E29.81135
G1 X134.05 Y162.723 E29.81685
G1 X133.509 Y163.207 E29.841
G1 X132.918 Y163.63 E29.86517
G1 X132.284 Y163.984 E29.88932
G1 X131.615 Y164.267 E29.91348
G1 X130.919 Y164.475 E29.93764
G1 X130.204 Y164.605 E29.96181
G1 X129.383 Y164.656 E29.98917
G1 X105.617 Y164.656 E30.77963
G1 X104.892 Y164.616 E30.80378
G1 X104.175 Y164.497 E30.82796
G1 X103.476 Y164.299 E30.85212
G1 X102.803 Y164.026 E30.87627
G1 X102.164 Y163.681 E30.90043
G1 X101.567 Y163.267 E30.92459
G1 X100.95 Y162.723 E30.95195
G1 X100.833 Y162.606 E30.95745
G1 X100.349 Y162.065 E30.9816
G1 X99.926 Y161.474 E31.00577
G1 X99.572 Y160.84 E31.02992
G1 X99.289 Y160.171 E31.05408
G1 X99.081 Y159.475 E31.07824
G1 X98.951 Y158.76 E31.10241
G1 X98.9 Y157.939 E31.12977
G1 X98.9 Y124.197 E32.25204
G1 X98.94 Y123.472 E32.27619
G1 X99.059 Y122.755 E32.30036
G1 X99.257 Y122.056 E32.32452
G1 X99.408 Y121.683 E32.33791
G1 X99.409 Y113.322 E32.616
G1 X99.322 Y113.125 E32.62316
G1 X99.104 Y112.432 E32.64732
G1 X98.964 Y111.72 E32.67146
G1 X98.9 Y110.803 E32.70203
G1 X98.9 Y77.061 E33.82429
G1 X98.94 Y76.336 E33.84844
G1 X99.059 Y75.619 E33.87262
G1 X99.257 Y74.92 E33.89678
G1 X99.53 Y74.247 E33.92094
G1 X99.875 Y73.608 E33.94509
G1 X100.289 Y73.011 E33.96925
G0 F6000 X100.274 Y73.726
G1 F1200 X100.685 Y73.155 E33.99265
G1 X101.116 Y72.677 E34.01406
G1 X101.233 Y72.56 E34.01956
G1 X101.758 Y72.091 E34.04298
G1 X102.333 Y71.685 E34.06639
G1 X102.951 Y71.347 E34.08982
G1 X103.602 Y71.08 E34.11322
G1 X104.28 Y70.89 E34.13664
G1 X104.975 Y70.777 E34.16006
G1 X105.617 Y70.744 E34.18144
G1 X129.383 Y70.744 E34.9719
G1 X130.086 Y70.784 E34.99532
G1 X130.78 Y70.903 E35.01874
G1 X131.455 Y71.101 E35.04213
G1 X132.104 Y71.373 E35.06554
G1 X132.718 Y71.718 E35.08896
G1 X133.289 Y72.129 E35.11236
G1 X133.767 Y72.56 E35.13377
G1 X133.884 Y72.677 E35.13927
G1 X134.353 Y73.202 E35.16269
G1 X134.759 Y73.777 E35.1861
G1 X135.097 Y74.395 E35.20953
G1 X135.364 Y75.046 E35.23293
G1 X135.554 Y75.724 E35.25635
G1 X135.667 Y76.419 E35.27977
G1 X135.7 Y77.061 E35.30115
G1 X135.7 Y95.741 E35.92245
G1 X135.66 Y96.444 E35.94587
G1 X135.562 Y97.018 E35.96524
G1 X135.667 Y97.666 E35.98707
G1 X135.7 Y98.308 E36.00845
G1 X135.7 Y100.208 E36.07165
G1 X135.675 Y100.643 E36.08614
G1 X135.7 Y101.125 E36.10219
G1 X135.7 Y133.875 E37.19146
G1 X135.677 Y134.287 E37.20519
G1 X135.7 Y134.792 E37.222
G1 X135.7 Y136.692 E37.28519
G1 X135.66 Y137.395 E37.30861
G1 X135.559 Y137.986 E37.32855
G1 X135.615 Y138.234 E37.33701
G1 X135.7 Y139.259 E37.37122
G1 X135.7 Y157.939 E37.99252
G1 X135.66 Y158.642 E38.01594
G1 X135.541 Y159.336 E38.03936
G1 X135.343 Y160.011 E38.06275
G1 X135.071 Y160.66 E38.08616
G1 X134.726 Y161.274 E38.10958
G1 X134.315 Y161.845 E38.13298
G1 X133.884 Y162.323 E38.15439
G1 X133.767 Y162.44 E38.15989
G1 X133.242 Y162.909 E38.18331
G1 X132.667 Y163.315 E38.20672
G1 X132.049 Y163.653 E38.23015
G1 X131.398 Y163.92 E38.25355
G1 X130.72 Y164.11 E38.27697
G1 X130.025 Y164.223 E38.30039
G1 X129.383 Y164.256 E38.32177
G1 X105.617 Y164.256 E39.11223
G1 X104.914 Y164.216 E39.13565
G1 X104.22 Y164.097 E39.15907
G1 X103.545 Y163.899 E39.18247
G1 X102.896 Y163.627 E39.20587
G1 X102.282 Y163.282 E39.2293
G1 X101.711 Y162.871 E39.2527
G1 X101.233 Y162.44 E39.2741
G1 X101.116 Y162.323 E39.27961
G1 X100.647 Y161.798 E39.30302
G1 X100.241 Y161.223 E39.32643
G1 X99.903 Y160.605 E39.34986
G1 X99.636 Y159.954 E39.37326
G1 X99.446 Y159.276 E39.39668
G1 X99.333 Y158.581 E39.4201
G1 X99.3 Y157.939 E39.44148
G1 X99.3 Y124.197 E40.56375
G1 X99.34 Y123.494 E40.58717
G1 X99.459 Y122.8 E40.61059
G1 X99.657 Y122.125 E40.63398
G1 X99.808 Y121.764 E40.647
G1 X99.809 Y113.243 E40.93041
G1 X99.617 Y112.76 E40.94769
G1 X99.433 Y112.08 E40.97112
G1 X99.327 Y111.384 E40.99454
G1 X99.3 Y110.803 E41.01388
G1 X99.3 Y77.061 E42.13615
G1 X99.34 Y76.358 E42.15957
G1 X99.459 Y75.664 E42.18299
G1 X99.657 Y74.989 E42.20638
G1 X99.929 Y74.34 E42.22979
G1 X100.274 Y73.726 E42.25321
G0 F6000 X100.672 Y73.847
G1 F1200 X101.082 Y73.303 E42.27587
G1 X101.399 Y72.96 E42.2914
G1 X101.516 Y72.843 E42.29691
G1 X102.025 Y72.39 E42.31957
G1 X102.583 Y72.001 E42.34219
G1 X103.183 Y71.679 E42.36484
G1 X103.817 Y71.43 E42.3875
G1 X104.476 Y71.257 E42.41016
G1 X105.15 Y71.163 E42.43279
G1 X105.617 Y71.144 E42.44834
G1 X129.383 Y71.144 E43.2388
G1 X130.063 Y71.184 E43.26146
G1 X130.733 Y71.303 E43.28409
G1 X131.385 Y71.5 E43.30674
G1 X132.009 Y71.772 E43.32938
G1 X132.597 Y72.116 E43.35204
G1 X133.141 Y72.526 E43.3747
G1 X133.484 Y72.843 E43.39023
G1 X133.601 Y72.96 E43.39573
G1 X134.054 Y73.469 E43.4184
G1 X134.443 Y74.027 E43.44102
G1 X134.765 Y74.627 E43.46367
G1 X135.014 Y75.261 E43.48632
G1 X135.187 Y75.92 E43.50899
G1 X135.281 Y76.594 E43.53162
G1 X135.3 Y77.061 E43.54717
G1 X135.3 Y95.741 E44.16847
G1 X135.26 Y96.421 E44.19112
G1 X135.152 Y97.032 E44.21176
G1 X135.187 Y97.167 E44.2164
G1 X135.281 Y97.841 E44.23903
G1 X135.3 Y98.308 E44.25458
G1 X135.3 Y100.208 E44.31777
G1 X135.276 Y100.62 E44.3315
G1 X135.281 Y100.658 E44.33277
