;FLAVOR:Marlin
;TIME:15215
;Filament used: 9.17985m
;Layer height: 0.2
;MINX:97.7
;MINY:89.144
;MINZ:0.2
;MAXX:137.346
;MAXY:144.609
;MAXZ:81
;Generated with Cura_SteamEngine 4.9.0
M140 S50
M105
M190 S50
M104 S200
M105
M109 S200
M82 ;absolute extrusion mode
; Ender 3 Custom Start G-code
G92 E0 ; Reset Extruder
G28 ; Home all axes
G1 Z2.0 F3000 ; Move Z Axis up little to prevent scratching of Heat Bed
G1 X0.1 Y20 Z0.3 F5000.0 ; Move to start position
G1 X0.1 Y200.0 Z0.3 F1500.0 E15 ; Draw the first line
G1 X0.4 Y200.0 Z0.3 F5000.0 ; Move to side a little
G1 X0.4 Y20 Z0.3 F1500.0 E30 ; Draw the second line
G92 E0 ; Reset Extruder
G1 Z2.0 F3000 ; Move Z Axis up little to prevent scratching of Heat Bed
G1 X5 Y20 Z0.3 F5000.0 ; Move over to prevent blob squish
G92 E0
G92 E0
G1 F2700 E-5
;LAYER_COUNT:405
;LAYER:0
M107
G0 F6000 X100.147 Y100.474 Z0.2
;TYPE:SKIRT
G1 F2700 E0
G1 F1200 X100.49 Y100.132 E0.01611
G1 X100.782 Y99.858 E0.02943
G1 X101.384 Y99.348 E0.05567
G1 X101.832 Y99.03 E0.07394
G1 X101.87 Y99.005 E0.07546
G1 X102.862 Y98.451 E0.11325
G1 X121.249 Y89.88 E0.78798
G1 X121.98 Y89.583 E0.81422
G1 X122.738 Y89.362 E0.84048
G1 X123.713 Y89.194 E0.87339
G1 X123.769 Y89.188 E0.87526
G1 X124.557 Y89.144 E0.90151
G1 X125.346 Y89.18 E0.92778
G1 X126.128 Y89.295 E0.95407
G1 X126.893 Y89.489 E0.98032
G1 X127.635 Y89.759 E1.00658
G1 X128.346 Y90.102 E1.03284
G1 X128.816 Y90.391 E1.05119
G1 X129.383 Y90.391 E1.07005
G1 X130.172 Y90.431 E1.09632
G1 X130.952 Y90.55 E1.12257
G1 X131.717 Y90.748 E1.14885
G1 X132.457 Y91.022 E1.1751
G1 X133.166 Y91.37 E1.20136
G1 X133.837 Y91.788 E1.22766
G1 X134.461 Y92.271 E1.2539
G1 X134.898 Y92.676 E1.27372
G1 X135.015 Y92.793 E1.27922
G1 X135.545 Y93.379 E1.3055
G1 X136.012 Y94.015 E1.33175
G1 X136.413 Y94.695 E1.358
G1 X136.743 Y95.413 E1.38429
G1 X136.998 Y96.16 E1.41054
G1 X137.177 Y96.929 E1.4368
G1 X137.277 Y97.713 E1.46309
G1 X137.3 Y98.308 E1.48289
G1 X137.3 Y108.092 E1.80831
G1 X137.26 Y108.881 E1.83458
G1 X137.232 Y109.067 E1.84084
G1 X137.277 Y109.422 E1.85274
G1 X137.3 Y110.017 E1.87255
G1 X137.3 Y117.383 E2.11754
G1 X137.26 Y118.172 E2.14382
G1 X137.233 Y118.351 E2.14984
G1 X137.289 Y118.896 E2.16806
G1 X137.3 Y119.304 E2.18164
G1 X137.3 Y130.004 E2.53752
G1 X137.346 Y130.675 E2.55989
G1 X137.319 Y131.465 E2.58618
G1 X137.3 Y131.611 E2.59108
G1 X137.3 Y136.692 E2.76007
G1 X137.26 Y137.481 E2.78635
G1 X137.141 Y138.261 E2.81259
G1 X136.943 Y139.026 E2.83887
G1 X136.669 Y139.766 E2.86512
G1 X136.321 Y140.475 E2.89139
G1 X135.903 Y141.146 E2.91768
G1 X135.42 Y141.77 E2.94393
G1 X135.015 Y142.207 E2.96374
G1 X134.898 Y142.324 E2.96925
G1 X134.312 Y142.854 E2.99553
G1 X133.676 Y143.321 E3.02177
G1 X132.996 Y143.722 E3.04803
G1 X132.278 Y144.052 E3.07431
G1 X131.531 Y144.307 E3.10056
G1 X130.762 Y144.486 E3.12682
G1 X129.978 Y144.586 E3.15311
G1 X129.383 Y144.609 E3.17291
G1 X124.617 Y144.609 E3.33143
G1 X123.828 Y144.569 E3.35771
G1 X123.048 Y144.45 E3.38395
G1 X122.283 Y144.252 E3.41023
G1 X121.543 Y143.978 E3.43648
G1 X120.834 Y143.63 E3.46275
G1 X120.163 Y143.212 E3.48904
G1 X119.539 Y142.729 E3.51529
G1 X119.102 Y142.324 E3.5351
G1 X118.985 Y142.207 E3.54061
G1 X118.455 Y141.621 E3.56689
G1 X117.988 Y140.985 E3.59313
G1 X117.587 Y140.305 E3.61939
G1 X117.257 Y139.587 E3.64567
G1 X117.002 Y138.84 E3.67192
G1 X116.823 Y138.071 E3.69818
G1 X116.723 Y137.287 E3.72447
G1 X116.7 Y136.692 E3.74427
G1 X116.7 Y131.459 E3.91833
G1 X111.736 Y129.143 E4.10051
G1 X109.99 Y128.302 E4.16497
G1 X109.448 Y128.089 E4.18434
G1 X106.086 Y126.478 E4.30834
G1 X105.392 Y126.101 E4.3346
G1 X104.74 Y125.656 E4.36086
G1 X104.147 Y125.156 E4.38666
G1 X104.048 Y125.141 E4.38999
G1 X103.283 Y124.943 E4.41627
G1 X102.543 Y124.669 E4.44252
G1 X101.834 Y124.321 E4.46879
G1 X101.163 Y123.903 E4.49508
G1 X100.539 Y123.42 E4.52132
G1 X100.102 Y123.015 E4.54114
G1 X99.985 Y122.898 E4.54664
G1 X99.455 Y122.312 E4.57292
G1 X98.988 Y121.676 E4.59917
G1 X98.587 Y120.996 E4.62542
G1 X98.257 Y120.278 E4.65171
G1 X98.002 Y119.531 E4.67796
G1 X97.823 Y118.762 E4.70422
G1 X97.723 Y117.978 E4.73051
G1 X97.7 Y117.383 E4.75031
G1 X97.7 Y110.017 E4.99531
G1 X97.721 Y109.607 E5.00896
G1 X97.71 Y109.502 E5.01247
G1 X97.7 Y109.093 E5.02608
G1 X97.702 Y106.725 E5.10484
G1 X97.759 Y105.793 E5.1359
G1 X97.792 Y105.521 E5.14501
G1 X97.926 Y104.742 E5.1713
G1 X98.155 Y103.934 E5.19923
G1 X98.283 Y103.56 E5.21238
G1 X98.576 Y102.827 E5.23864
G1 X99.023 Y101.992 E5.27014
G1 X99.187 Y101.726 E5.28053
G1 X99.635 Y101.076 E5.30679
G1 X100.147 Y100.474 E5.33307
G0 F6000 X100.466 Y100.719
G1 F1200 X100.763 Y100.424 E5.34699
G1 X101.055 Y100.15 E5.36031
G1 X101.643 Y99.653 E5.38592
G1 X102.09 Y99.339 E5.40409
G1 X103.031 Y98.814 E5.43993
G1 X121.418 Y90.243 E6.11466
G1 X122.131 Y89.955 E6.14024
G1 X122.87 Y89.742 E6.16582
G1 X123.756 Y89.592 E6.19571
G1 X123.812 Y89.586 E6.19758
G1 X124.58 Y89.544 E6.22316
G1 X125.348 Y89.582 E6.24874
G1 X126.108 Y89.699 E6.27431
G1 X126.852 Y89.895 E6.2999
G1 X127.571 Y90.167 E6.32547
G1 X128.259 Y90.512 E6.35107
G1 X128.696 Y90.791 E6.36831
G1 X129.383 Y90.791 E6.39116
G1 X130.151 Y90.831 E6.41674
G1 X130.911 Y90.95 E6.44233
G1 X131.654 Y91.148 E6.4679
G1 X132.373 Y91.422 E6.49349
G1 X133.059 Y91.769 E6.51906
G1 X133.706 Y92.185 E6.54465
G1 X134.306 Y92.666 E6.57022
G1 X134.616 Y92.958 E6.58439
G1 X134.733 Y93.075 E6.58989
G1 X135.247 Y93.647 E6.61547
G1 X135.7 Y94.269 E6.64106
G1 X136.086 Y94.934 E6.66663
G1 X136.401 Y95.636 E6.69223
G1 X136.641 Y96.367 E6.71782
G1 X136.804 Y97.118 E6.74338
G1 X136.888 Y97.883 E6.76897
G1 X136.9 Y98.308 E6.78311
G1 X136.9 Y108.092 E7.10853
G1 X136.86 Y108.86 E7.13411
G1 X136.829 Y109.057 E7.14074
G1 X136.888 Y109.592 E7.15864
G1 X136.9 Y110.017 E7.17279
G1 X136.9 Y117.383 E7.41778
G1 X136.86 Y118.151 E7.44336
G1 X136.85 Y118.449 E7.45328
G1 X136.9 Y119.304 E7.48176
G1 X136.9 Y130.01 E7.83784
G1 X136.946 Y130.702 E7.86091
G1 X136.917 Y131.471 E7.88651
G1 X136.9 Y131.599 E7.8908
G1 X136.9 Y136.692 E8.06019
G1 X136.86 Y137.46 E8.08577
G1 X136.741 Y138.22 E8.11136
G1 X136.543 Y138.963 E8.13693
G1 X136.269 Y139.682 E8.16253
G1 X135.922 Y140.368 E8.18809
G1 X135.506 Y141.015 E8.21368
G1 X135.025 Y141.615 E8.23926
G1 X134.733 Y141.925 E8.25342
G1 X134.616 Y142.042 E8.25892
G1 X134.044 Y142.556 E8.2845
G1 X133.422 Y143.009 E8.31009
G1 X132.757 Y143.395 E8.33567
G1 X132.055 Y143.71 E8.36126
G1 X131.324 Y143.95 E8.38685
G1 X130.573 Y144.113 E8.41241
G1 X129.808 Y144.197 E8.43801
G1 X129.383 Y144.209 E8.45215
G1 X124.617 Y144.209 E8.61066
G1 X123.849 Y144.169 E8.63624
G1 X123.089 Y144.05 E8.66183
G1 X122.346 Y143.852 E8.6874
G1 X121.627 Y143.578 E8.713
G1 X120.941 Y143.231 E8.73856
G1 X120.294 Y142.815 E8.76415
G1 X119.694 Y142.334 E8.78973
G1 X119.384 Y142.042 E8.80389
G1 X119.267 Y141.925 E8.80939
G1 X118.753 Y141.353 E8.83497
G1 X118.3 Y140.731 E8.86056
G1 X117.914 Y140.066 E8.88614
G1 X117.599 Y139.364 E8.91173
G1 X117.359 Y138.633 E8.93732
G1 X117.196 Y137.882 E8.96288
G1 X117.112 Y137.117 E8.98848
G1 X117.1 Y136.692 E9.00262
G1 X117.1 Y131.204 E9.18515
G1 X111.91 Y128.783 E9.37563
G1 X110.168 Y127.944 E9.43993
G1 X109.621 Y127.728 E9.4595
G1 X106.259 Y126.117 E9.58349
G1 X105.584 Y125.749 E9.60906
G1 X104.95 Y125.313 E9.63465
G1 X104.365 Y124.814 E9.66023
G1 X104.332 Y124.779 E9.66183
G1 X104.089 Y124.741 E9.67001
G1 X103.346 Y124.543 E9.69558
G1 X102.627 Y124.269 E9.72117
G1 X101.941 Y123.922 E9.74674
G1 X101.294 Y123.506 E9.77233
G1 X100.694 Y123.025 E9.7979
G1 X100.384 Y122.733 E9.81207
G1 X100.267 Y122.616 E9.81757
G1 X99.753 Y122.044 E9.84315
G1 X99.3 Y121.422 E9.86874
G1 X98.914 Y120.757 E9.89432
G1 X98.599 Y120.055 E9.91991
G1 X98.359 Y119.324 E9.9455
G1 X98.196 Y118.573 E9.97106
G1 X98.112 Y117.808 E9.99665
G1 X98.1 Y117.383 E10.0108
G1 X98.1 Y110.017 E10.25579
G1 X98.125 Y109.533 E10.27191
G1 X98.1 Y109.094 E10.28653
G1 X98.102 Y106.726 E10.36529
G1 X98.156 Y105.841 E10.39478
G1 X98.189 Y105.569 E10.4039
G1 X98.321 Y104.811 E10.42949
G1 X98.534 Y104.064 E10.45532
G1 X98.662 Y103.69 E10.46847
G1 X98.948 Y102.976 E10.49405
G1 X99.364 Y102.202 E10.52328
G1 X99.528 Y101.936 E10.53367
G1 X99.965 Y101.304 E10.55923
G1 X100.466 Y100.719 E10.58485
G0 F6000 X101.037 Y100.715
G1 F1200 X101.329 Y100.441 E10.59816
G1 X101.901 Y99.959 E10.62304
G1 X102.31 Y99.673 E10.63964
G1 X103.2 Y99.176 E10.67355
G1 X121.587 Y90.605 E11.34828
G1 X122.28 Y90.326 E11.37313
G1 X123 Y90.122 E11.39802
G1 X123.798 Y89.99 E11.42492
G1 X123.854 Y89.984 E11.42679
G1 X124.601 Y89.944 E11.45167
G1 X125.348 Y89.984 E11.47655
G1 X126.087 Y90.104 E11.50145
G1 X126.808 Y90.301 E11.52631
G1 X127.504 Y90.575 E11.55119
G1 X128.167 Y90.921 E11.57607
G1 X128.572 Y91.191 E11.59226
G1 X129.383 Y91.191 E11.61923
G1 X130.13 Y91.231 E11.64411
G1 X130.868 Y91.35 E11.66897
G1 X131.59 Y91.548 E11.69387
G1 X132.286 Y91.821 E11.71874
G1 X132.949 Y92.168 E11.74363
G1 X133.572 Y92.583 E11.76853
G1 X134.333 Y93.241 E11.80199
G1 X134.45 Y93.358 E11.80749
G1 X134.95 Y93.915 E11.83239
G1 X135.387 Y94.521 E11.85724
G1 X135.758 Y95.171 E11.88213
G1 X136.057 Y95.857 E11.90702
G1 X136.281 Y96.571 E11.93191
G1 X136.428 Y97.304 E11.95677
G1 X136.5 Y98.308 E11.99025
G1 X136.5 Y108.092 E12.31567
G1 X136.46 Y108.839 E12.34055
G1 X136.429 Y109.03 E12.34698
G1 X136.5 Y110.017 E12.3799
G1 X136.5 Y117.383 E12.62489
G1 X136.46 Y118.13 E12.64977
G1 X136.425 Y118.349 E12.65715
G1 X136.48 Y118.781 E12.67163
G1 X136.5 Y119.304 E12.68904
G1 X136.5 Y130.012 E13.04519
G1 X136.547 Y130.728 E13.06906
G1 X136.515 Y131.476 E13.09396
G1 X136.5 Y131.586 E13.09765
G1 X136.5 Y136.692 E13.26748
G1 X136.46 Y137.439 E13.29236
G1 X136.341 Y138.177 E13.31722
G1 X136.143 Y138.899 E13.34212
G1 X135.87 Y139.595 E13.36699
G1 X135.523 Y140.258 E13.39188
G1 X135.108 Y140.881 E13.41677
G1 X134.45 Y141.642 E13.45023
G1 X134.333 Y141.759 E13.45574
G1 X133.776 Y142.259 E13.48063
G1 X133.17 Y142.696 E13.50548
G1 X132.52 Y143.067 E13.53037
G1 X131.834 Y143.366 E13.55526
G1 X131.12 Y143.59 E13.58015
G1 X130.387 Y143.737 E13.60502
G1 X129.383 Y143.809 E13.6385
G1 X124.617 Y143.809 E13.79702
G1 X123.87 Y143.769 E13.8219
G1 X123.132 Y143.65 E13.84676
G1 X122.41 Y143.452 E13.87166
G1 X121.714 Y143.179 E13.89653
G1 X121.051 Y142.832 E13.92141
G1 X120.428 Y142.417 E13.94631
G1 X119.667 Y141.759 E13.97977
G1 X119.55 Y141.642 E13.98528
G1 X119.05 Y141.085 E14.01017
G1 X118.613 Y140.479 E14.03502
G1 X118.242 Y139.829 E14.05991
G1 X117.943 Y139.143 E14.0848
G1 X117.719 Y138.429 E14.10969
G1 X117.572 Y137.696 E14.13456
G1 X117.5 Y136.692 E14.16804
G1 X117.5 Y130.95 E14.35902
G1 X112.083 Y128.422 E14.55784
G1 X110.358 Y127.591 E14.62152
G1 X109.794 Y127.368 E14.6417
G1 X106.432 Y125.757 E14.76569
G1 X105.776 Y125.398 E14.79056
G1 X105.161 Y124.971 E14.81547
G1 X104.596 Y124.481 E14.84034
G1 X104.524 Y124.404 E14.84385
G1 X104.132 Y124.341 E14.85705
G1 X103.41 Y124.143 E14.88195
G1 X102.714 Y123.87 E14.90682
G1 X102.051 Y123.523 E14.93171
G1 X101.428 Y123.108 E14.9566
G1 X100.667 Y122.45 E14.99007
G1 X100.55 Y122.333 E14.99557
G1 X100.05 Y121.776 E15.02046
G1 X99.613 Y121.17 E15.04531
G1 X99.242 Y120.52 E15.07021
G1 X98.943 Y119.834 E15.0951
G1 X98.719 Y119.12 E15.11998
G1 X98.572 Y118.387 E15.14485
G1 X98.5 Y117.383 E15.17833
G1 X98.5 Y110.017 E15.42332
G1 X98.521 Y109.63 E15.43621
G1 X98.519 Y109.617 E15.43665
G1 X98.5 Y109.094 E15.45406
G1 X98.502 Y106.726 E15.53282
G1 X98.553 Y105.889 E15.56071
G1 X98.586 Y105.617 E15.56982
G1 X98.716 Y104.88 E15.59471
G1 X98.912 Y104.193 E15.61847
G1 X99.04 Y103.819 E15.63162
G1 X99.32 Y103.126 E15.65648
G1 X99.704 Y102.412 E15.68345
G1 X99.868 Y102.146 E15.69384
G1 X100.295 Y101.531 E15.71874
G1 X101.037 Y100.715 E15.75542
G0 F6000 X101.311 Y101.007
G1 F1200 X101.603 Y100.733 E15.76874
G1 X102.159 Y100.266 E15.79289
G1 X102.53 Y100.007 E15.80794
G1 X103.369 Y99.539 E15.83989
G1 X121.756 Y90.968 E16.51463
G1 X122.43 Y90.698 E16.53878
G1 X123.13 Y90.503 E16.56294
G1 X123.841 Y90.388 E16.5869
G1 X123.897 Y90.382 E16.58877
G1 X124.622 Y90.344 E16.61292
G1 X125.347 Y90.386 E16.63707
G1 X126.063 Y90.508 E16.66123
G1 X126.762 Y90.708 E16.68541
G1 X127.434 Y90.983 E16.70956
G1 X128.072 Y91.331 E16.73373
G1 X128.445 Y91.591 E16.74886
G1 X129.383 Y91.591 E16.78006
G1 X130.108 Y91.631 E16.80421
G1 X130.825 Y91.75 E16.82838
G1 X131.524 Y91.948 E16.85254
G1 X132.197 Y92.221 E16.8767
G1 X132.836 Y92.566 E16.90085
G1 X133.433 Y92.98 E16.92502
G1 X134.05 Y93.524 E16.95237
G1 X134.167 Y93.641 E16.95788
G1 X134.651 Y94.182 E16.98202
G1 X135.074 Y94.773 E17.00619
G1 X135.428 Y95.407 E17.03035
G1 X135.711 Y96.076 E17.05451
G1 X135.919 Y96.772 E17.07867
G1 X136.049 Y97.487 E17.10284
G1 X136.1 Y98.308 E17.1302
G1 X136.1 Y108.092 E17.45561
G1 X136.06 Y108.817 E17.47976
G1 X136.022 Y109.047 E17.48752
G1 X136.049 Y109.196 E17.49255
G1 X136.1 Y110.017 E17.51991
G1 X136.1 Y117.383 E17.76491
G1 X136.06 Y118.108 E17.78906
G1 X136.035 Y118.382 E17.79821
G1 X136.1 Y119.304 E17.82895
G1 X136.101 Y130.029 E18.18566
G1 X136.147 Y130.754 E18.20983
G1 X136.113 Y131.48 E18.234
G1 X136.1 Y131.573 E18.23712
G1 X136.1 Y136.692 E18.40738
G1 X136.06 Y137.417 E18.43153
G1 X135.941 Y138.134 E18.45571
G1 X135.743 Y138.833 E18.47987
G1 X135.47 Y139.506 E18.50403
G1 X135.125 Y140.145 E18.52818
G1 X134.711 Y140.742 E18.55234
G1 X134.167 Y141.359 E18.5797
G1 X134.05 Y141.476 E18.5852
G1 X133.509 Y141.96 E18.60935
G1 X132.918 Y142.383 E18.63352
G1 X132.284 Y142.737 E18.65767
G1 X131.615 Y143.02 E18.68183
G1 X130.919 Y143.228 E18.70599
G1 X130.204 Y143.358 E18.73016
G1 X129.383 Y143.409 E18.75752
G1 X124.617 Y143.409 E18.91604
G1 X123.892 Y143.369 E18.94019
G1 X123.175 Y143.25 E18.96436
G1 X122.476 Y143.052 E18.98853
G1 X121.803 Y142.779 E19.01268
G1 X121.164 Y142.434 E19.03684
G1 X120.567 Y142.02 E19.061
G1 X119.95 Y141.476 E19.08836
G1 X119.833 Y141.359 E19.09386
G1 X119.349 Y140.818 E19.11801
G1 X118.926 Y140.227 E19.14218
G1 X118.572 Y139.593 E19.16633
G1 X118.289 Y138.924 E19.19049
G1 X118.081 Y138.228 E19.21465
G1 X117.951 Y137.513 E19.23882
G1 X117.9 Y136.692 E19.26618
G1 X117.9 Y130.694 E19.46568
G1 X112.257 Y128.062 E19.67277
G1 X110.545 Y127.237 E19.73598
G1 X109.967 Y127.007 E19.75667
G1 X106.605 Y125.396 E19.88067
G1 X105.968 Y125.047 E19.90483
G1 X105.374 Y124.629 E19.92898
G1 X104.829 Y124.149 E19.95314
G1 X104.722 Y124.032 E19.95841
G1 X104.175 Y123.941 E19.97686
G1 X103.476 Y123.743 E20.00102
G1 X102.803 Y123.47 E20.02517
G1 X102.164 Y123.125 E20.04933
G1 X101.567 Y122.711 E20.07349
G1 X100.95 Y122.167 E20.10085
G1 X100.833 Y122.05 E20.10635
G1 X100.349 Y121.509 E20.1305
G1 X99.926 Y120.918 E20.15467
G1 X99.572 Y120.284 E20.17882
G1 X99.289 Y119.615 E20.20298
G1 X99.081 Y118.919 E20.22714
G1 X98.951 Y118.204 E20.25131
G1 X98.9 Y117.383 E20.27867
G1 X98.9 Y110.017 E20.52367
G1 X98.928 Y109.503 E20.54079
G1 X98.9 Y109.094 E20.55442
G1 X98.902 Y106.726 E20.63318
G1 X98.95 Y105.937 E20.65947
G1 X98.983 Y105.665 E20.66859
G1 X99.11 Y104.95 E20.69274
G1 X99.291 Y104.323 E20.71445
G1 X99.419 Y103.949 E20.72759
G1 X99.691 Y103.276 E20.75174
G1 X100.045 Y102.622 E20.77647
G1 X100.209 Y102.356 E20.78686
G1 X100.624 Y101.76 E20.81102
G1 X101.311 Y101.007 E20.84492
G0 F6000 X101.585 Y101.299
G1 F1200 X101.877 Y101.025 E20.85824
G1 X102.416 Y100.573 E20.88164
G1 X102.749 Y100.341 E20.89513
G1 X103.538 Y99.902 E20.92517
G1 X121.925 Y91.331 E21.5999
G1 X122.578 Y91.07 E21.62329
G1 X123.258 Y90.885 E21.64673
G1 X123.883 Y90.785 E21.66778
G1 X123.939 Y90.779 E21.66965
G1 X124.643 Y90.744 E21.6931
G1 X125.345 Y90.789 E21.71649
G1 X126.038 Y90.913 E21.73991
G1 X126.713 Y91.115 E21.76334
G1 X127.36 Y91.392 E21.78675
G1 X127.971 Y91.741 E21.81015
G1 X128.313 Y91.991 E21.82424
G1 X129.383 Y91.991 E21.85983
G1 X130.086 Y92.031 E21.88325
G1 X130.78 Y92.15 E21.90667
G1 X131.455 Y92.348 E21.93007
G1 X132.104 Y92.62 E21.95347
G1 X132.718 Y92.965 E21.9769
G1 X133.289 Y93.376 E22.0003
G1 X133.767 Y93.807 E22.0217
G1 X133.884 Y93.924 E22.02721
G1 X134.353 Y94.449 E22.05062
G1 X134.759 Y95.024 E22.07403
G1 X135.097 Y95.642 E22.09746
G1 X135.364 Y96.293 E22.12086
