;FLAVOR:Marlin
;TIME:14294
;Filament used: 9.83773m
;Layer height: 0.2
;MINX:21.765
;MINY:104.637
;MINZ:0.2
;MAXX:201.011
;MAXY:130.36
;MAXZ:149.8
;Generated with Cura_SteamEngine 4.9.0
M140 S50
M105
M190 S50
M104 S200
M105
M109 S200
M82 ;absolute extrusion mode
; Ender 3 Custom Start G-code
G92 E0 ; Reset Extruder
G28 ; Home all axes
G1 Z2.0 F3000 ; Move Z Axis up little to prevent scratching of Heat Bed
G1 X0.1 Y20 Z0.3 F5000.0 ; Move to start position
G1 X0.1 Y200.0 Z0.3 F1500.0 E15 ; Draw the first line
G1 X0.4 Y200.0 Z0.3 F5000.0 ; Move to side a little
G1 X0.4 Y20 Z0.3 F1500.0 E30 ; Draw the second line
G92 E0 ; Reset Extruder
G1 Z2.0 F3000 ; Move Z Axis up little to prevent scratching of Heat Bed
G1 X5 Y20 Z0.3 F5000.0 ; Move over to prevent blob squish
G92 E0
G92 E0
G1 F2700 E-5
;LAYER_COUNT:749
;LAYER:0
M107
G0 F6000 X30.081 Y106.128 Z0.2
;TYPE:SKIRT
G1 F2700 E0
G1 F1200 X32.79 Y105.563 E0.09204
G1 X33.608 Y105.438 E0.11956
G1 X38.716 Y104.928 E0.2903
G1 X39.29 Y104.892 E0.30943
G1 X49.087 Y104.639 E0.63539
G1 X49.414 Y104.637 E0.64626
G1 X59.972 Y104.807 E0.99747
G1 X60.173 Y104.813 E1.00416
G1 X81.306 Y105.701 E1.70766
G1 X114.531 Y107.182 E2.81383
G1 X130.922 Y107.614 E3.35919
G1 X147.385 Y107.76 E3.90677
G1 X170.875 Y107.437 E4.68812
G1 X175.419 Y107.303 E4.83932
G1 X176.209 Y107.32 E4.86561
G1 X176.993 Y107.416 E4.89188
G1 X177.763 Y107.592 E4.91815
G1 X178.511 Y107.844 E4.9444
G1 X179.23 Y108.17 E4.97066
G1 X179.912 Y108.568 E4.99692
G1 X180.551 Y109.032 E5.02319
G1 X181.139 Y109.559 E5.04945
G1 X181.672 Y110.142 E5.07572
G1 X182.142 Y110.776 E5.10197
G1 X182.546 Y111.455 E5.12825
G1 X182.879 Y112.171 E5.15451
G1 X183.138 Y112.917 E5.18078
G1 X183.321 Y113.685 E5.20704
G1 X183.434 Y114.593 E5.23747
G1 X183.459 Y114.977 E5.25027
G1 X183.47 Y115.767 E5.27655
G1 X183.401 Y116.554 E5.30282
G1 X183.254 Y117.329 E5.32906
G1 X183.028 Y118.086 E5.35533
G1 X182.727 Y118.816 E5.3816
G1 X182.354 Y119.512 E5.40786
G1 X181.913 Y120.167 E5.43412
G1 X181.407 Y120.774 E5.46041
G1 X180.843 Y121.326 E5.48666
G1 X180.226 Y121.819 E5.51292
G1 X179.562 Y122.246 E5.53918
G1 X178.858 Y122.605 E5.56547
G1 X178.122 Y122.89 E5.59172
G1 X177.361 Y123.1 E5.61797
G1 X176.473 Y123.243 E5.64789
G1 X166.786 Y124.239 E5.97178
G1 X141.768 Y126.597 E6.80757
G1 X114.326 Y128.773 E7.72316
G1 X100.115 Y129.614 E8.19664
G1 X99.967 Y129.622 E8.20157
G1 X86.717 Y130.153 E8.64262
G1 X86.524 Y130.158 E8.64905
G1 X73.291 Y130.36 E9.08923
G1 X73.047 Y130.36 E9.09734
G1 X62.408 Y130.189 E9.45124
G1 X62.043 Y130.175 E9.46339
G1 X49.872 Y129.409 E9.869
G1 X49.401 Y129.365 E9.88474
G1 X43.474 Y128.629 E10.08338
G1 X42.964 Y128.548 E10.10056
G1 X37.255 Y127.452 E10.29391
G1 X36.593 Y127.295 E10.31654
G1 X33.058 Y126.29 E10.43877
G1 X32.242 Y126.008 E10.46749
G1 X29.504 Y124.89 E10.56585
G1 X28.789 Y124.555 E10.59211
G1 X28.346 Y124.3 E10.60911
G1 X26.507 Y123.161 E10.68106
G1 X25.866 Y122.718 E10.70698
G1 X24.997 Y121.948 E10.74559
G1 X24.223 Y121.151 E10.78255
G1 X23.647 Y120.486 E10.81181
G1 X23.179 Y119.816 E10.83899
G1 X22.918 Y119.363 E10.85638
G1 X22.731 Y119.012 E10.86961
G1 X22.395 Y118.297 E10.89588
G1 X22.134 Y117.552 E10.92214
G1 X22.023 Y117.134 E10.93652
G1 X21.973 Y116.922 E10.94377
G1 X21.831 Y116.146 E10.97001
G1 X21.765 Y115.132 E11.0038
G1 X21.765 Y115.084 E11.0054
G1 X21.805 Y114.295 E11.03167
G1 X22.013 Y113.131 E11.071
G1 X22.073 Y112.899 E11.07897
G1 X22.31 Y112.145 E11.10526
G1 X22.621 Y111.42 E11.1315
G1 X22.861 Y110.968 E11.14852
G1 X23.283 Y110.301 E11.17477
G1 X24.004 Y109.425 E11.21251
G1 X24.287 Y109.128 E11.22615
G1 X25.093 Y108.393 E11.26243
G1 X25.117 Y108.374 E11.26345
G1 X25.976 Y107.783 E11.29813
G1 X26.387 Y107.539 E11.31403
G1 X27.086 Y107.171 E11.3403
G1 X27.667 Y106.929 E11.36124
G1 X28.972 Y106.447 E11.40751
G1 X30.081 Y106.128 E11.44589
G0 F6000 X30.163 Y106.52
G1 F1200 X32.872 Y105.955 E11.53793
G1 X33.648 Y105.836 E11.56404
G1 X38.756 Y105.326 E11.73478
G1 X39.3 Y105.291 E11.75291
G1 X49.097 Y105.038 E12.07887
G1 X49.407 Y105.037 E12.08918
G1 X59.965 Y105.207 E12.44038
G1 X60.157 Y105.213 E12.44677
G1 X81.289 Y106.1 E13.15024
G1 X114.56 Y107.583 E14.25794
G1 X130.907 Y108.014 E14.80183
G1 X147.387 Y108.16 E15.34998
G1 X170.893 Y107.837 E16.13187
G1 X175.431 Y107.703 E16.28287
G1 X176.2 Y107.72 E16.30845
G1 X176.963 Y107.817 E16.33403
G1 X177.712 Y107.993 E16.35962
G1 X178.439 Y108.246 E16.38523
G1 X179.135 Y108.572 E16.41079
G1 X179.794 Y108.969 E16.43638
G1 X180.408 Y109.432 E16.46195
G1 X180.97 Y109.957 E16.48753
G1 X181.476 Y110.537 E16.51313
G1 X181.918 Y111.166 E16.5387
G1 X182.292 Y111.838 E16.56428
G1 X182.595 Y112.545 E16.58987
G1 X182.823 Y113.28 E16.61546
G1 X182.973 Y114.034 E16.64103
G1 X183.034 Y114.619 E16.66059
G1 X183.059 Y115.003 E16.67339
G1 X183.069 Y115.772 E16.69897
G1 X183 Y116.538 E16.72455
G1 X182.851 Y117.293 E16.75015
G1 X182.624 Y118.028 E16.77573
G1 X182.322 Y118.735 E16.8013
G1 X181.949 Y119.408 E16.8269
G1 X181.508 Y120.038 E16.85247
G1 X181.004 Y120.619 E16.87805
G1 X180.442 Y121.144 E16.90363
G1 X179.829 Y121.608 E16.9292
G1 X179.17 Y122.006 E16.95481
G1 X178.474 Y122.334 E16.9804
G1 X177.748 Y122.588 E17.00598
G1 X177 Y122.764 E17.03154
G1 X176.432 Y122.845 E17.05062
G1 X166.749 Y123.84 E17.37438
G1 X141.736 Y126.198 E18.21
G1 X114.294 Y128.374 E19.12559
G1 X100.092 Y129.215 E19.59878
G1 X86.701 Y129.753 E20.04453
G1 X86.518 Y129.758 E20.05061
G1 X73.285 Y129.96 E20.4908
G1 X73.053 Y129.96 E20.49851
G1 X62.414 Y129.789 E20.85241
G1 X62.068 Y129.775 E20.86393
G1 X49.897 Y129.009 E21.26954
G1 X49.45 Y128.968 E21.28447
G1 X43.523 Y128.232 E21.48312
G1 X43.04 Y128.155 E21.49939
G1 X37.331 Y127.059 E21.69273
G1 X36.702 Y126.91 E21.71423
G1 X33.167 Y125.905 E21.83647
G1 X32.394 Y125.638 E21.86367
G1 X29.656 Y124.52 E21.96203
G1 X28.96 Y124.193 E21.98761
G1 X28.557 Y123.96 E22.00309
G1 X26.718 Y122.821 E22.07504
G1 X26.108 Y122.4 E22.09969
G1 X25.284 Y121.669 E22.13633
G1 X24.51 Y120.872 E22.17328
G1 X23.963 Y120.242 E22.20103
G1 X23.508 Y119.587 E22.22756
G1 X23.271 Y119.174 E22.24339
G1 X23.084 Y118.823 E22.25662
G1 X22.758 Y118.127 E22.28218
G1 X22.413 Y117.043 E22.32002
G1 X22.363 Y116.831 E22.32726
G1 X22.225 Y116.074 E22.35286
G1 X22.165 Y115.132 E22.38425
G1 X22.165 Y115.084 E22.38585
G1 X22.205 Y114.316 E22.41143
G1 X22.401 Y113.231 E22.4481
G1 X22.461 Y112.999 E22.45607
G1 X22.692 Y112.266 E22.48163
G1 X22.998 Y111.56 E22.50722
G1 X23.209 Y111.165 E22.52212
G1 X23.622 Y110.516 E22.5477
G1 X24.294 Y109.701 E22.58284
G1 X24.577 Y109.404 E22.59648
G1 X25.341 Y108.707 E22.63088
G1 X25.365 Y108.688 E22.6319
G1 X26.18 Y108.127 E22.6648
G1 X26.591 Y107.883 E22.6807
G1 X27.272 Y107.525 E22.70629
G1 X27.805 Y107.304 E22.72548
G1 X29.11 Y106.822 E22.77175
G1 X30.163 Y106.52 E22.80819
G0 F6000 X30.245 Y106.911
G1 F1200 X32.954 Y106.346 E22.90023
G1 X33.688 Y106.234 E22.92492
G1 X38.796 Y105.724 E23.09566
G1 X39.31 Y105.691 E23.11279
G1 X49.107 Y105.438 E23.43875
G1 X49.401 Y105.437 E23.44853
G1 X59.959 Y105.607 E23.79973
G1 X60.14 Y105.612 E23.80576
G1 X81.271 Y106.5 E24.5092
G1 X114.475 Y107.98 E25.61466
G1 X130.951 Y108.415 E26.16285
G1 X147.389 Y108.561 E26.7096
G1 X170.91 Y108.237 E27.49198
G1 X175.443 Y108.103 E27.64282
G1 X176.191 Y108.121 E27.6677
G1 X176.933 Y108.218 E27.69259
G1 X177.66 Y108.395 E27.71748
G1 X178.364 Y108.647 E27.74235
G1 X179.037 Y108.974 E27.76724
G1 X179.671 Y109.37 E27.7921
G1 X180.26 Y109.832 E27.817
G1 X180.795 Y110.354 E27.84186
G1 X181.273 Y110.93 E27.86675
G1 X181.685 Y111.554 E27.89162
G1 X182.029 Y112.218 E27.9165
G1 X182.3 Y112.916 E27.9414
G1 X182.496 Y113.638 E27.96628
G1 X182.635 Y114.645 E28.00009
G1 X182.66 Y115.029 E28.01289
G1 X182.669 Y115.777 E28.03777
G1 X182.598 Y116.522 E28.06266
G1 X182.447 Y117.255 E28.08755
G1 X182.22 Y117.967 E28.11241
G1 X181.917 Y118.652 E28.13732
G1 X181.544 Y119.3 E28.16219
G1 X181.103 Y119.904 E28.18707
G1 X180.6 Y120.458 E28.21195
G1 X180.041 Y120.955 E28.23683
G1 X179.433 Y121.39 E28.2617
G1 X178.781 Y121.757 E28.28658
G1 X178.094 Y122.053 E28.31146
G1 X177.379 Y122.273 E28.33634
G1 X176.391 Y122.447 E28.36971
G1 X166.711 Y123.442 E28.69336
G1 X141.704 Y125.799 E29.52879
G1 X114.122 Y127.985 E30.44904
G1 X100.068 Y128.816 E30.9173
G1 X86.685 Y129.353 E31.36278
G1 X86.512 Y129.358 E31.36853
G1 X73.279 Y129.56 E31.80872
G1 X73.06 Y129.56 E31.816
G1 X62.421 Y129.389 E32.1699
G1 X62.093 Y129.376 E32.18082
G1 X49.922 Y128.61 E32.58643
G1 X49.499 Y128.571 E32.60056
G1 X43.572 Y127.835 E32.7992
G1 X43.115 Y127.762 E32.8146
G1 X37.406 Y126.666 E33.00795
G1 X36.812 Y126.525 E33.02825
G1 X33.277 Y125.52 E33.15049
G1 X32.545 Y125.268 E33.17623
G1 X29.807 Y124.15 E33.2746
G1 X29.13 Y123.83 E33.29951
G1 X28.767 Y123.62 E33.31345
G1 X26.928 Y122.481 E33.3854
G1 X26.351 Y122.082 E33.40873
G1 X25.571 Y121.391 E33.44339
G1 X24.797 Y120.594 E33.48034
G1 X24.28 Y119.997 E33.50661
G1 X24.263 Y119.975 E33.50754
G1 X23.838 Y119.36 E33.5324
G1 X23.624 Y118.986 E33.54673
G1 X23.437 Y118.635 E33.55996
G1 X23.121 Y117.957 E33.58484
G1 X22.802 Y116.951 E33.61994
G1 X22.752 Y116.739 E33.62718
G1 X22.619 Y116.003 E33.65206
G1 X22.565 Y115.132 E33.68109
G1 X22.565 Y115.084 E33.68268
G1 X22.605 Y114.337 E33.70756
G1 X22.788 Y113.331 E33.74157
G1 X22.848 Y113.099 E33.74954
G1 X23.074 Y112.386 E33.77442
G1 X23.531 Y111.408 E33.81032
G1 X23.557 Y111.362 E33.81208
G1 X23.959 Y110.731 E33.83697
G1 X24.583 Y109.977 E33.86952
G1 X24.866 Y109.68 E33.88316
G1 X25.589 Y109.021 E33.9157
G1 X25.613 Y109.002 E33.91672
G1 X26.385 Y108.471 E33.94788
G1 X26.796 Y108.227 E33.96378
G1 X27.458 Y107.88 E33.98864
G1 X27.944 Y107.68 E34.00612
G1 X29.249 Y107.198 E34.05239
G1 X30.245 Y106.911 E34.08686
G0 F6000 X30.326 Y107.303
G1 F1200 X33.035 Y106.738 E34.17891
G1 X33.727 Y106.632 E34.20219
G1 X38.835 Y106.122 E34.37293
G1 X39.321 Y106.091 E34.38912
G1 X49.118 Y105.838 E34.71508
G1 X49.394 Y105.837 E34.72426
G1 X59.952 Y106.007 E35.07547
G1 X60.123 Y106.012 E35.08116
G1 X81.253 Y106.9 E35.78457
G1 X114.447 Y108.38 E36.8897
G1 X130.936 Y108.815 E37.43832
G1 X147.391 Y108.961 E37.98563
G1 X170.928 Y108.637 E38.76855
G1 X175.455 Y108.503 E38.91919
G1 X176.181 Y108.521 E38.94334
G1 X176.901 Y108.62 E38.96751
G1 X177.605 Y108.796 E38.99165
G1 X178.286 Y109.049 E39.01581
G1 X178.935 Y109.376 E39.03998
G1 X179.544 Y109.771 E39.06413
G1 X180.106 Y110.231 E39.08828
G1 X180.614 Y110.751 E39.11246
G1 X181.062 Y111.322 E39.1366
G1 X181.444 Y111.94 E39.16076
G1 X181.757 Y112.596 E39.18494
G1 X181.995 Y113.282 E39.20909
G1 X182.156 Y113.99 E39.23324
G1 X182.236 Y114.671 E39.25604
G1 X182.261 Y115.055 E39.26884
G1 X182.268 Y115.782 E39.29302
G1 X182.196 Y116.504 E39.31716
G1 X182.044 Y117.215 E39.34134
G1 X181.815 Y117.904 E39.36549
G1 X181.512 Y118.564 E39.38964
G1 X181.138 Y119.187 E39.41381
G1 X180.698 Y119.765 E39.43797
G1 X180.198 Y120.291 E39.46211
G1 X179.642 Y120.759 E39.48628
G1 X179.038 Y121.163 E39.51045
G1 X178.394 Y121.498 E39.53459
G1 X177.717 Y121.76 E39.55874
G1 X177.015 Y121.947 E39.5829
G1 X176.35 Y122.049 E39.60528
G1 X166.674 Y123.044 E39.9288
G1 X141.673 Y125.4 E40.76402
G1 X114.231 Y127.576 E41.67961
G1 X100.045 Y128.416 E42.15227
G1 X99.919 Y128.423 E42.15646
G1 X86.669 Y128.954 E42.59751
G1 X86.506 Y128.958 E42.60294
G1 X73.273 Y129.16 E43.04312
G1 X73.066 Y129.16 E43.05
G1 X62.427 Y128.989 E43.4039
G1 X62.118 Y128.977 E43.41419
G1 X49.947 Y128.211 E43.8198
G1 X49.549 Y128.174 E43.83309
G1 X43.622 Y127.438 E44.03174
G1 X43.191 Y127.37 E44.04625
G1 X37.482 Y126.274 E44.2396
G1 X36.921 Y126.14 E44.25879
G1 X33.386 Y125.135 E44.38102
G1 X32.696 Y124.897 E44.4053
G1 X29.958 Y123.779 E44.50366
G1 X29.302 Y123.468 E44.52781
G1 X28.978 Y123.28 E44.54027
G1 X27.139 Y122.141 E44.61221
G1 X26.593 Y121.764 E44.63428
G1 X25.858 Y121.112 E44.66696
G1 X25.084 Y120.315 E44.70391
G1 X24.597 Y119.753 E44.72865
G1 X24.58 Y119.731 E44.72957
G1 X24.168 Y119.132 E44.75375
G1 X23.977 Y118.798 E44.76655
G1 X23.79 Y118.447 E44.77978
G1 X23.484 Y117.788 E44.80394
G1 X23.191 Y116.859 E44.83634
G1 X23.141 Y116.647 E44.84359
G1 X23.014 Y115.932 E44.86774
G1 X22.965 Y115.132 E44.8944
G1 X22.965 Y115.084 E44.89599
G1 X23.005 Y114.359 E44.92014
G1 X23.175 Y113.431 E44.95152
G1 X23.235 Y113.199 E44.95949
G1 X23.456 Y112.507 E44.98365
G1 X23.879 Y111.604 E45.01682
G1 X23.905 Y111.558 E45.01858
G1 X24.297 Y110.947 E45.04272
G1 X24.873 Y110.253 E45.07272
G1 X25.156 Y109.956 E45.08636
G1 X25.837 Y109.334 E45.11704
G1 X25.861 Y109.315 E45.11806
G1 X26.589 Y108.815 E45.14743
G1 X27 Y108.571 E45.16333
G1 X27.644 Y108.235 E45.18749
G1 X28.082 Y108.055 E45.20324
G1 X29.387 Y107.573 E45.24951
G1 X30.326 Y107.303 E45.28201
G0 F6000 X30.408 Y107.695
G1 F1200 X33.117 Y107.13 E45.37405
G1 X33.767 Y107.03 E45.39592
G1 X38.875 Y106.52 E45.56666
G1 X39.331 Y106.491 E45.58186
G1 X49.128 Y106.238 E45.90781
G1 X49.388 Y106.237 E45.91646
G1 X60.106 Y106.411 E46.27299
G1 X81.235 Y107.299 E46.97636
G1 X114.473 Y108.78 E48.08296
G1 X130.923 Y109.214 E48.63028
G1 X147.393 Y109.361 E49.1781
G1 X170.945 Y109.037 E49.96151
G1 X175.467 Y108.903 E50.11198
G1 X176.17 Y108.922 E50.13537
G1 X176.867 Y109.021 E50.15879
G1 X177.549 Y109.198 E50.18222
G1 X178.206 Y109.451 E50.20564
G1 X178.829 Y109.777 E50.22903
G1 X179.412 Y110.172 E50.25245
G1 X179.947 Y110.63 E50.27587
G1 X180.426 Y111.146 E50.29929
G1 X180.843 Y111.713 E50.3227
G1 X181.194 Y112.324 E50.34613
G1 X181.473 Y112.97 E50.36954
G1 X181.677 Y113.644 E50.39296
G1 X181.803 Y114.336 E50.41636
G1 X181.837 Y114.697 E50.42842
G1 X181.862 Y115.081 E50.44121
G1 X181.868 Y115.785 E50.46463
G1 X181.794 Y116.485 E50.48804
G1 X181.641 Y117.172 E50.51145
G1 X181.411 Y117.838 E50.53489
G1 X181.107 Y118.473 E50.5583
G1 X180.733 Y119.069 E50.5817
G1 X180.294 Y119.62 E50.60514
G1 X179.795 Y120.117 E50.62856
G1 X179.244 Y120.554 E50.65195
G1 X178.646 Y120.926 E50.67538
G1 X178.01 Y121.228 E50.69879
G1 X177.344 Y121.455 E50.7222
G1 X176.309 Y121.651 E50.75723
G1 X166.636 Y122.646 E51.08065
G1 X141.641 Y125.002 E51.91568
G1 X114.199 Y127.178 E52.83127
G1 X100.021 Y128.017 E53.30365
G1 X86.653 Y128.554 E53.74863
G1 X86.5 Y128.558 E53.75372
G1 X73.267 Y128.76 E54.19391
G1 X73.072 Y128.76 E54.20039
G1 X62.433 Y128.589 E54.55429
G1 X62.144 Y128.578 E54.56391
G1 X49.973 Y127.812 E54.96952
G1 X49.598 Y127.777 E54.98205
G1 X43.671 Y127.041 E55.1807
G1 X43.266 Y126.977 E55.19433
G1 X37.557 Y125.881 E55.38768
G1 X37.031 Y125.756 E55.40566
G1 X33.496 Y124.751 E55.5279
G1 X32.847 Y124.527 E55.55073
G1 X30.109 Y123.409 E55.6491
G1 X29.188 Y122.94 E55.68347
G1 X27.349 Y121.801 E55.75542
G1 X26.836 Y121.446 E55.77617
G1 X26.145 Y120.833 E55.80689
G1 X25.371 Y120.036 E55.84385
G1 X24.913 Y119.508 E55.86709
G1 X24.896 Y119.486 E55.86802
G1 X24.33 Y118.61 E55.90271
G1 X24.143 Y118.259 E55.91593
G1 X23.848 Y117.62 E55.93934
G1 X23.581 Y116.767 E55.96907
G1 X23.531 Y116.555 E55.97632
G1 X23.408 Y115.862 E55.99972
G1 X23.365 Y115.132 E56.02405
G1 X23.365 Y115.084 E56.02564
G1 X23.405 Y114.381 E56.04906
G1 X23.562 Y113.532 E56.07778
G1 X23.622 Y113.3 E56.08575
G1 X23.837 Y112.629 E56.10919
G1 X24.228 Y111.801 E56.13964
G1 X24.254 Y111.755 E56.1414
G1 X24.634 Y111.163 E56.1648
G1 X25.162 Y110.529 E56.19224
G1 X25.445 Y110.232 E56.20588
G1 X26.086 Y109.648 E56.23472
G1 X26.11 Y109.629 E56.23574
G1 X26.793 Y109.159 E56.26332
G1 X27.204 Y108.915 E56.27921
G1 X27.829 Y108.59 E56.30264
G1 X28.221 Y108.43 E56.31673
G1 X29.526 Y107.948 E56.363
G1 X30.408 Y107.695 E56.39352
G0 F6000 X30.49 Y108.086
G1 F1200 X33.199 Y107.521 E56.48556
G1 X33.807 Y107.428 E56.50601
G1 X38.915 Y106.918 E56.67675
G1 X39.341 Y106.891 E56.69095
G1 X49.138 Y106.638 E57.01691
G1 X49.381 Y106.637 E57.02499
G1 X59.939 Y106.807 E57.37619
G1 X60.089 Y106.811 E57.38119
G1 X81.217 Y107.699 E58.08453
G1 X114.444 Y109.18 E59.19076
G1 X130.908 Y109.614 E59.73854
G1 X147.395 Y109.761 E60.28692
G1 X170.961 Y109.437 E61.07081
G1 X175.478 Y109.303 E61.22111
G1 X176.159 Y109.322 E61.24377
G1 X176.833 Y109.422 E61.26643
G1 X177.49 Y109.6 E61.28907
G1 X178.122 Y109.853 E61.31171
G1 X178.72 Y110.179 E61.33437
