;FLAVOR:Marlin
;TIME:2486
;Filament used: 1.69664m
;Layer height: 0.2
;MINX:30.624
;MINY:104.812
;MINZ:0.2
;MAXX:199.449
;MAXY:132.742
;MAXZ:10
;Generated with Cura_SteamEngine 4.9.0
M140 S50
M105
M190 S50
M104 S200
M105
M109 S200
M82 ;absolute extrusion mode
; Ender 3 Custom Start G-code
G92 E0 ; Reset Extruder
G28 ; Home all axes
G1 Z2.0 F3000 ; Move Z Axis up little to prevent scratching of Heat Bed
G1 X0.1 Y20 Z0.3 F5000.0 ; Move to start position
G1 X0.1 Y200.0 Z0.3 F1500.0 E15 ; Draw the first line
G1 X0.4 Y200.0 Z0.3 F5000.0 ; Move to side a little
G1 X0.4 Y20 Z0.3 F1500.0 E30 ; Draw the second line
G92 E0 ; Reset Extruder
G1 Z2.0 F3000 ; Move Z Axis up little to prevent scratching of Heat Bed
G1 X5 Y20 Z0.3 F5000.0 ; Move over to prevent blob squish
G92 E0
G92 E0
G1 F2700 E-5
;LAYER_COUNT:50
;LAYER:0
M107
G0 F6000 X38.107 Y106.727 Z0.2
;TYPE:SKIRT
G1 F2700 E0
G1 F1200 X38.861 Y106.492 E0.02627
G1 X39.304 Y106.392 E0.04137
G1 X42.141 Y105.796 E0.13779
G1 X42.884 Y105.677 E0.16282
G1 X46.8 Y105.241 E0.29387
G1 X47.283 Y105.202 E0.30999
G1 X53.693 Y104.889 E0.52344
G1 X54.007 Y104.88 E0.53389
G1 X54.483 Y104.877 E0.54972
G1 X59.688 Y104.812 E0.72285
G1 X59.955 Y104.813 E0.73173
G1 X61.381 Y104.844 E0.77917
G1 X76.371 Y105.147 E1.27784
G1 X76.561 Y105.153 E1.28417
G1 X77.842 Y105.21 E1.32681
G1 X95.119 Y105.941 E1.90196
G1 X127.399 Y107.255 E2.97649
G1 X128.083 Y107.269 E2.99924
G1 X152.947 Y107.689 E3.82634
G1 X153.399 Y107.686 E3.84138
G1 X178.608 Y107.409 E4.67988
G1 X178.873 Y107.403 E4.6887
G1 X190.123 Y107.061 E5.06305
G1 X191.331 Y107.015 E5.10325
G1 X192.12 Y107.026 E5.1295
G1 X192.905 Y107.116 E5.15578
G1 X193.676 Y107.286 E5.18204
G1 X194.426 Y107.532 E5.20829
G1 X195.148 Y107.853 E5.23457
G1 X195.833 Y108.245 E5.26082
G1 X196.475 Y108.705 E5.28709
G1 X197.068 Y109.227 E5.31337
G1 X197.604 Y109.806 E5.33961
G1 X198.08 Y110.437 E5.3659
G1 X198.489 Y111.112 E5.39215
G1 X198.828 Y111.826 E5.41844
G1 X199.092 Y112.57 E5.44469
G1 X199.281 Y113.337 E5.47097
G1 X199.397 Y114.199 E5.4999
G1 X199.427 Y114.581 E5.51264
G1 X199.449 Y115.371 E5.53893
G1 X199.391 Y116.158 E5.56517
G1 X199.254 Y116.936 E5.59145
G1 X199.038 Y117.696 E5.61773
G1 X198.747 Y118.43 E5.64399
G1 X198.384 Y119.131 E5.67024
G1 X197.951 Y119.791 E5.6965
G1 X197.453 Y120.405 E5.72279
G1 X196.897 Y120.965 E5.74904
G1 X196.286 Y121.465 E5.7753
G1 X195.628 Y121.902 E5.80157
G1 X194.929 Y122.27 E5.82785
G1 X194.197 Y122.565 E5.85409
G1 X193.438 Y122.784 E5.88037
G1 X192.603 Y122.934 E5.90859
G1 X188.04 Y123.495 E6.06149
G1 X182.358 Y124.182 E6.25185
G1 X175.585 Y125.007 E6.47879
G1 X175.209 Y125.056 E6.4914
G1 X157.319 Y127.166 E7.09055
G1 X155.79 Y127.377 E7.14189
G1 X155.574 Y127.404 E7.14913
G1 X142.38 Y128.848 E7.59058
G1 X140.493 Y129.093 E7.65387
G1 X140.242 Y129.122 E7.66227
G1 X129.079 Y130.204 E8.0353
G1 X126.83 Y130.463 E8.11059
G1 X126.595 Y130.486 E8.11845
G1 X120.789 Y130.976 E8.31224
G1 X119.325 Y131.12 E8.36117
G1 X119.129 Y131.136 E8.36771
G1 X113.398 Y131.554 E8.55883
G1 X111.841 Y131.686 E8.6108
G1 X111.651 Y131.7 E8.61714
G1 X106.316 Y132.021 E8.7949
G1 X104.771 Y132.128 E8.84641
G1 X104.586 Y132.139 E8.85258
G1 X99.329 Y132.379 E9.02761
G1 X97.505 Y132.472 E9.08835
G1 X93.499 Y132.586 E9.22165
G1 X90.408 Y132.68 E9.3245
G1 X85.225 Y132.728 E9.4969
G1 X83.46 Y132.742 E9.5556
G1 X83.097 Y132.736 E9.56768
G1 X80.339 Y132.629 E9.65948
G1 X78.471 Y132.581 E9.72163
G1 X72.027 Y132.405 E9.93604
G1 X71.522 Y132.375 E9.95286
G1 X70.075 Y132.241 E10.00119
G1 X65.335 Y131.905 E10.15924
G1 X64.727 Y131.838 E10.17959
G1 X62.843 Y131.555 E10.24295
G1 X55.551 Y130.669 E10.48727
G1 X54.751 Y130.529 E10.51428
G1 X53.831 Y130.318 E10.54568
G1 X49.008 Y129.388 E10.70904
G1 X48.049 Y129.139 E10.742
G1 X47.394 Y128.924 E10.76493
G1 X42.686 Y127.565 E10.92791
G1 X41.94 Y127.308 E10.95415
G1 X41.42 Y127.077 E10.97308
G1 X41.182 Y126.96 E10.9819
G1 X38.035 Y125.55 E11.09659
G1 X37.332 Y125.191 E11.12285
G1 X36.599 Y124.706 E11.15208
G1 X36.516 Y124.651 E11.15539
G1 X34.86 Y123.469 E11.22306
G1 X34.17 Y122.915 E11.25249
G1 X33.38 Y122.097 E11.29032
G1 X32.633 Y121.201 E11.32912
G1 X32.091 Y120.467 E11.35946
G1 X32.076 Y120.444 E11.36038
G1 X31.573 Y119.55 E11.3945
G1 X31.439 Y119.27 E11.40482
G1 X31.135 Y118.541 E11.43109
G1 X30.944 Y117.933 E11.45229
G1 X30.806 Y117.336 E11.47267
G1 X30.746 Y117.02 E11.48337
G1 X30.638 Y116.238 E11.50962
G1 X30.624 Y115.078 E11.54821
G1 X30.627 Y115.03 E11.54981
G1 X30.716 Y114.246 E11.57605
G1 X30.986 Y113.132 E11.61417
G1 X31.074 Y112.858 E11.62375
G1 X31.353 Y112.119 E11.65002
G1 X31.691 Y111.438 E11.6753
G1 X31.71 Y111.404 E11.6766
G1 X32.13 Y110.735 E11.70287
G1 X32.718 Y109.995 E11.73431
G1 X32.949 Y109.738 E11.7458
G1 X33.506 Y109.178 E11.77207
G1 X33.933 Y108.817 E11.79067
G1 X34.706 Y108.278 E11.82201
G1 X35.277 Y107.929 E11.84427
G1 X36.041 Y107.518 E11.87313
G1 X36.669 Y107.256 E11.89576
G1 X38.107 Y106.727 E11.94672
G0 F6000 X38.245 Y107.102
G1 F1200 X38.98 Y106.874 E11.97231
G1 X39.38 Y106.784 E11.98595
G1 X39.513 Y106.758 E11.99046
G1 X42.224 Y106.188 E12.0826
G1 X42.928 Y106.074 E12.10632
G1 X46.844 Y105.638 E12.23737
G1 X47.302 Y105.602 E12.25265
G1 X53.712 Y105.289 E12.4661
G1 X54.011 Y105.28 E12.47605
G1 X54.487 Y105.277 E12.49188
G1 X59.693 Y105.212 E12.66505
G1 X59.946 Y105.213 E12.67346
G1 X61.372 Y105.244 E12.7209
G1 X76.543 Y105.552 E13.2256
G1 X77.842 Y105.611 E13.26885
G1 X95.103 Y106.341 E13.84346
G1 X127.375 Y107.655 E14.91772
G1 X128.076 Y107.669 E14.94104
G1 X152.942 Y108.089 E15.76821
G1 X153.404 Y108.086 E15.78357
G1 X178.622 Y107.809 E16.62238
G1 X178.836 Y107.804 E16.6295
G1 X190.188 Y107.458 E17.00724
G1 X191.346 Y107.415 E17.04579
G1 X192.115 Y107.426 E17.07136
G1 X192.878 Y107.518 E17.09693
G1 X193.628 Y107.688 E17.1225
G1 X194.357 Y107.934 E17.14809
G1 X195.056 Y108.255 E17.17368
G1 X195.718 Y108.647 E17.19927
G1 X196.335 Y109.106 E17.22484
G1 X196.902 Y109.626 E17.25043
G1 X197.411 Y110.202 E17.276
G1 X197.858 Y110.828 E17.30158
G1 X198.238 Y111.497 E17.32717
G1 X198.546 Y112.202 E17.35276
G1 X198.779 Y112.935 E17.37834
G1 X198.935 Y113.688 E17.40392
G1 X198.998 Y114.231 E17.4221
G1 X199.028 Y114.613 E17.43484
G1 X199.049 Y115.382 E17.46043
G1 X198.989 Y116.148 E17.48599
G1 X198.85 Y116.905 E17.51159
G1 X198.633 Y117.643 E17.53717
G1 X198.341 Y118.354 E17.56273
G1 X197.977 Y119.032 E17.58833
G1 X197.544 Y119.668 E17.61392
G1 X197.048 Y120.255 E17.63948
G1 X196.493 Y120.788 E17.66507
G1 X195.886 Y121.26 E17.69065
G1 X195.233 Y121.667 E17.71624
G1 X194.542 Y122.004 E17.74181
G1 X193.819 Y122.267 E17.7674
G1 X193.073 Y122.454 E17.79298
G1 X192.554 Y122.537 E17.81046
G1 X187.992 Y123.097 E17.96333
G1 X182.317 Y123.784 E18.15346
G1 X175.48 Y124.617 E18.38254
G1 X175.162 Y124.659 E18.39321
G1 X157.267 Y126.77 E18.99253
G1 X155.735 Y126.981 E19.04396
G1 X155.53 Y127.006 E19.05083
G1 X142.341 Y128.449 E19.49212
G1 X140.442 Y128.696 E19.55581
G1 X140.203 Y128.723 E19.56381
G1 X129.106 Y129.799 E19.93463
G1 X126.784 Y130.066 E20.01237
G1 X126.561 Y130.088 E20.01982
G1 X120.647 Y130.587 E20.21722
G1 X119.285 Y130.721 E20.26274
G1 X119.099 Y130.737 E20.26895
G1 X113.401 Y131.153 E20.45897
G1 X111.807 Y131.288 E20.51218
G1 X111.627 Y131.301 E20.51818
G1 X106.284 Y131.622 E20.69621
G1 X104.744 Y131.729 E20.74755
G1 X104.567 Y131.739 E20.75345
G1 X99.358 Y131.977 E20.92688
G1 X97.668 Y132.065 E20.98317
G1 X97.493 Y132.072 E20.98899
G1 X93.487 Y132.186 E21.12229
G1 X90.405 Y132.28 E21.22484
G1 X85.222 Y132.328 E21.39724
G1 X83.457 Y132.342 E21.45594
G1 X83.112 Y132.336 E21.46742
G1 X80.364 Y132.23 E21.55889
G1 X78.482 Y132.181 E21.6215
G1 X72.038 Y132.005 E21.83591
G1 X71.559 Y131.977 E21.85187
G1 X70.095 Y131.842 E21.90077
G1 X65.363 Y131.506 E22.05855
G1 X64.787 Y131.443 E22.07782
G1 X62.88 Y131.156 E22.14197
G1 X55.6 Y130.272 E22.38588
G1 X54.84 Y130.139 E22.41154
G1 X53.911 Y129.926 E22.44324
G1 X49.083 Y128.995 E22.60678
G1 X48.174 Y128.759 E22.63801
G1 X47.527 Y128.546 E22.66067
G1 X45.935 Y128.088 E22.71577
G1 X42.797 Y127.181 E22.82441
G1 X42.07 Y126.929 E22.85
G1 X41.596 Y126.717 E22.86727
G1 X41.367 Y126.605 E22.87575
G1 X38.199 Y125.185 E22.99122
G1 X37.514 Y124.834 E23.01682
G1 X36.766 Y124.338 E23.04667
G1 X36.727 Y124.308 E23.04831
G1 X35.093 Y123.143 E23.11505
G1 X34.437 Y122.617 E23.14302
G1 X33.687 Y121.841 E23.17891
G1 X32.94 Y120.945 E23.21771
G1 X32.426 Y120.248 E23.24652
G1 X32.411 Y120.225 E23.24743
G1 X31.934 Y119.377 E23.27979
G1 X31.8 Y119.097 E23.29012
G1 X31.504 Y118.387 E23.3157
G1 X31.33 Y117.828 E23.33517
G1 X31.199 Y117.261 E23.35453
G1 X31.139 Y116.945 E23.36523
G1 X31.035 Y116.183 E23.39081
G1 X31.023 Y115.103 E23.42673
G1 X31.026 Y115.055 E23.42833
G1 X31.114 Y114.291 E23.45391
G1 X31.366 Y113.254 E23.4894
G1 X31.454 Y112.98 E23.49897
G1 X31.727 Y112.261 E23.52455
G1 X32.04 Y111.633 E23.54789
G1 X32.059 Y111.599 E23.54919
G1 X32.469 Y110.948 E23.57478
G1 X33.015 Y110.262 E23.60394
G1 X33.246 Y110.005 E23.61543
G1 X33.79 Y109.461 E23.64102
G1 X34.181 Y109.131 E23.65804
G1 X34.915 Y108.619 E23.6878
G1 X35.486 Y108.27 E23.71006
G1 X36.211 Y107.88 E23.73744
G1 X36.807 Y107.631 E23.75892
G1 X38.245 Y107.102 E23.80988
G0 F6000 X38.383 Y107.477
G1 F1200 X39.457 Y107.177 E23.84697
G1 X42.306 Y106.579 E23.9438
G1 X42.972 Y106.472 E23.96623
G1 X46.888 Y106.036 E24.09728
G1 X47.322 Y106.001 E24.11177
G1 X53.732 Y105.688 E24.32522
G1 X54.014 Y105.68 E24.3346
G1 X54.49 Y105.677 E24.35043
G1 X59.698 Y105.612 E24.52366
G1 X59.937 Y105.613 E24.53161
G1 X76.354 Y105.946 E25.07776
G1 X95.098 Y106.741 E25.70175
G1 X127.303 Y108.053 E26.77378
G1 X128.094 Y108.069 E26.80009
G1 X152.938 Y108.489 E27.62652
G1 X153.408 Y108.486 E27.64216
G1 X178.635 Y108.209 E28.48126
G1 X178.848 Y108.204 E28.48835
G1 X190.2 Y107.858 E28.86609
G1 X191.36 Y107.815 E28.9047
G1 X192.108 Y107.827 E28.92958
G1 X192.851 Y107.919 E28.95448
G1 X193.579 Y108.089 E28.97935
G1 X194.285 Y108.337 E29.00424
G1 X194.961 Y108.658 E29.02913
G1 X195.598 Y109.05 E29.054
G1 X196.19 Y109.507 E29.07888
G1 X196.73 Y110.025 E29.10376
G1 X197.211 Y110.597 E29.12862
G1 X197.629 Y111.218 E29.15352
G1 X197.978 Y111.88 E29.17841
G1 X198.255 Y112.575 E29.20329
G1 X198.455 Y113.295 E29.22815
G1 X198.6 Y114.262 E29.26067
G1 X198.63 Y114.644 E29.27342
G1 X198.648 Y115.392 E29.2983
G1 X198.587 Y116.137 E29.32316
G1 X198.446 Y116.872 E29.34805
G1 X198.228 Y117.588 E29.37295
G1 X197.935 Y118.276 E29.39782
G1 X197.57 Y118.929 E29.4227
G1 X197.138 Y119.539 E29.44756
G1 X196.642 Y120.1 E29.47247
G1 X196.09 Y120.604 E29.49733
G1 X195.487 Y121.047 E29.52222
G1 X194.84 Y121.423 E29.54711
G1 X194.157 Y121.728 E29.57198
G1 X193.445 Y121.958 E29.59687
G1 X192.505 Y122.14 E29.62872
G1 X187.944 Y122.7 E29.78155
G1 X182.268 Y123.387 E29.97172
G1 X175.454 Y124.217 E30.20003
G1 X175.115 Y124.262 E30.2114
G1 X157.171 Y126.379 E30.81236
G1 X155.681 Y126.584 E30.86238
G1 X155.487 Y126.608 E30.86889
G1 X142.338 Y128.047 E31.30883
G1 X140.39 Y128.3 E31.37417
G1 X140.165 Y128.325 E31.3817
G1 X129.024 Y129.405 E31.75399
G1 X126.739 Y129.668 E31.83049
G1 X126.528 Y129.689 E31.83754
G1 X120.646 Y130.185 E32.03387
G1 X119.246 Y130.323 E32.08066
G1 X119.07 Y130.338 E32.08654
G1 X113.368 Y130.754 E32.27669
G1 X111.774 Y130.889 E32.3299
G1 X111.603 Y130.901 E32.3356
G1 X106.322 Y131.218 E32.51156
G1 X104.716 Y131.33 E32.56511
G1 X104.549 Y131.34 E32.57067
G1 X99.337 Y131.578 E32.7442
G1 X97.647 Y131.666 E32.80049
G1 X93.493 Y131.786 E32.93871
G1 X90.552 Y131.877 E33.03657
G1 X90.401 Y131.88 E33.0416
G1 X85.219 Y131.928 E33.21396
G1 X83.454 Y131.942 E33.27266
G1 X83.128 Y131.937 E33.28351
G1 X80.39 Y131.831 E33.37464
G1 X78.493 Y131.781 E33.43776
G1 X72.049 Y131.605 E33.65217
G1 X71.596 Y131.578 E33.66726
G1 X70.159 Y131.445 E33.71526
G1 X65.392 Y131.107 E33.87421
G1 X64.846 Y131.047 E33.89248
G1 X62.95 Y130.762 E33.95625
G1 X55.648 Y129.875 E34.2009
G1 X54.929 Y129.749 E34.22518
G1 X53.987 Y129.533 E34.25732
G1 X49.159 Y128.602 E34.42086
G1 X48.299 Y128.379 E34.45041
G1 X47.628 Y128.158 E34.47391
G1 X46.046 Y127.704 E34.52865
G1 X42.908 Y126.797 E34.63729
G1 X42.202 Y126.551 E34.66216
G1 X41.772 Y126.358 E34.67783
G1 X41.539 Y126.244 E34.68646
G1 X38.362 Y124.82 E34.80226
G1 X37.697 Y124.478 E34.82713
G1 X37.063 Y124.055 E34.85248
G1 X35.325 Y122.818 E34.92343
G1 X34.703 Y122.319 E34.94995
G1 X33.994 Y121.584 E34.98392
G1 X33.247 Y120.688 E35.02272
G1 X32.761 Y120.03 E35.04993
G1 X32.746 Y120.007 E35.05084
G1 X32.295 Y119.205 E35.08144
G1 X32.161 Y118.925 E35.09177
G1 X31.874 Y118.234 E35.11665
G1 X31.716 Y117.723 E35.13444
G1 X31.592 Y117.187 E35.15274
G1 X31.532 Y116.871 E35.16344
G1 X31.432 Y116.129 E35.18834
G1 X31.423 Y115.128 E35.22164
G1 X31.426 Y115.08 E35.22324
G1 X31.512 Y114.337 E35.24811
G1 X31.747 Y113.377 E35.28098
G1 X31.835 Y113.103 E35.29056
G1 X32.102 Y112.404 E35.31544
G1 X32.389 Y111.828 E35.33685
G1 X32.408 Y111.794 E35.33814
G1 X32.808 Y111.162 E35.36302
G1 X33.313 Y110.53 E35.38993
G1 X33.544 Y110.273 E35.40142
G1 X34.073 Y109.744 E35.4263
G1 X34.429 Y109.445 E35.44177
G1 X35.123 Y108.96 E35.46993
G1 X35.694 Y108.611 E35.49218
G1 X36.381 Y108.242 E35.51812
G1 X36.945 Y108.006 E35.53846
G1 X38.383 Y107.477 E35.58942
G0 F6000 X38.521 Y107.853
G1 F1200 X39.534 Y107.57 E35.6244
G1 X42.388 Y106.97 E35.7214
G1 X43.017 Y106.87 E35.74258
G1 X46.933 Y106.434 E35.87363
G1 X47.341 Y106.401 E35.88725
G1 X53.751 Y106.088 E36.1007
G1 X54.018 Y106.08 E36.10959
G1 X54.494 Y106.077 E36.12542
G1 X59.703 Y106.012 E36.29868
G1 X59.928 Y106.013 E36.30617
G1 X76.346 Y106.346 E36.85234
G1 X77.791 Y106.409 E36.90045
G1 X95.071 Y107.14 E37.4757
G1 X127.328 Y108.453 E38.54946
G1 X128.086 Y108.469 E38.57468
G1 X152.935 Y108.89 E39.40128
G1 X178.65 Y108.609 E40.25661
G1 X190.212 Y108.258 E40.64134
G1 X191.375 Y108.215 E40.68005
G1 X192.102 Y108.228 E40.70423
G1 X192.822 Y108.32 E40.72838
G1 X193.528 Y108.491 E40.75254
G1 X194.211 Y108.739 E40.77671
G1 X194.862 Y109.061 E40.80086
G1 X195.474 Y109.452 E40.82502
G1 X196.04 Y109.907 E40.84917
G1 X196.552 Y110.423 E40.87335
G1 X197.004 Y110.991 E40.89749
G1 X197.391 Y111.606 E40.92166
G1 X197.708 Y112.259 E40.9458
G1 X197.952 Y112.944 E40.96999
G1 X198.118 Y113.651 E40.99414
G1 X198.201 Y114.293 E41.01567
G1 X198.231 Y114.675 E41.02842
G1 X198.248 Y115.401 E41.05257
G1 X198.185 Y116.125 E41.07674
G1 X198.043 Y116.837 E41.10089
G1 X197.823 Y117.53 E41.12507
G1 X197.529 Y118.194 E41.14922
G1 X197.163 Y118.822 E41.1734
G1 X196.731 Y119.405 E41.19753
G1 X196.237 Y119.938 E41.22171
G1 X195.688 Y120.413 E41.24585
G1 X195.09 Y120.825 E41.27
G1 X194.45 Y121.169 E41.29417
G1 X193.776 Y121.44 E41.31833
G1 X193.077 Y121.636 E41.34248
G1 X192.456 Y121.743 E41.36344
G1 X187.896 Y122.303 E41.51624
G1 X182.22 Y122.99 E41.7064
G1 X175.418 Y123.818 E41.93431
G1 X175.068 Y123.865 E41.94606
G1 X157.119 Y125.982 E42.54718
G1 X155.626 Y126.188 E42.59731
G1 X155.443 Y126.211 E42.60344
G1 X142.25 Y127.655 E43.04486
G1 X140.339 Y127.903 E43.10896
G1 X140.126 Y127.927 E43.11609
G1 X128.996 Y129.006 E43.48801
G1 X126.693 Y129.271 E43.56511
G1 X126.494 Y129.291 E43.57176
G1 X120.58 Y129.79 E43.76916
G1 X119.041 Y129.94 E43.82059
G1 X113.257 Y130.362 E44.01348
G1 X111.74 Y130.49 E44.06411
G1 X111.579 Y130.502 E44.06948
G1 X106.269 Y130.821 E44.24641
G1 X104.688 Y130.931 E44.29913
G1 X104.531 Y130.94 E44.30436
G1 X99.303 Y131.179 E44.47842
G1 X97.626 Y131.266 E44.53427
G1 X97.471 Y131.272 E44.53943
G1 X93.481 Y131.386 E44.67219
G1 X90.397 Y131.48 E44.77482
G1 X85.215 Y131.528 E44.94718
G1 X83.45 Y131.542 E45.00588
G1 X83.143 Y131.537 E45.0161
G1 X80.415 Y131.432 E45.1069
G1 X78.504 Y131.382 E45.17048
G1 X72.06 Y131.206 E45.38489
G1 X71.633 Y131.18 E45.39912
G1 X70.179 Y131.046 E45.44768
G1 X65.42 Y130.708 E45.60636
G1 X64.906 Y130.652 E45.62356
G1 X62.992 Y130.364 E45.68794
G1 X55.696 Y129.478 E45.93239
G1 X55.019 Y129.359 E45.95525
G1 X54.096 Y129.148 E45.98674
G1 X49.235 Y128.21 E46.1514
G1 X48.424 Y127.999 E46.17927
G1 X47.754 Y127.779 E46.20273
G1 X43.019 Y126.412 E46.36665
G1 X42.334 Y126.173 E46.39078
